; generated by Slic3r Prusa Edition 1.40.0+ on 2018-07-12 at 13:24:17

; 

; external perimeters extrusion width = 0.45mm
; perimeters extrusion width = 0.45mm
; infill extrusion width = 0.45mm
; solid infill extrusion width = 0.45mm
; top infill extrusion width = 0.40mm
; first layer extrusion width = 0.42mm

M107
M115 U3.2.1 ; tell printer latest fw version
M201 X1000 Y1000 Z200 E5000 ; sets maximum accelerations, mm/sec^2
M203 X200 Y200 Z12 E120 ; sets maximum feedrates, mm/sec
M204 S1250 T1250 ; sets acceleration (S) and retract acceleration (T)
M205 X10 Y10 Z0.4 E2.5 ; sets the jerk limits, mm/sec
M205 S0 T0 ; sets the minimum extruding and travel feed rate, mm/sec
M83  ; extruder relative mode
M104 S215 ; set extruder temp
M140 S60 ; set bed temp
M190 S60 ; wait for bed temp
M109 S215 ; wait for extruder temp
G28 W ; home all without mesh bed level
G80 ; mesh bed leveling
G1 Y-3.0 F1000.0 ; go outside print area
G92 E0.0
G1 X60.0 E9.0  F1000.0 ; intro line
G1 X100.0 E12.5  F1000.0 ; intro line
G92 E0.0
M221 S95
M900 K30; Filament gcode
G21 ; set units to millimeters
G90 ; use absolute coordinates
M83 ; use relative distances for extrusion
;BEFORE_LAYER_CHANGE
G92 E0.0
;0.2


G1 E-0.80000 F2100.00000
G1 Z0.600 F10800.000
;AFTER_LAYER_CHANGE
;0.2
G1 X14.664 Y53.799
G1 Z0.200
G1 E0.80000 F2100.00000
M204 S1000
G1 F1800
G1 X15.286 Y53.169 E0.02777
G1 X16.061 Y52.846 E0.02631
G1 X17.076 Y52.802 E0.03186
G1 X234.450 Y52.821 E6.81560
G1 X234.921 Y52.872 E0.01487
G1 X235.374 Y53.026 E0.01498
G1 X235.857 Y53.333 E0.01794
G1 X236.245 Y53.758 E0.01805
G1 X236.509 Y54.270 E0.01805
G1 X236.631 Y54.832 E0.01805
G1 X237.640 Y73.628 E0.59016
G1 X238.080 Y86.164 E0.39333
G1 X238.366 Y104.963 E0.58949
G1 X238.503 Y126.864 E0.68670
G1 X238.339 Y155.035 E0.88331
G1 X238.135 Y155.934 E0.02889
G1 X237.799 Y156.450 E0.01930
G1 X237.333 Y156.852 E0.01930
G1 X236.773 Y157.108 E0.01930
G1 X236.160 Y157.198 E0.01942
G1 X13.736 Y157.179 E6.97397
G1 X13.264 Y157.126 E0.01487
G1 X12.815 Y156.974 E0.01487
G1 X12.324 Y156.659 E0.01828
G1 X11.932 Y156.224 E0.01839
G1 X11.670 Y155.702 E0.01828
G1 X11.555 Y155.127 E0.01839
G1 X11.497 Y136.155 E0.59486
G1 X11.783 Y106.445 E0.93159
G1 X12.962 Y76.789 E0.93058
G1 X13.649 Y64.185 E0.39578
G1 X14.343 Y54.620 E0.30068
G1 X14.642 Y53.855 E0.02577
G1 F8640
G1 X15.286 Y53.169 E-0.21729
G1 X16.061 Y52.846 E-0.19374
G1 X17.076 Y52.802 E-0.23462
G1 X17.571 Y52.802 E-0.11435
G1 E-0.04000 F2100.00000
G1 Z0.800 F10800.000
G1 X17.046 Y55.577
G1 Z0.200
G1 E0.80000 F2100.00000
G1 F1800
G1 X233.893 Y55.597 E6.79907
G1 X234.868 Y73.760 E0.57031
G1 X235.008 Y76.870 E0.09763
G1 X235.306 Y86.238 E0.29385
G1 X235.412 Y92.483 E0.19584
G1 X235.590 Y104.993 E0.39230
G1 X235.722 Y123.746 E0.58801
G1 X235.727 Y126.866 E0.09783
G1 X235.567 Y154.423 E0.86402
G1 X14.324 Y154.403 E6.93694
G1 X14.277 Y145.622 E0.27532
G1 X14.273 Y136.162 E0.29662
G1 X14.448 Y123.772 E0.38852
G1 X14.551 Y111.211 E0.39385
G1 X14.544 Y108.070 E0.09849
G1 X14.557 Y106.510 E0.04891
G1 X14.596 Y104.957 E0.04869
G1 X14.898 Y98.724 E0.19567
G1 X15.460 Y86.263 E0.39110
G1 X15.569 Y83.136 E0.09808
G1 X15.736 Y76.899 E0.19563
G1 X15.884 Y73.775 E0.09806
G1 X16.419 Y64.357 E0.29576
G1 X17.042 Y55.637 E0.27411
G1 X16.695 Y55.200 F10800.000
G1 F1800
G1 X234.251 Y55.220 E6.82129
G1 X234.898 Y67.524 E0.38633
G1 X235.245 Y73.741 E0.19522
G1 X235.384 Y76.856 E0.09777
G1 X235.683 Y86.228 E0.29402
G1 X235.789 Y92.477 E0.19595
G1 X235.967 Y104.989 E0.39236
G1 X236.099 Y123.745 E0.58808
G1 X236.104 Y126.867 E0.09790
G1 X235.942 Y154.800 E0.87582
G1 X13.948 Y154.780 E6.96045
G1 X13.900 Y145.623 E0.28711
G1 X13.896 Y136.159 E0.29674
G1 X14.071 Y123.767 E0.38857
G1 X14.173 Y111.210 E0.39376
G1 X14.167 Y108.068 E0.09849
G1 X14.180 Y106.503 E0.04907
G1 X14.220 Y104.943 E0.04893
G1 X14.522 Y98.706 E0.19579
G1 X15.083 Y86.248 E0.39102
G1 X15.192 Y83.125 E0.09797
G1 X15.359 Y76.885 E0.19571
G1 X15.507 Y73.756 E0.09824
G1 X16.043 Y64.333 E0.29591
G1 X16.691 Y55.260 E0.28521
G1 X17.037 Y55.408 F10800.000
G1 F8640
G1 X19.982 Y55.259 E-0.76000
G1 E-0.04000 F2100.00000
G1 Z0.800 F10800.000
G1 X15.199 Y154.290
G1 Z0.200
G1 E0.80000 F2100.00000
G1 F1800
G1 X14.603 Y153.693 E0.02647
G1 X14.600 Y153.157 E0.01683
G1 X15.563 Y154.120 E0.04275
G1 X16.097 Y154.120 E0.01674
G1 X14.597 Y152.620 E0.06654
G1 X14.594 Y152.084 E0.01683
G1 X16.630 Y154.120 E0.09034
G1 X17.164 Y154.120 E0.01674
G1 X14.591 Y151.548 E0.11414
G1 X14.588 Y151.011 E0.01683
G1 X17.698 Y154.120 E0.13794
G1 X18.231 Y154.121 E0.01674
G1 X14.586 Y150.475 E0.16174
G1 X14.583 Y149.938 E0.01683
G1 X18.765 Y154.121 E0.18554
G1 X19.298 Y154.121 E0.01674
G1 X14.580 Y149.402 E0.20934
G1 X14.577 Y148.866 E0.01683
G1 X19.832 Y154.121 E0.23314
G1 X20.366 Y154.121 E0.01674
G1 X14.574 Y148.329 E0.25694
G1 X14.571 Y147.793 E0.01683
G1 X20.899 Y154.121 E0.28074
G1 X21.433 Y154.121 E0.01674
G1 X14.569 Y147.256 E0.30454
G1 X14.566 Y146.720 E0.01683
G1 X21.967 Y154.121 E0.32834
G1 X22.500 Y154.121 E0.01674
G1 X14.563 Y146.184 E0.35214
G1 X14.560 Y145.647 E0.01683
G1 X23.034 Y154.121 E0.37594
G1 X23.567 Y154.121 E0.01674
G1 X14.560 Y145.113 E0.39963
G1 X14.559 Y144.580 E0.01675
G1 X24.101 Y154.121 E0.42332
G1 X24.635 Y154.121 E0.01674
G1 X14.559 Y144.046 E0.44700
G1 X14.559 Y143.512 E0.01675
G1 X25.168 Y154.121 E0.47069
G1 X25.702 Y154.121 E0.01674
G1 X14.559 Y142.978 E0.49437
G1 X14.559 Y142.444 E0.01675
G1 X26.235 Y154.121 E0.51806
G1 X26.769 Y154.121 E0.01674
G1 X14.558 Y141.911 E0.54174
G1 X14.558 Y141.377 E0.01675
G1 X27.303 Y154.121 E0.56543
G1 X27.836 Y154.121 E0.01674
G1 X14.558 Y140.843 E0.58911
G1 X14.558 Y140.309 E0.01675
G1 X28.370 Y154.121 E0.61279
G1 X28.903 Y154.121 E0.01674
G1 X14.557 Y139.775 E0.63648
G1 X14.557 Y139.242 E0.01675
G1 X29.437 Y154.122 E0.66016
G1 X29.971 Y154.122 E0.01674
G1 X14.557 Y138.708 E0.68385
G1 X14.557 Y138.174 E0.01675
G1 X30.504 Y154.122 E0.70753
G1 X31.038 Y154.122 E0.01674
G1 X14.556 Y137.640 E0.73122
G1 X14.556 Y137.106 E0.01675
G1 X31.572 Y154.122 E0.75490
G1 X32.105 Y154.122 E0.01674
G1 X14.556 Y136.573 E0.77859
G1 X14.557 Y136.041 E0.01669
G1 X32.639 Y154.122 E0.80219
G1 X33.172 Y154.122 E0.01674
G1 X14.565 Y135.514 E0.82554
G1 X14.572 Y134.988 E0.01651
G1 X33.706 Y154.122 E0.84888
G1 X34.240 Y154.122 E0.01674
G1 X14.580 Y134.462 E0.87223
G1 X14.587 Y133.936 E0.01651
G1 X34.773 Y154.122 E0.89557
G1 X35.307 Y154.122 E0.01674
G1 X14.595 Y133.410 E0.91891
G1 X14.602 Y132.884 E0.01651
G1 X35.840 Y154.122 E0.94226
G1 X36.374 Y154.122 E0.01674
G1 X14.610 Y132.358 E0.96560
G1 X14.617 Y131.832 E0.01651
G1 X36.908 Y154.122 E0.98895
G1 X37.441 Y154.122 E0.01674
G1 X14.624 Y131.305 E1.01229
G1 X14.632 Y130.779 E0.01651
G1 X37.975 Y154.122 E1.03564
G1 X38.508 Y154.122 E0.01674
G1 X14.639 Y130.253 E1.05898
G1 X14.647 Y129.727 E0.01651
G1 X39.042 Y154.122 E1.08232
G1 X39.576 Y154.122 E0.01674
G1 X14.654 Y129.201 E1.10567
G1 X14.662 Y128.675 E0.01651
G1 X40.109 Y154.122 E1.12901
G1 X40.643 Y154.123 E0.01674
G1 X14.669 Y128.149 E1.15236
G1 X14.676 Y127.622 E0.01651
G1 X41.177 Y154.123 E1.17570
G1 X41.710 Y154.123 E0.01674
G1 X14.684 Y127.096 E1.19905
G1 X14.691 Y126.570 E0.01651
G1 X42.244 Y154.123 E1.22239
G1 X42.777 Y154.123 E0.01674
G1 X14.699 Y126.044 E1.24573
G1 X14.706 Y125.518 E0.01651
G1 X43.311 Y154.123 E1.26908
G1 X43.845 Y154.123 E0.01674
G1 X14.714 Y124.992 E1.29242
G1 X14.721 Y124.466 E0.01651
G1 X44.378 Y154.123 E1.31577
G1 X44.912 Y154.123 E0.01674
G1 X14.728 Y123.940 E1.33911
G1 X14.734 Y123.411 E0.01657
G1 X45.445 Y154.123 E1.36255
G1 X45.979 Y154.123 E0.01674
G1 X14.738 Y122.882 E1.38603
G1 X14.742 Y122.353 E0.01660
G1 X46.513 Y154.123 E1.40952
G1 X47.046 Y154.123 E0.01674
G1 X14.747 Y121.824 E1.43300
G1 X14.751 Y121.294 E0.01660
G1 X47.580 Y154.123 E1.45648
G1 X48.113 Y154.123 E0.01674
G1 X14.755 Y120.765 E1.47996
G1 X14.760 Y120.236 E0.01660
G1 X48.647 Y154.123 E1.50345
G1 X49.181 Y154.123 E0.01674
G1 X14.764 Y119.707 E1.52693
G1 X14.768 Y119.177 E0.01660
G1 X49.714 Y154.123 E1.55041
G1 X50.248 Y154.123 E0.01674
G1 X14.773 Y118.648 E1.57389
G1 X14.777 Y118.119 E0.01660
G1 X50.781 Y154.123 E1.59738
G1 X51.315 Y154.123 E0.01674
G1 X14.781 Y117.590 E1.62086
G1 X14.786 Y117.060 E0.01660
G1 X51.849 Y154.124 E1.64434
G1 X52.382 Y154.124 E0.01674
G1 X14.790 Y116.531 E1.66782
G1 X14.794 Y116.002 E0.01660
G1 X52.916 Y154.124 E1.69131
G1 X53.450 Y154.124 E0.01674
G1 X14.799 Y115.473 E1.71479
G1 X14.803 Y114.943 E0.01660
G1 X53.983 Y154.124 E1.73827
G1 X54.517 Y154.124 E0.01674
G1 X14.807 Y114.414 E1.76175
G1 X14.811 Y113.885 E0.01660
G1 X55.050 Y154.124 E1.78524
G1 X55.584 Y154.124 E0.01674
G1 X14.816 Y113.356 E1.80872
G1 X14.820 Y112.826 E0.01660
G1 X56.118 Y154.124 E1.83220
G1 X56.651 Y154.124 E0.01674
G1 X14.824 Y112.297 E1.85568
G1 X14.829 Y111.768 E0.01660
G1 X57.185 Y154.124 E1.87917
G1 X57.718 Y154.124 E0.01674
G1 X14.833 Y111.239 E1.90265
G1 X14.832 Y110.704 E0.01677
G1 X58.252 Y154.124 E1.92636
G1 X58.786 Y154.124 E0.01674
G1 X14.831 Y110.170 E1.95009
G1 X14.830 Y109.635 E0.01677
G1 X59.319 Y154.124 E1.97381
G1 X59.853 Y154.124 E0.01674
G1 X14.829 Y109.100 E1.99754
G1 X14.828 Y108.565 E0.01677
G1 X60.386 Y154.124 E2.02126
G1 X60.920 Y154.124 E0.01674
G1 X14.827 Y108.031 E2.04497
G1 X14.831 Y107.502 E0.01659
G1 X61.454 Y154.124 E2.06844
G1 X61.987 Y154.124 E0.01674
G1 X14.836 Y106.973 E2.09191
G1 X14.842 Y106.445 E0.01656
G1 X62.521 Y154.124 E2.11533
G1 X63.055 Y154.125 E0.01674
G1 X14.855 Y105.925 E2.13842
G1 X14.868 Y105.404 E0.01633
G1 X63.588 Y154.125 E2.16151
G1 X64.122 Y154.125 E0.01674
G1 X14.883 Y104.886 E2.18452
G1 X14.908 Y104.377 E0.01598
G1 X64.655 Y154.125 E2.20710
G1 X65.189 Y154.125 E0.01674
G1 X14.932 Y103.868 E2.22968
G1 X14.957 Y103.359 E0.01598
G1 X65.723 Y154.125 E2.25226
G1 X66.256 Y154.125 E0.01674
G1 X14.982 Y102.850 E2.27485
G1 X15.006 Y102.341 E0.01598
G1 X66.790 Y154.125 E2.29743
G1 X67.323 Y154.125 E0.01674
G1 X15.031 Y101.832 E2.32001
G1 X15.056 Y101.323 E0.01598
G1 X67.857 Y154.125 E2.34259
G1 X68.391 Y154.125 E0.01674
G1 X15.080 Y100.815 E2.36517
G1 X15.105 Y100.306 E0.01598
G1 X68.924 Y154.125 E2.38775
G1 X69.458 Y154.125 E0.01674
G1 X15.129 Y99.797 E2.41033
G1 X15.154 Y99.288 E0.01598
G1 X69.991 Y154.125 E2.43291
G1 X70.525 Y154.125 E0.01674
G1 X15.179 Y98.779 E2.45549
G1 X15.202 Y98.268 E0.01603
G1 X71.059 Y154.125 E2.47814
G1 X71.592 Y154.125 E0.01674
G1 X15.225 Y97.758 E2.50079
G1 X15.248 Y97.247 E0.01603
G1 X72.126 Y154.125 E2.52345
G1 X72.660 Y154.125 E0.01674
G1 X15.271 Y96.737 E2.54610
G1 X15.294 Y96.226 E0.01603
G1 X73.193 Y154.125 E2.56875
G1 X73.727 Y154.125 E0.01674
G1 X15.317 Y95.716 E2.59140
G1 X15.340 Y95.205 E0.01603
G1 X74.260 Y154.126 E2.61406
G1 X74.794 Y154.126 E0.01674
G1 X15.363 Y94.695 E2.63671
G1 X15.386 Y94.184 E0.01603
G1 X75.328 Y154.126 E2.65936
G1 X75.861 Y154.126 E0.01674
G1 X15.409 Y93.674 E2.68202
G1 X15.432 Y93.163 E0.01603
G1 X76.395 Y154.126 E2.70467
G1 X76.928 Y154.126 E0.01674
G1 X15.455 Y92.652 E2.72732
G1 X15.478 Y92.142 E0.01603
G1 X77.462 Y154.126 E2.74997
G1 X77.996 Y154.126 E0.01674
G1 X15.501 Y91.631 E2.77263
G1 X15.524 Y91.121 E0.01603
G1 X78.529 Y154.126 E2.79528
G1 X79.063 Y154.126 E0.01674
G1 X15.547 Y90.610 E2.81793
G1 X15.570 Y90.100 E0.01603
G1 X79.596 Y154.126 E2.84059
G1 X80.130 Y154.126 E0.01674
G1 X15.593 Y89.589 E2.86324
G1 X15.616 Y89.079 E0.01603
G1 X80.664 Y154.126 E2.88589
G1 X81.197 Y154.126 E0.01674
G1 X15.639 Y88.568 E2.90855
G1 X15.662 Y88.058 E0.01603
G1 X81.731 Y154.126 E2.93120
G1 X82.265 Y154.126 E0.01674
G1 X15.685 Y87.547 E2.95385
G1 X15.708 Y87.036 E0.01603
G1 X82.798 Y154.126 E2.97650
G1 X83.332 Y154.126 E0.01674
G1 X15.731 Y86.526 E2.99916
G1 X15.752 Y86.013 E0.01611
G1 X83.865 Y154.126 E3.02192
G1 X84.399 Y154.126 E0.01674
G1 X15.770 Y85.497 E3.04480
G1 X15.788 Y84.982 E0.01618
G1 X84.933 Y154.126 E3.06767
G1 X85.466 Y154.127 E0.01674
G1 X15.806 Y84.466 E3.09055
G1 X15.824 Y83.951 E0.01618
G1 X86.000 Y154.127 E3.11343
G1 X86.533 Y154.127 E0.01674
G1 X15.842 Y83.435 E3.13630
G1 X15.858 Y82.918 E0.01624
G1 X87.067 Y154.127 E3.15926
G1 X87.601 Y154.127 E0.01674
G1 X15.872 Y82.398 E3.18232
G1 X15.886 Y81.878 E0.01631
G1 X88.134 Y154.127 E3.20537
G1 X88.668 Y154.127 E0.01674
G1 X15.900 Y81.359 E3.22843
G1 X15.913 Y80.839 E0.01631
G1 X89.201 Y154.127 E3.25149
G1 X89.735 Y154.127 E0.01674
G1 X15.927 Y80.319 E3.27455
G1 X15.941 Y79.800 E0.01631
G1 X90.269 Y154.127 E3.29761
G1 X90.802 Y154.127 E0.01674
G1 X15.955 Y79.280 E3.32066
G1 X15.969 Y78.760 E0.01631
G1 X91.336 Y154.127 E3.34372
G1 X91.869 Y154.127 E0.01674
G1 X15.983 Y78.240 E3.36678
G1 X15.997 Y77.721 E0.01631
G1 X92.403 Y154.127 E3.38984
G1 X92.937 Y154.127 E0.01674
G1 X16.011 Y77.201 E3.41290
G1 X16.029 Y76.686 E0.01617
G1 X93.470 Y154.127 E3.43576
G1 X94.004 Y154.127 E0.01674
G1 X16.053 Y76.176 E3.45836
G1 X16.077 Y75.667 E0.01600
G1 X94.538 Y154.127 E3.48097
G1 X95.071 Y154.127 E0.01674
G1 X16.101 Y75.158 E3.50357
G1 X16.125 Y74.648 E0.01600
G1 X95.605 Y154.127 E3.52618
G1 X96.138 Y154.127 E0.01674
G1 X16.150 Y74.139 E3.54878
G1 X16.175 Y73.631 E0.01596
G1 X96.672 Y154.128 E3.57132
G1 X97.206 Y154.128 E0.01674
G1 X16.204 Y73.126 E3.59372
G1 X16.232 Y72.621 E0.01586
G1 X97.739 Y154.128 E3.61612
G1 X98.273 Y154.128 E0.01674
G1 X16.261 Y72.116 E3.63852
G1 X16.290 Y71.611 E0.01586
G1 X98.806 Y154.128 E3.66092
G1 X99.340 Y154.128 E0.01674
G1 X16.319 Y71.106 E3.68332
G1 X16.347 Y70.601 E0.01586
G1 X99.874 Y154.128 E3.70573
G1 X100.407 Y154.128 E0.01674
G1 X16.376 Y70.097 E3.72813
G1 X16.405 Y69.592 E0.01586
G1 X100.941 Y154.128 E3.75053
G1 X101.474 Y154.128 E0.01674
G1 X16.433 Y69.087 E3.77293
G1 X16.462 Y68.582 E0.01586
G1 X102.008 Y154.128 E3.79533
G1 X102.542 Y154.128 E0.01674
G1 X16.491 Y68.077 E3.81773
G1 X16.519 Y67.572 E0.01586
G1 X103.075 Y154.128 E3.84013
G1 X103.609 Y154.128 E0.01674
G1 X16.548 Y67.067 E3.86253
G1 X16.577 Y66.563 E0.01586
G1 X104.143 Y154.128 E3.88493
G1 X104.676 Y154.128 E0.01674
G1 X16.606 Y66.058 E3.90733
G1 X16.634 Y65.553 E0.01586
G1 X105.210 Y154.128 E3.92973
G1 X105.743 Y154.128 E0.01674
G1 X16.663 Y65.048 E3.95214
G1 X16.692 Y64.543 E0.01586
G1 X106.277 Y154.128 E3.97454
G1 X106.811 Y154.128 E0.01674
G1 X16.725 Y64.043 E3.99673
G1 X16.761 Y63.545 E0.01566
G1 X107.344 Y154.128 E4.01883
G1 X107.878 Y154.128 E0.01674
G1 X16.796 Y63.047 E4.04092
G1 X16.832 Y62.549 E0.01566
G1 X108.411 Y154.129 E4.06302
G1 X108.945 Y154.129 E0.01674
G1 X16.867 Y62.051 E4.08511
G1 X16.903 Y61.553 E0.01566
G1 X109.479 Y154.129 E4.10721
G1 X110.012 Y154.129 E0.01674
G1 X16.938 Y61.055 E4.12930
G1 X16.974 Y60.557 E0.01566
G1 X110.546 Y154.129 E4.15140
G1 X111.079 Y154.129 E0.01674
G1 X17.010 Y60.059 E4.17350
G1 X17.045 Y59.561 E0.01566
G1 X111.613 Y154.129 E4.19559
G1 X112.147 Y154.129 E0.01674
G1 X17.081 Y59.063 E4.21769
G1 X17.116 Y58.565 E0.01566
G1 X112.680 Y154.129 E4.23978
G1 X113.214 Y154.129 E0.01674
G1 X17.152 Y58.067 E4.26188
G1 X17.188 Y57.569 E0.01566
G1 X113.748 Y154.129 E4.28397
G1 X114.281 Y154.129 E0.01674
G1 X17.223 Y57.071 E4.30607
G1 X17.259 Y56.573 E0.01566
G1 X114.815 Y154.129 E4.32816
G1 X115.348 Y154.129 E0.01674
G1 X17.294 Y56.075 E4.35026
G1 X17.310 Y55.860 E0.00676
G1 X17.613 Y55.860 E0.00951
G1 X115.882 Y154.129 E4.35980
G1 X116.416 Y154.129 E0.01674
G1 X18.147 Y55.860 E4.35980
G1 X18.680 Y55.860 E0.01674
G1 X116.949 Y154.129 E4.35980
G1 X117.483 Y154.129 E0.01674
G1 X19.214 Y55.860 E4.35980
G1 X19.747 Y55.860 E0.01674
G1 X118.016 Y154.129 E4.35980
G1 X118.550 Y154.129 E0.01674
G1 X20.281 Y55.860 E4.35980
G1 X20.815 Y55.860 E0.01674
G1 X119.084 Y154.129 E4.35980
G1 X119.617 Y154.130 E0.01674
G1 X21.348 Y55.861 E4.35980
G1 X21.882 Y55.861 E0.01674
G1 X120.151 Y154.130 E4.35980
G1 X120.684 Y154.130 E0.01674
G1 X22.415 Y55.861 E4.35980
G1 X22.949 Y55.861 E0.01674
G1 X121.218 Y154.130 E4.35980
G1 X121.752 Y154.130 E0.01674
G1 X23.483 Y55.861 E4.35980
G1 X24.016 Y55.861 E0.01674
G1 X122.285 Y154.130 E4.35980
G1 X122.819 Y154.130 E0.01674
G1 X24.550 Y55.861 E4.35980
G1 X25.084 Y55.861 E0.01674
G1 X123.353 Y154.130 E4.35980
G1 X123.886 Y154.130 E0.01674
G1 X25.617 Y55.861 E4.35980
