; generated by Slic3r Prusa Edition 1.40.0+ on 2018-07-12 at 13:12:08

; 

; external perimeters extrusion width = 0.45mm
; perimeters extrusion width = 0.45mm
; infill extrusion width = 0.45mm
; solid infill extrusion width = 0.45mm
; top infill extrusion width = 0.40mm
; first layer extrusion width = 0.42mm

M107
M115 U3.2.1 ; tell printer latest fw version
M201 X1000 Y1000 Z200 E5000 ; sets maximum accelerations, mm/sec^2
M203 X200 Y200 Z12 E120 ; sets maximum feedrates, mm/sec
M204 S1250 T1250 ; sets acceleration (S) and retract acceleration (T)
M205 X10 Y10 Z0.4 E2.5 ; sets the jerk limits, mm/sec
M205 S0 T0 ; sets the minimum extruding and travel feed rate, mm/sec
M83  ; extruder relative mode
M104 S215 ; set extruder temp
M140 S60 ; set bed temp
M190 S60 ; wait for bed temp
M109 S215 ; wait for extruder temp
G28 W ; home all without mesh bed level
G80 ; mesh bed leveling
G1 Y-3.0 F1000.0 ; go outside print area
G92 E0.0
G1 X60.0 E9.0  F1000.0 ; intro line
G1 X100.0 E12.5  F1000.0 ; intro line
G92 E0.0
M221 S95
M900 K30; Filament gcode
G21 ; set units to millimeters
G90 ; use absolute coordinates
M83 ; use relative distances for extrusion
;BEFORE_LAYER_CHANGE
G92 E0.0
;0.2


G1 E-0.80000 F2100.00000
G1 Z0.600 F10800.000
;AFTER_LAYER_CHANGE
;0.2
G1 X15.138 Y53.855
G1 Z0.200
G1 E0.80000 F2100.00000
M204 S1000
G1 F1800
G1 X15.759 Y53.194 E0.02844
G1 X16.549 Y52.851 E0.02698
G1 X17.585 Y52.802 E0.03252
G1 X232.995 Y52.821 E6.75403
G1 X233.491 Y52.879 E0.01567
G1 X233.958 Y53.047 E0.01555
G1 X234.461 Y53.389 E0.01908
G1 X234.853 Y53.859 E0.01919
G1 X235.098 Y54.416 E0.01908
G1 X235.180 Y55.023 E0.01919
G1 X234.396 Y70.952 E0.50006
G1 X233.813 Y80.671 E0.30527
G1 X232.850 Y92.927 E0.38548
G1 X229.123 Y134.771 E1.31719
G1 X227.198 Y155.229 E0.64427
G1 X226.983 Y155.977 E0.02439
G1 X226.644 Y156.477 E0.01896
G1 X226.180 Y156.865 E0.01896
G1 X225.631 Y157.111 E0.01885
G1 X225.033 Y157.198 E0.01896
G1 X24.090 Y157.180 E6.30040
G1 X23.598 Y157.123 E0.01555
G1 X23.127 Y156.955 E0.01567
G1 X22.716 Y156.691 E0.01532
G1 X22.371 Y156.340 E0.01544
G1 X22.113 Y155.921 E0.01544
G1 X21.955 Y155.454 E0.01544
G1 X21.280 Y148.418 E0.22164
G1 X18.095 Y107.745 E1.27916
G1 X16.056 Y78.135 E0.93059
G1 X15.517 Y68.781 E0.29378
G1 X14.838 Y54.711 E0.44167
G1 X15.118 Y53.912 E0.02656
G1 F8640
G1 X15.759 Y53.194 E-0.22218
G1 X16.549 Y52.851 E-0.19870
G1 X17.585 Y52.802 E-0.23950
G1 X18.016 Y52.802 E-0.09961
G1 E-0.04000 F2100.00000
G1 Z0.800 F10800.000
G1 X17.627 Y55.578
G1 Z0.200
G1 E0.80000 F2100.00000
G1 F1800
G1 X232.375 Y55.597 E6.73328
G1 X231.786 Y67.672 E0.37904
G1 X231.384 Y75.108 E0.23350
G1 X230.948 Y81.867 E0.21238
G1 X230.497 Y87.825 E0.18733
G1 X230.084 Y92.687 E0.15298
G1 X229.627 Y97.574 E0.15391
G1 X229.169 Y102.070 E0.14171
G1 X228.496 Y108.333 E0.19749
G1 X228.188 Y111.500 E0.09976
G1 X227.795 Y116.194 E0.14771
G1 X226.965 Y127.179 E0.34542
G1 X226.504 Y132.881 E0.17934
G1 X226.084 Y137.358 E0.14101
G1 X225.464 Y142.951 E0.17642
G1 X225.102 Y146.545 E0.11327
G1 X224.793 Y150.158 E0.11368
G1 X224.475 Y154.422 E0.13408
G1 X24.628 Y154.404 E6.26607
G1 X24.186 Y149.773 E0.14587
G1 X23.840 Y145.716 E0.12766
G1 X21.095 Y110.658 E1.10261
G1 X20.646 Y104.497 E0.19367
G1 X18.826 Y77.952 E0.83425
G1 X18.637 Y74.915 E0.09541
G1 X18.288 Y68.633 E0.19729
G1 X17.630 Y55.638 E0.40797
G1 X17.230 Y55.201 F10800.000
G1 F1800
G1 X232.771 Y55.220 E6.75813
G1 X232.162 Y67.691 E0.39149
G1 X231.761 Y75.130 E0.23360
G1 X231.324 Y81.894 E0.21250
G1 X230.873 Y87.855 E0.18745
G1 X230.460 Y92.720 E0.15309
G1 X230.003 Y97.611 E0.15401
G1 X229.544 Y102.110 E0.14179
G1 X228.871 Y108.371 E0.19746
G1 X228.563 Y111.534 E0.09962
G1 X228.171 Y116.224 E0.14758
G1 X227.340 Y127.209 E0.34540
G1 X226.880 Y132.913 E0.17945
G1 X226.459 Y137.397 E0.14119
G1 X225.839 Y142.990 E0.17646
G1 X225.478 Y146.580 E0.11313
G1 X225.169 Y150.188 E0.11353
G1 X224.825 Y154.799 E0.14499
G1 X24.285 Y154.781 E6.28779
G1 X23.811 Y149.807 E0.15668
G1 X23.464 Y145.747 E0.12776
G1 X20.719 Y110.686 E1.10268
G1 X20.270 Y104.524 E0.19373
G1 X18.450 Y77.977 E0.83431
G1 X18.261 Y74.937 E0.09549
G1 X17.912 Y68.653 E0.19736
G1 X17.233 Y55.261 E0.42043
G1 X17.580 Y55.395 F10800.000
G1 F8640
G1 X20.524 Y55.260 E-0.76000
G1 E-0.04000 F2100.00000
G1 Z0.800 F10800.000
G1 X25.495 Y154.291
G1 Z0.200
G1 E0.80000 F2100.00000
G1 F1800
G1 X24.839 Y153.635 E0.02912
G1 X24.782 Y153.045 E0.01858
G1 X25.859 Y154.122 E0.04775
G1 X26.392 Y154.122 E0.01673
G1 X24.726 Y152.455 E0.07391
G1 X24.670 Y151.866 E0.01858
G1 X26.926 Y154.122 E0.10006
G1 X27.459 Y154.122 E0.01673
G1 X24.614 Y151.276 E0.12622
G1 X24.557 Y150.686 E0.01858
G1 X27.993 Y154.122 E0.15238
G1 X28.526 Y154.122 E0.01673
G1 X24.501 Y150.097 E0.17853
G1 X24.447 Y149.510 E0.01849
G1 X29.060 Y154.122 E0.20457
G1 X29.593 Y154.122 E0.01673
G1 X24.398 Y148.926 E0.23044
G1 X24.348 Y148.343 E0.01836
G1 X30.127 Y154.122 E0.25631
G1 X30.660 Y154.122 E0.01673
G1 X24.298 Y147.760 E0.28218
G1 X24.248 Y147.177 E0.01836
G1 X31.194 Y154.122 E0.30805
G1 X31.727 Y154.122 E0.01673
G1 X24.199 Y146.594 E0.33392
G1 X24.149 Y146.011 E0.01836
G1 X32.260 Y154.122 E0.35979
G1 X32.794 Y154.122 E0.01673
G1 X24.101 Y145.429 E0.38557
G1 X24.056 Y144.851 E0.01821
G1 X33.327 Y154.122 E0.41124
G1 X33.861 Y154.122 E0.01673
G1 X24.010 Y144.272 E0.43691
G1 X23.965 Y143.693 E0.01821
G1 X34.394 Y154.122 E0.46258
G1 X34.928 Y154.122 E0.01673
G1 X23.920 Y143.114 E0.48825
G1 X23.874 Y142.536 E0.01821
G1 X35.461 Y154.123 E0.51392
G1 X35.995 Y154.123 E0.01673
G1 X23.829 Y141.957 E0.53959
G1 X23.784 Y141.378 E0.01821
G1 X36.528 Y154.123 E0.56526
G1 X37.062 Y154.123 E0.01673
G1 X23.738 Y140.799 E0.59093
G1 X23.693 Y140.221 E0.01821
G1 X37.595 Y154.123 E0.61660
G1 X38.129 Y154.123 E0.01673
G1 X23.648 Y139.642 E0.64227
G1 X23.603 Y139.063 E0.01821
G1 X38.662 Y154.123 E0.66795
G1 X39.196 Y154.123 E0.01673
G1 X23.557 Y138.485 E0.69362
G1 X23.512 Y137.906 E0.01821
G1 X39.729 Y154.123 E0.71929
G1 X40.262 Y154.123 E0.01673
G1 X23.467 Y137.327 E0.74496
G1 X23.421 Y136.748 E0.01821
G1 X40.796 Y154.123 E0.77063
G1 X41.329 Y154.123 E0.01673
G1 X23.376 Y136.170 E0.79630
G1 X23.331 Y135.591 E0.01821
G1 X41.863 Y154.123 E0.82197
G1 X42.396 Y154.123 E0.01673
G1 X23.285 Y135.012 E0.84764
G1 X23.240 Y134.433 E0.01821
G1 X42.930 Y154.123 E0.87331
G1 X43.463 Y154.123 E0.01673
G1 X23.195 Y133.855 E0.89898
G1 X23.149 Y133.276 E0.01821
G1 X43.997 Y154.123 E0.92466
G1 X44.530 Y154.123 E0.01673
G1 X23.104 Y132.697 E0.95033
G1 X23.059 Y132.119 E0.01821
G1 X45.064 Y154.123 E0.97600
G1 X45.597 Y154.123 E0.01673
G1 X23.013 Y131.540 E1.00167
G1 X22.968 Y130.961 E0.01821
G1 X46.131 Y154.123 E1.02734
G1 X46.664 Y154.124 E0.01673
G1 X22.923 Y130.382 E1.05301
G1 X22.877 Y129.804 E0.01821
G1 X47.197 Y154.124 E1.07868
G1 X47.731 Y154.124 E0.01673
G1 X22.832 Y129.225 E1.10435
G1 X22.787 Y128.646 E0.01821
G1 X48.264 Y154.124 E1.13002
G1 X48.798 Y154.124 E0.01673
G1 X22.742 Y128.067 E1.15569
G1 X22.696 Y127.489 E0.01821
G1 X49.331 Y154.124 E1.18137
G1 X49.865 Y154.124 E0.01673
G1 X22.651 Y126.910 E1.20704
G1 X22.606 Y126.331 E0.01821
G1 X50.398 Y154.124 E1.23271
G1 X50.932 Y154.124 E0.01673
G1 X22.560 Y125.752 E1.25838
G1 X22.515 Y125.174 E0.01821
G1 X51.465 Y154.124 E1.28405
G1 X51.999 Y154.124 E0.01673
G1 X22.470 Y124.595 E1.30972
G1 X22.424 Y124.016 E0.01821
G1 X52.532 Y154.124 E1.33539
G1 X53.066 Y154.124 E0.01673
G1 X22.379 Y123.438 E1.36106
G1 X22.334 Y122.859 E0.01821
G1 X53.599 Y154.124 E1.38673
G1 X54.132 Y154.124 E0.01673
G1 X22.288 Y122.280 E1.41240
G1 X22.243 Y121.701 E0.01821
G1 X54.666 Y154.124 E1.43808
G1 X55.199 Y154.124 E0.01673
G1 X22.198 Y121.123 E1.46375
G1 X22.152 Y120.544 E0.01821
G1 X55.733 Y154.124 E1.48942
G1 X56.266 Y154.124 E0.01673
G1 X22.107 Y119.965 E1.51509
G1 X22.062 Y119.386 E0.01821
G1 X56.800 Y154.124 E1.54076
G1 X57.333 Y154.124 E0.01673
G1 X22.016 Y118.808 E1.56643
G1 X21.971 Y118.229 E0.01821
G1 X57.867 Y154.125 E1.59210
G1 X58.400 Y154.125 E0.01673
G1 X21.926 Y117.650 E1.61777
G1 X21.881 Y117.071 E0.01821
G1 X58.934 Y154.125 E1.64344
G1 X59.467 Y154.125 E0.01673
G1 X21.835 Y116.493 E1.66911
G1 X21.790 Y115.914 E0.01821
G1 X60.001 Y154.125 E1.69479
G1 X60.534 Y154.125 E0.01673
G1 X21.745 Y115.335 E1.72046
G1 X21.699 Y114.757 E0.01821
G1 X61.068 Y154.125 E1.74613
G1 X61.601 Y154.125 E0.01673
G1 X21.654 Y114.178 E1.77180
G1 X21.609 Y113.599 E0.01821
G1 X62.134 Y154.125 E1.79747
G1 X62.668 Y154.125 E0.01673
G1 X21.563 Y113.020 E1.82314
G1 X21.518 Y112.442 E0.01821
G1 X63.201 Y154.125 E1.84881
G1 X63.735 Y154.125 E0.01673
G1 X21.473 Y111.863 E1.87448
G1 X21.427 Y111.284 E0.01821
G1 X64.268 Y154.125 E1.90015
G1 X64.802 Y154.125 E0.01673
G1 X21.382 Y110.705 E1.92582
G1 X21.340 Y110.130 E0.01810
G1 X65.335 Y154.125 E1.95136
G1 X65.869 Y154.125 E0.01673
G1 X21.298 Y109.554 E1.97688
G1 X21.256 Y108.979 E0.01809
G1 X66.402 Y154.125 E2.00240
G1 X66.936 Y154.125 E0.01673
G1 X21.214 Y108.404 E2.02792
G1 X21.172 Y107.828 E0.01809
G1 X67.469 Y154.125 E2.05344
G1 X68.003 Y154.125 E0.01673
G1 X21.130 Y107.253 E2.07896
G1 X21.088 Y106.678 E0.01809
G1 X68.536 Y154.125 E2.10448
G1 X69.069 Y154.126 E0.01673
G1 X21.046 Y106.103 E2.13000
G1 X21.005 Y105.527 E0.01809
G1 X69.603 Y154.126 E2.15552
G1 X70.136 Y154.126 E0.01673
G1 X20.963 Y104.952 E2.18104
G1 X20.921 Y104.377 E0.01808
G1 X70.670 Y154.126 E2.20654
G1 X71.203 Y154.126 E0.01673
G1 X20.882 Y103.804 E2.23194
G1 X20.843 Y103.232 E0.01800
G1 X71.737 Y154.126 E2.25734
G1 X72.270 Y154.126 E0.01673
G1 X20.803 Y102.659 E2.28274
G1 X20.764 Y102.086 E0.01800
G1 X72.804 Y154.126 E2.30815
G1 X73.337 Y154.126 E0.01673
G1 X20.725 Y101.514 E2.33355
G1 X20.686 Y100.941 E0.01800
G1 X73.871 Y154.126 E2.35895
G1 X74.404 Y154.126 E0.01673
G1 X20.646 Y100.368 E2.38436
G1 X20.607 Y99.796 E0.01800
G1 X74.938 Y154.126 E2.40976
G1 X75.471 Y154.126 E0.01673
G1 X20.568 Y99.223 E2.43516
G1 X20.529 Y98.650 E0.01800
G1 X76.004 Y154.126 E2.46056
G1 X76.538 Y154.126 E0.01673
G1 X20.489 Y98.078 E2.48597
G1 X20.450 Y97.505 E0.01800
G1 X77.071 Y154.126 E2.51137
G1 X77.605 Y154.126 E0.01673
G1 X20.411 Y96.932 E2.53677
G1 X20.371 Y96.359 E0.01800
G1 X78.138 Y154.126 E2.56218
G1 X78.672 Y154.126 E0.01673
G1 X20.332 Y95.787 E2.58758
G1 X20.293 Y95.214 E0.01800
G1 X79.205 Y154.126 E2.61298
G1 X79.739 Y154.126 E0.01673
G1 X20.254 Y94.641 E2.63838
G1 X20.214 Y94.069 E0.01800
G1 X80.272 Y154.127 E2.66379
G1 X80.806 Y154.127 E0.01673
G1 X20.175 Y93.496 E2.68919
G1 X20.136 Y92.923 E0.01800
G1 X81.339 Y154.127 E2.71459
G1 X81.873 Y154.127 E0.01673
G1 X20.097 Y92.351 E2.74000
G1 X20.057 Y91.778 E0.01800
G1 X82.406 Y154.127 E2.76540
G1 X82.940 Y154.127 E0.01673
G1 X20.018 Y91.205 E2.79080
G1 X19.979 Y90.633 E0.01800
G1 X83.473 Y154.127 E2.81620
G1 X84.006 Y154.127 E0.01673
G1 X19.939 Y90.060 E2.84161
G1 X19.900 Y89.487 E0.01800
G1 X84.540 Y154.127 E2.86701
G1 X85.073 Y154.127 E0.01673
G1 X19.861 Y88.915 E2.89241
G1 X19.822 Y88.342 E0.01800
G1 X85.607 Y154.127 E2.91781
G1 X86.140 Y154.127 E0.01673
G1 X19.782 Y87.769 E2.94322
G1 X19.743 Y87.196 E0.01800
G1 X86.674 Y154.127 E2.96862
G1 X87.207 Y154.127 E0.01673
G1 X19.704 Y86.624 E2.99402
G1 X19.665 Y86.051 E0.01800
G1 X87.741 Y154.127 E3.01943
G1 X88.274 Y154.127 E0.01673
G1 X19.625 Y85.478 E3.04483
G1 X19.586 Y84.906 E0.01800
G1 X88.808 Y154.127 E3.07023
G1 X89.341 Y154.127 E0.01673
G1 X19.547 Y84.333 E3.09563
G1 X19.508 Y83.760 E0.01800
G1 X89.875 Y154.127 E3.12104
G1 X90.408 Y154.127 E0.01673
G1 X19.468 Y83.188 E3.14644
G1 X19.429 Y82.615 E0.01800
G1 X90.941 Y154.127 E3.17184
G1 X91.475 Y154.128 E0.01673
G1 X19.390 Y82.042 E3.19725
G1 X19.350 Y81.470 E0.01800
G1 X92.008 Y154.128 E3.22265
G1 X92.542 Y154.128 E0.01673
G1 X19.311 Y80.897 E3.24805
G1 X19.272 Y80.324 E0.01800
G1 X93.075 Y154.128 E3.27345
G1 X93.609 Y154.128 E0.01673
G1 X19.233 Y79.752 E3.29886
G1 X19.193 Y79.179 E0.01800
G1 X94.142 Y154.128 E3.32426
G1 X94.676 Y154.128 E0.01673
G1 X19.154 Y78.606 E3.34966
G1 X19.115 Y78.034 E0.01800
G1 X95.209 Y154.128 E3.37507
G1 X95.743 Y154.128 E0.01673
G1 X19.079 Y77.464 E3.40032
G1 X19.044 Y76.895 E0.01787
G1 X96.276 Y154.128 E3.42555
G1 X96.810 Y154.128 E0.01673
G1 X19.008 Y76.327 E3.45077
G1 X18.973 Y75.758 E0.01787
G1 X97.343 Y154.128 E3.47600
G1 X97.876 Y154.128 E0.01673
G1 X18.938 Y75.189 E3.50122
G1 X18.904 Y74.623 E0.01781
G1 X98.410 Y154.128 E3.52636
G1 X98.943 Y154.128 E0.01673
G1 X18.873 Y74.058 E3.55142
G1 X18.842 Y73.493 E0.01774
G1 X99.477 Y154.128 E3.57647
G1 X100.010 Y154.128 E0.01673
G1 X18.810 Y72.928 E3.60152
G1 X18.779 Y72.363 E0.01774
G1 X100.544 Y154.128 E3.62658
G1 X101.077 Y154.128 E0.01673
G1 X18.747 Y71.799 E3.65163
G1 X18.716 Y71.234 E0.01774
G1 X101.611 Y154.128 E3.67669
G1 X102.144 Y154.128 E0.01673
G1 X18.685 Y70.669 E3.70174
G1 X18.653 Y70.104 E0.01774
G1 X102.678 Y154.129 E3.72679
G1 X103.211 Y154.129 E0.01673
G1 X18.622 Y69.539 E3.75185
G1 X18.590 Y68.974 E0.01774
G1 X103.745 Y154.129 E3.77690
G1 X104.278 Y154.129 E0.01673
G1 X18.560 Y68.411 E3.80191
G1 X18.532 Y67.849 E0.01765
G1 X104.811 Y154.129 E3.82683
G1 X105.345 Y154.129 E0.01673
G1 X18.503 Y67.287 E3.85176
G1 X18.475 Y66.725 E0.01765
G1 X105.878 Y154.129 E3.87668
G1 X106.412 Y154.129 E0.01673
G1 X18.446 Y66.163 E3.90161
G1 X18.418 Y65.601 E0.01765
G1 X106.945 Y154.129 E3.92653
G1 X107.479 Y154.129 E0.01673
G1 X18.389 Y65.039 E3.95145
G1 X18.361 Y64.477 E0.01765
G1 X108.012 Y154.129 E3.97638
G1 X108.546 Y154.129 E0.01673
G1 X18.332 Y63.916 E4.00130
G1 X18.304 Y63.354 E0.01765
G1 X109.079 Y154.129 E4.02623
G1 X109.613 Y154.129 E0.01673
G1 X18.275 Y62.792 E4.05115
G1 X18.247 Y62.230 E0.01765
G1 X110.146 Y154.129 E4.07608
G1 X110.680 Y154.129 E0.01673
G1 X18.218 Y61.668 E4.10100
G1 X18.190 Y61.106 E0.01765
G1 X111.213 Y154.129 E4.12592
G1 X111.747 Y154.129 E0.01673
G1 X18.161 Y60.544 E4.15085
G1 X18.133 Y59.982 E0.01765
G1 X112.280 Y154.129 E4.17577
G1 X112.813 Y154.129 E0.01673
G1 X18.104 Y59.420 E4.20070
G1 X18.076 Y58.858 E0.01765
G1 X113.347 Y154.129 E4.22562
G1 X113.880 Y154.130 E0.01673
G1 X18.047 Y58.297 E4.25055
G1 X18.019 Y57.735 E0.01765
G1 X114.414 Y154.130 E4.27547
G1 X114.947 Y154.130 E0.01673
G1 X17.991 Y57.173 E4.30039
G1 X17.962 Y56.611 E0.01765
G1 X115.481 Y154.130 E4.32532
G1 X116.014 Y154.130 E0.01673
G1 X17.934 Y56.049 E4.35024
G1 X17.924 Y55.861 E0.00591
G1 X18.279 Y55.861 E0.01112
G1 X116.548 Y154.130 E4.35860
G1 X117.081 Y154.130 E0.01673
G1 X18.812 Y55.861 E4.35860
G1 X19.346 Y55.861 E0.01673
G1 X117.615 Y154.130 E4.35860
G1 X118.148 Y154.130 E0.01673
G1 X19.879 Y55.861 E4.35860
G1 X20.413 Y55.861 E0.01673
G1 X118.682 Y154.130 E4.35860
G1 X119.215 Y154.130 E0.01673
G1 X20.946 Y55.861 E4.35860
G1 X21.479 Y55.861 E0.01673
G1 X119.748 Y154.130 E4.35860
G1 X120.282 Y154.130 E0.01673
G1 X22.013 Y55.861 E4.35860
G1 X22.546 Y55.861 E0.01673
G1 X120.815 Y154.130 E4.35860
G1 X121.349 Y154.130 E0.01673
G1 X23.080 Y55.861 E4.35860
G1 X23.613 Y55.861 E0.01673
G1 X121.882 Y154.130 E4.35860
G1 X122.416 Y154.130 E0.01673
G1 X24.147 Y55.861 E4.35860
G1 X24.680 Y55.861 E0.01673
G1 X122.949 Y154.130 E4.35860
G1 X123.483 Y154.130 E0.01673
G1 X25.214 Y55.861 E4.35860
G1 X25.747 Y55.861 E0.01673
G1 X124.016 Y154.130 E4.35860
G1 X124.550 Y154.130 E0.01673
G1 X26.281 Y55.861 E4.35860
G1 X26.814 Y55.861 E0.01673
G1 X125.083 Y154.130 E4.35860
G1 X125.617 Y154.131 E0.01673
G1 X27.348 Y55.862 E4.35860
G1 X27.881 Y55.862 E0.01673
G1 X126.150 Y154.131 E4.35860
G1 X126.683 Y154.131 E0.01673
G1 X28.414 Y55.862 E4.35860
G1 X28.948 Y55.862 E0.01673
G1 X127.217 Y154.131 E4.35860
G1 X127.750 Y154.131 E0.01673
G1 X29.481 Y55.862 E4.35860
G1 X30.015 Y55.862 E0.01673
G1 X128.284 Y154.131 E4.35860
G1 X128.817 Y154.131 E0.01673
G1 X30.548 Y55.862 E4.35860
G1 X31.082 Y55.862 E0.01673
G1 X129.351 Y154.131 E4.35860
G1 X129.884 Y154.131 E0.01673
G1 X31.615 Y55.862 E4.35860
G1 X32.149 Y55.862 E0.01673
G1 X130.418 Y154.131 E4.35860
G1 X130.951 Y154.131 E0.01673
G1 X32.682 Y55.862 E4.35860
G1 X33.216 Y55.862 E0.01673
G1 X131.485 Y154.131 E4.35860
G1 X132.018 Y154.131 E0.01673
G1 X33.749 Y55.862 E4.35860
G1 X34.283 Y55.862 E0.01673
G1 X132.552 Y154.131 E4.35860
