; generated by Slic3r Prusa Edition 1.40.0+ on 2018-07-12 at 13:24:38

; 

; external perimeters extrusion width = 0.45mm
; perimeters extrusion width = 0.45mm
; infill extrusion width = 0.45mm
; solid infill extrusion width = 0.45mm
; top infill extrusion width = 0.40mm
; first layer extrusion width = 0.42mm

M107
M115 U3.2.1 ; tell printer latest fw version
M201 X1000 Y1000 Z200 E5000 ; sets maximum accelerations, mm/sec^2
M203 X200 Y200 Z12 E120 ; sets maximum feedrates, mm/sec
M204 S1250 T1250 ; sets acceleration (S) and retract acceleration (T)
M205 X10 Y10 Z0.4 E2.5 ; sets the jerk limits, mm/sec
M205 S0 T0 ; sets the minimum extruding and travel feed rate, mm/sec
M83  ; extruder relative mode
M104 S215 ; set extruder temp
M140 S60 ; set bed temp
M190 S60 ; wait for bed temp
M109 S215 ; wait for extruder temp
G28 W ; home all without mesh bed level
G80 ; mesh bed leveling
G1 Y-3.0 F1000.0 ; go outside print area
G92 E0.0
G1 X60.0 E9.0  F1000.0 ; intro line
G1 X100.0 E12.5  F1000.0 ; intro line
G92 E0.0
M221 S95
M900 K30; Filament gcode
G21 ; set units to millimeters
G90 ; use absolute coordinates
M83 ; use relative distances for extrusion
;BEFORE_LAYER_CHANGE
G92 E0.0
;0.2


G1 E-0.80000 F2100.00000
G1 Z0.600 F10800.000
;AFTER_LAYER_CHANGE
;0.2
G1 X23.357 Y53.729
G1 Z0.200
G1 E0.80000 F2100.00000
M204 S1000
G1 F1800
G1 X23.979 Y53.139 E0.02687
G1 X24.732 Y52.842 E0.02541
G1 X25.725 Y52.802 E0.03115
G1 X225.845 Y52.820 E6.27462
G1 X226.338 Y52.877 E0.01555
G1 X226.805 Y53.044 E0.01555
G1 X227.251 Y53.334 E0.01669
G1 X227.613 Y53.724 E0.01669
G1 X227.871 Y54.190 E0.01669
G1 X228.008 Y54.704 E0.01669
G1 X229.547 Y67.351 E0.39944
G1 X231.465 Y86.225 E0.59486
G1 X232.291 Y95.693 E0.29796
G1 X233.245 Y108.077 E0.38945
G1 X235.158 Y135.959 E0.87629
G1 X236.162 Y154.923 E0.59542
G1 X236.116 Y155.464 E0.01703
G1 X235.940 Y155.974 E0.01692
G1 X235.601 Y156.475 E0.01896
G1 X235.137 Y156.864 E0.01896
G1 X234.586 Y157.111 E0.01896
G1 X233.983 Y157.198 E0.01908
G1 X16.021 Y157.178 E6.83405
G1 X15.528 Y157.121 E0.01555
G1 X15.061 Y156.955 E0.01555
G1 X14.550 Y156.606 E0.01942
G1 X14.156 Y156.128 E0.01942
G1 X13.913 Y155.563 E0.01930
G1 X13.837 Y154.948 E0.01942
G1 X15.637 Y126.490 E0.89405
G1 X17.490 Y105.065 E0.67429
G1 X20.337 Y76.760 E0.89197
G1 X21.318 Y67.329 E0.29729
G1 X23.010 Y54.513 E0.40534
G1 X23.333 Y53.784 E0.02499
G1 F8640
G1 X23.979 Y53.139 E-0.21074
G1 X24.732 Y52.842 E-0.18711
G1 X25.725 Y52.802 E-0.22943
G1 X26.300 Y52.802 E-0.13273
G1 E-0.04000 F2100.00000
G1 Z0.800 F10800.000
G1 X25.660 Y55.578
G1 Z0.200
G1 E0.80000 F2100.00000
G1 F1800
G1 X225.328 Y55.596 E6.26043
G1 X225.681 Y58.222 E0.08310
G1 X226.788 Y67.655 E0.29780
G1 X228.078 Y80.181 E0.39482
G1 X228.701 Y86.474 E0.19825
G1 X229.525 Y95.919 E0.29727
G1 X229.976 Y102.126 E0.19515
G1 X230.477 Y108.283 E0.19367
G1 X231.019 Y115.663 E0.23203
G1 X231.696 Y126.672 E0.34584
G1 X232.388 Y136.135 E0.29749
G1 X233.075 Y148.726 E0.39536
G1 X233.358 Y154.422 E0.17882
G1 X16.651 Y154.403 E6.79468
G1 X17.226 Y145.534 E0.27867
G1 X18.406 Y126.676 E0.59243
G1 X18.672 Y123.531 E0.09895
G1 X19.297 Y117.195 E0.19963
G1 X19.567 Y114.059 E0.09870
G1 X20.123 Y106.799 E0.22831
G1 X20.320 Y104.634 E0.06816
G1 X20.943 Y99.033 E0.17669
G1 X21.269 Y95.893 E0.09898
G1 X23.098 Y77.041 E0.59386
G1 X24.074 Y67.660 E0.29572
G1 X25.653 Y55.637 E0.38021
G1 X25.330 Y55.201 F10800.000
G1 F1800
G1 X225.657 Y55.219 E6.28114
G1 X226.055 Y58.175 E0.09354
G1 X227.163 Y67.614 E0.29798
G1 X228.453 Y80.144 E0.39493
G1 X229.076 Y86.439 E0.19834
G1 X229.901 Y95.888 E0.29742
G1 X230.352 Y102.097 E0.19519
G1 X230.853 Y108.254 E0.19367
G1 X231.395 Y115.638 E0.23215
G1 X232.072 Y126.647 E0.34584
G1 X232.764 Y136.111 E0.29753
G1 X233.452 Y148.706 E0.39550
G1 X233.754 Y154.799 E0.19128
G1 X16.249 Y154.780 E6.81972
G1 X16.849 Y145.510 E0.29127
G1 X18.030 Y126.648 E0.59254
G1 X18.296 Y123.497 E0.09916
G1 X18.922 Y117.161 E0.19964
G1 X19.191 Y114.029 E0.09857
G1 X19.748 Y106.767 E0.22834
G1 X19.945 Y104.596 E0.06836
G1 X20.568 Y98.993 E0.17676
G1 X20.894 Y95.855 E0.09890
G1 X22.723 Y77.004 E0.59386
G1 X23.699 Y67.616 E0.29592
G1 X25.322 Y55.260 E0.39074
G1 X25.668 Y55.414 F10800.000
G1 F8640
G1 X28.613 Y55.260 E-0.76000
G1 E-0.04000 F2100.00000
G1 Z0.800 F10800.000
G1 X16.818 Y153.574
G1 Z0.200
G1 E0.80000 F2100.00000
G1 F1800
G1 X17.365 Y154.120 E0.02427
G1 X17.899 Y154.120 E0.01677
G1 X17.011 Y153.232 E0.03946
G1 X17.043 Y152.730 E0.01579
G1 X18.433 Y154.120 E0.06174
G1 X18.967 Y154.120 E0.01677
G1 X17.076 Y152.228 E0.08402
G1 X17.108 Y151.727 E0.01579
G1 X19.502 Y154.120 E0.10630
G1 X20.036 Y154.120 E0.01677
G1 X17.140 Y151.225 E0.12858
G1 X17.173 Y150.724 E0.01579
G1 X20.570 Y154.120 E0.15086
G1 X21.104 Y154.120 E0.01677
G1 X17.205 Y150.222 E0.17314
G1 X17.238 Y149.720 E0.01579
G1 X21.638 Y154.121 E0.19542
G1 X22.172 Y154.121 E0.01677
G1 X17.270 Y149.219 E0.21770
G1 X17.303 Y148.717 E0.01579
G1 X22.706 Y154.121 E0.23998
G1 X23.241 Y154.121 E0.01677
G1 X17.335 Y148.215 E0.26226
G1 X17.368 Y147.714 E0.01579
G1 X23.775 Y154.121 E0.28454
G1 X24.309 Y154.121 E0.01677
G1 X17.400 Y147.212 E0.30682
G1 X17.433 Y146.711 E0.01579
G1 X24.843 Y154.121 E0.32910
G1 X25.377 Y154.121 E0.01677
G1 X17.465 Y146.209 E0.35138
G1 X17.498 Y145.707 E0.01579
G1 X25.911 Y154.121 E0.37366
G1 X26.446 Y154.121 E0.01677
G1 X17.530 Y145.205 E0.39597
G1 X17.561 Y144.702 E0.01582
G1 X26.980 Y154.121 E0.41830
G1 X27.514 Y154.121 E0.01677
G1 X17.592 Y144.200 E0.44062
G1 X17.624 Y143.697 E0.01582
G1 X28.048 Y154.121 E0.46295
G1 X28.582 Y154.121 E0.01677
G1 X17.655 Y143.194 E0.48527
G1 X17.687 Y142.692 E0.01582
G1 X29.116 Y154.121 E0.50760
G1 X29.650 Y154.121 E0.01677
G1 X17.718 Y142.189 E0.52992
G1 X17.750 Y141.686 E0.01582
G1 X30.185 Y154.121 E0.55225
G1 X30.719 Y154.121 E0.01677
G1 X17.781 Y141.184 E0.57457
G1 X17.813 Y140.681 E0.01582
G1 X31.253 Y154.121 E0.59690
G1 X31.787 Y154.121 E0.01677
G1 X17.844 Y140.179 E0.61922
G1 X17.876 Y139.676 E0.01582
G1 X32.321 Y154.121 E0.64155
G1 X32.855 Y154.122 E0.01677
G1 X17.907 Y139.173 E0.66387
G1 X17.939 Y138.671 E0.01582
G1 X33.390 Y154.122 E0.68620
G1 X33.924 Y154.122 E0.01677
G1 X17.970 Y138.168 E0.70852
G1 X18.001 Y137.665 E0.01582
G1 X34.458 Y154.122 E0.73085
G1 X34.992 Y154.122 E0.01677
G1 X18.033 Y137.163 E0.75317
G1 X18.064 Y136.660 E0.01582
G1 X35.526 Y154.122 E0.77550
G1 X36.060 Y154.122 E0.01677
G1 X18.096 Y136.157 E0.79782
G1 X18.127 Y135.655 E0.01582
G1 X36.594 Y154.122 E0.82015
G1 X37.129 Y154.122 E0.01677
G1 X18.159 Y135.152 E0.84247
G1 X18.190 Y134.649 E0.01582
G1 X37.663 Y154.122 E0.86480
G1 X38.197 Y154.122 E0.01677
G1 X18.222 Y134.147 E0.88712
G1 X18.253 Y133.644 E0.01582
G1 X38.731 Y154.122 E0.90945
G1 X39.265 Y154.122 E0.01677
G1 X18.285 Y133.141 E0.93178
G1 X18.316 Y132.639 E0.01582
G1 X39.799 Y154.122 E0.95410
G1 X40.334 Y154.122 E0.01677
G1 X18.348 Y132.136 E0.97643
G1 X18.379 Y131.634 E0.01582
G1 X40.868 Y154.122 E0.99875
G1 X41.402 Y154.122 E0.01677
G1 X18.410 Y131.131 E1.02108
G1 X18.442 Y130.628 E0.01582
G1 X41.936 Y154.122 E1.04340
G1 X42.470 Y154.122 E0.01677
G1 X18.473 Y130.126 E1.06573
G1 X18.505 Y129.623 E0.01582
G1 X43.004 Y154.122 E1.08805
G1 X43.538 Y154.122 E0.01677
G1 X18.536 Y129.120 E1.11038
G1 X18.568 Y128.618 E0.01582
G1 X44.073 Y154.123 E1.13270
G1 X44.607 Y154.123 E0.01677
G1 X18.599 Y128.115 E1.15503
G1 X18.631 Y127.612 E0.01582
G1 X45.141 Y154.123 E1.17735
G1 X45.675 Y154.123 E0.01677
G1 X18.662 Y127.110 E1.19968
G1 X18.695 Y126.609 E0.01576
G1 X46.209 Y154.123 E1.22192
G1 X46.743 Y154.123 E0.01677
G1 X18.737 Y126.116 E1.24380
G1 X18.779 Y125.624 E0.01552
G1 X47.278 Y154.123 E1.26567
G1 X47.812 Y154.123 E0.01677
G1 X18.820 Y125.131 E1.28755
G1 X18.862 Y124.639 E0.01552
G1 X48.346 Y154.123 E1.30942
G1 X48.880 Y154.123 E0.01677
G1 X18.904 Y124.146 E1.33129
G1 X18.945 Y123.654 E0.01552
G1 X49.414 Y154.123 E1.35317
G1 X49.948 Y154.123 E0.01677
G1 X18.992 Y123.167 E1.37481
G1 X19.040 Y122.680 E0.01534
G1 X50.482 Y154.123 E1.39641
G1 X51.017 Y154.123 E0.01677
G1 X19.088 Y122.194 E1.41800
G1 X19.136 Y121.708 E0.01534
G1 X51.551 Y154.123 E1.43959
G1 X52.085 Y154.123 E0.01677
G1 X19.184 Y121.222 E1.46118
G1 X19.232 Y120.736 E0.01534
G1 X52.619 Y154.123 E1.48277
G1 X53.153 Y154.123 E0.01677
G1 X19.280 Y120.250 E1.50436
G1 X19.328 Y119.764 E0.01534
G1 X53.687 Y154.123 E1.52596
G1 X54.222 Y154.123 E0.01677
G1 X19.376 Y119.278 E1.54755
G1 X19.424 Y118.791 E0.01534
G1 X54.756 Y154.123 E1.56914
G1 X55.290 Y154.124 E0.01677
G1 X19.472 Y118.305 E1.59073
G1 X19.520 Y117.819 E0.01534
G1 X55.824 Y154.124 E1.61232
G1 X56.358 Y154.124 E0.01677
G1 X19.568 Y117.333 E1.63391
G1 X19.611 Y116.843 E0.01546
G1 X56.892 Y154.124 E1.65570
G1 X57.427 Y154.124 E0.01677
G1 X19.654 Y116.351 E1.67754
G1 X19.696 Y115.859 E0.01550
G1 X57.961 Y154.124 E1.69939
G1 X58.495 Y154.124 E0.01677
G1 X19.738 Y115.367 E1.72123
G1 X19.780 Y114.875 E0.01550
G1 X59.029 Y154.124 E1.74307
G1 X59.563 Y154.124 E0.01677
G1 X19.823 Y114.384 E1.76492
G1 X19.863 Y113.890 E0.01555
G1 X60.097 Y154.124 E1.78683
G1 X60.631 Y154.124 E0.01677
G1 X19.901 Y113.394 E1.80887
G1 X19.939 Y112.898 E0.01562
G1 X61.166 Y154.124 E1.83090
G1 X61.700 Y154.124 E0.01677
G1 X19.978 Y112.402 E1.85293
G1 X20.016 Y111.906 E0.01562
G1 X62.234 Y154.124 E1.87497
G1 X62.768 Y154.124 E0.01677
G1 X20.054 Y111.410 E1.89700
G1 X20.092 Y110.914 E0.01562
G1 X63.302 Y154.124 E1.91904
G1 X63.836 Y154.124 E0.01677
G1 X20.130 Y110.418 E1.94107
G1 X20.168 Y109.921 E0.01562
G1 X64.371 Y154.124 E1.96310
G1 X64.905 Y154.124 E0.01677
G1 X20.206 Y109.425 E1.98514
G1 X20.244 Y108.929 E0.01562
G1 X65.439 Y154.124 E2.00717
G1 X65.973 Y154.124 E0.01677
G1 X20.282 Y108.433 E2.02920
G1 X20.320 Y107.937 E0.01562
G1 X66.507 Y154.125 E2.05124
G1 X67.041 Y154.125 E0.01677
G1 X20.358 Y107.441 E2.07327
G1 X20.396 Y106.945 E0.01562
G1 X67.575 Y154.125 E2.09530
G1 X68.110 Y154.125 E0.01677
G1 X20.439 Y106.454 E2.11712
G1 X20.483 Y105.964 E0.01544
G1 X68.644 Y154.125 E2.13887
G1 X69.178 Y154.125 E0.01677
G1 X20.528 Y105.474 E2.16062
G1 X20.572 Y104.985 E0.01544
G1 X69.712 Y154.125 E2.18237
G1 X70.246 Y154.125 E0.01677
G1 X20.620 Y104.498 E2.20398
G1 X20.673 Y104.018 E0.01519
G1 X70.780 Y154.125 E2.22533
G1 X71.315 Y154.125 E0.01677
G1 X20.727 Y103.537 E2.24667
G1 X20.780 Y103.056 E0.01519
G1 X71.849 Y154.125 E2.26802
G1 X72.383 Y154.125 E0.01677
G1 X20.834 Y102.576 E2.28937
G1 X20.887 Y102.095 E0.01519
G1 X72.917 Y154.125 E2.31071
G1 X73.451 Y154.125 E0.01677
G1 X20.941 Y101.615 E2.33206
G1 X20.994 Y101.134 E0.01519
G1 X73.985 Y154.125 E2.35341
G1 X74.519 Y154.125 E0.01677
G1 X21.048 Y100.653 E2.37475
G1 X21.101 Y100.173 E0.01519
G1 X75.054 Y154.125 E2.39610
G1 X75.588 Y154.125 E0.01677
G1 X21.155 Y99.692 E2.41745
G1 X21.208 Y99.212 E0.01519
G1 X76.122 Y154.125 E2.43879
G1 X76.656 Y154.125 E0.01677
G1 X21.259 Y98.729 E2.46024
G1 X21.309 Y98.245 E0.01528
G1 X77.190 Y154.125 E2.48173
G1 X77.724 Y154.126 E0.01677
G1 X21.360 Y97.761 E2.50323
G1 X21.410 Y97.277 E0.01528
G1 X78.259 Y154.126 E2.52472
G1 X78.793 Y154.126 E0.01677
G1 X21.460 Y96.793 E2.54622
G1 X21.510 Y96.309 E0.01528
G1 X79.327 Y154.126 E2.56771
G1 X79.861 Y154.126 E0.01677
G1 X21.560 Y95.824 E2.58923
G1 X21.607 Y95.338 E0.01536
G1 X80.395 Y154.126 E2.61086
G1 X80.929 Y154.126 E0.01677
G1 X21.654 Y94.851 E2.63248
G1 X21.701 Y94.364 E0.01536
G1 X81.463 Y154.126 E2.65410
G1 X81.998 Y154.126 E0.01677
G1 X21.749 Y93.877 E2.67573
G1 X21.796 Y93.390 E0.01536
G1 X82.532 Y154.126 E2.69735
G1 X83.066 Y154.126 E0.01677
G1 X21.843 Y92.903 E2.71898
G1 X21.890 Y92.416 E0.01536
G1 X83.600 Y154.126 E2.74060
G1 X84.134 Y154.126 E0.01677
G1 X21.938 Y91.930 E2.76223
G1 X21.985 Y91.443 E0.01536
G1 X84.668 Y154.126 E2.78385
G1 X85.203 Y154.126 E0.01677
G1 X22.032 Y90.956 E2.80547
G1 X22.079 Y90.469 E0.01536
G1 X85.737 Y154.126 E2.82710
G1 X86.271 Y154.126 E0.01677
G1 X22.127 Y89.982 E2.84872
G1 X22.174 Y89.495 E0.01536
G1 X86.805 Y154.126 E2.87035
G1 X87.339 Y154.126 E0.01677
G1 X22.221 Y89.008 E2.89197
G1 X22.268 Y88.521 E0.01536
G1 X87.873 Y154.126 E2.91360
G1 X88.407 Y154.126 E0.01677
G1 X22.316 Y88.035 E2.93522
G1 X22.363 Y87.548 E0.01536
G1 X88.942 Y154.127 E2.95684
G1 X89.476 Y154.127 E0.01677
G1 X22.410 Y87.061 E2.97847
G1 X22.457 Y86.574 E0.01536
G1 X90.010 Y154.127 E3.00009
G1 X90.544 Y154.127 E0.01677
G1 X22.505 Y86.087 E3.02172
G1 X22.552 Y85.600 E0.01536
G1 X91.078 Y154.127 E3.04334
G1 X91.612 Y154.127 E0.01677
G1 X22.599 Y85.113 E3.06497
G1 X22.646 Y84.627 E0.01536
G1 X92.147 Y154.127 E3.08659
G1 X92.681 Y154.127 E0.01677
G1 X22.694 Y84.140 E3.10821
G1 X22.741 Y83.653 E0.01536
G1 X93.215 Y154.127 E3.12984
G1 X93.749 Y154.127 E0.01677
G1 X22.788 Y83.166 E3.15146
G1 X22.835 Y82.679 E0.01536
G1 X94.283 Y154.127 E3.17309
G1 X94.817 Y154.127 E0.01677
G1 X22.883 Y82.192 E3.19471
G1 X22.930 Y81.705 E0.01536
G1 X95.352 Y154.127 E3.21634
G1 X95.886 Y154.127 E0.01677
G1 X22.977 Y81.219 E3.23796
G1 X23.024 Y80.732 E0.01536
G1 X96.420 Y154.127 E3.25958
G1 X96.954 Y154.127 E0.01677
G1 X23.072 Y80.245 E3.28121
G1 X23.119 Y79.758 E0.01536
G1 X97.488 Y154.127 E3.30283
G1 X98.022 Y154.127 E0.01677
G1 X23.166 Y79.271 E3.32446
G1 X23.213 Y78.784 E0.01536
G1 X98.556 Y154.127 E3.34608
G1 X99.091 Y154.127 E0.01677
G1 X23.261 Y78.297 E3.36771
G1 X23.308 Y77.810 E0.01536
G1 X99.625 Y154.127 E3.38933
G1 X100.159 Y154.128 E0.01677
G1 X23.355 Y77.324 E3.41096
G1 X23.404 Y76.838 E0.01532
G1 X100.693 Y154.128 E3.43251
G1 X101.227 Y154.128 E0.01677
G1 X23.454 Y76.354 E3.45400
G1 X23.504 Y75.871 E0.01528
G1 X101.761 Y154.128 E3.47549
G1 X102.296 Y154.128 E0.01677
G1 X23.555 Y75.387 E3.49698
G1 X23.605 Y74.903 E0.01528
G1 X102.830 Y154.128 E3.51847
G1 X103.364 Y154.128 E0.01677
G1 X23.655 Y74.419 E3.53996
G1 X23.705 Y73.935 E0.01528
G1 X103.898 Y154.128 E3.56145
G1 X104.432 Y154.128 E0.01677
G1 X23.756 Y73.452 E3.58293
G1 X23.806 Y72.968 E0.01528
G1 X104.966 Y154.128 E3.60442
G1 X105.500 Y154.128 E0.01677
G1 X23.856 Y72.484 E3.62591
G1 X23.907 Y72.000 E0.01528
G1 X106.035 Y154.128 E3.64740
G1 X106.569 Y154.128 E0.01677
G1 X23.957 Y71.516 E3.66889
G1 X24.007 Y71.033 E0.01528
G1 X107.103 Y154.128 E3.69038
G1 X107.637 Y154.128 E0.01677
G1 X24.058 Y70.549 E3.71187
G1 X24.108 Y70.065 E0.01528
G1 X108.171 Y154.128 E3.73336
G1 X108.705 Y154.128 E0.01677
G1 X24.158 Y69.581 E3.75484
G1 X24.208 Y69.097 E0.01528
G1 X109.240 Y154.128 E3.77633
G1 X109.774 Y154.128 E0.01677
G1 X24.259 Y68.613 E3.79782
G1 X24.309 Y68.130 E0.01528
G1 X110.308 Y154.128 E3.81931
G1 X110.842 Y154.128 E0.01677
G1 X24.361 Y67.647 E3.84075
G1 X24.423 Y67.175 E0.01495
G1 X111.376 Y154.129 E3.86172
G1 X111.910 Y154.129 E0.01677
G1 X24.485 Y66.703 E3.88269
G1 X24.547 Y66.231 E0.01495
G1 X112.444 Y154.129 E3.90365
G1 X112.979 Y154.129 E0.01677
G1 X24.609 Y65.759 E3.92462
G1 X24.671 Y65.286 E0.01495
G1 X113.513 Y154.129 E3.94559
G1 X114.047 Y154.129 E0.01677
G1 X24.733 Y64.814 E3.96656
G1 X24.795 Y64.342 E0.01495
G1 X114.581 Y154.129 E3.98753
G1 X115.115 Y154.129 E0.01677
G1 X24.857 Y63.870 E4.00850
G1 X24.919 Y63.398 E0.01495
G1 X115.649 Y154.129 E4.02947
G1 X116.184 Y154.129 E0.01677
G1 X24.981 Y62.926 E4.05044
G1 X25.043 Y62.454 E0.01495
G1 X116.718 Y154.129 E4.07141
G1 X117.252 Y154.129 E0.01677
G1 X25.105 Y61.982 E4.09237
G1 X25.167 Y61.510 E0.01495
G1 X117.786 Y154.129 E4.11334
G1 X118.320 Y154.129 E0.01677
G1 X25.229 Y61.038 E4.13431
G1 X25.291 Y60.565 E0.01495
G1 X118.854 Y154.129 E4.15528
G1 X119.388 Y154.129 E0.01677
G1 X25.353 Y60.093 E4.17625
G1 X25.415 Y59.621 E0.01495
G1 X119.923 Y154.129 E4.19722
G1 X120.457 Y154.129 E0.01677
G1 X25.477 Y59.149 E4.21819
G1 X25.539 Y58.677 E0.01495
G1 X120.991 Y154.129 E4.23916
G1 X121.525 Y154.129 E0.01677
G1 X25.601 Y58.205 E4.26013
G1 X25.663 Y57.733 E0.01495
G1 X122.059 Y154.129 E4.28109
G1 X122.593 Y154.130 E0.01677
G1 X25.725 Y57.261 E4.30206
G1 X25.787 Y56.789 E0.01495
G1 X123.128 Y154.130 E4.32303
G1 X123.662 Y154.130 E0.01677
G1 X25.849 Y56.316 E4.34400
G1 X25.908 Y55.861 E0.01444
G1 X25.927 Y55.861 E0.00058
G1 X124.196 Y154.130 E4.36425
G1 X124.730 Y154.130 E0.01677
G1 X26.461 Y55.861 E4.36425
