; generated by Slic3r Prusa Edition 1.40.0+ on 2018-07-12 at 13:25:49

; 

; external perimeters extrusion width = 0.45mm
; perimeters extrusion width = 0.45mm
; infill extrusion width = 0.45mm
; solid infill extrusion width = 0.45mm
; top infill extrusion width = 0.40mm
; first layer extrusion width = 0.42mm

M107
M115 U3.2.1 ; tell printer latest fw version
M201 X1000 Y1000 Z200 E5000 ; sets maximum accelerations, mm/sec^2
M203 X200 Y200 Z12 E120 ; sets maximum feedrates, mm/sec
M204 S1250 T1250 ; sets acceleration (S) and retract acceleration (T)
M205 X10 Y10 Z0.4 E2.5 ; sets the jerk limits, mm/sec
M205 S0 T0 ; sets the minimum extruding and travel feed rate, mm/sec
M83  ; extruder relative mode
M104 S215 ; set extruder temp
M140 S60 ; set bed temp
M190 S60 ; wait for bed temp
M109 S215 ; wait for extruder temp
G28 W ; home all without mesh bed level
G80 ; mesh bed leveling
G1 Y-3.0 F1000.0 ; go outside print area
G92 E0.0
G1 X60.0 E9.0  F1000.0 ; intro line
G1 X100.0 E12.5  F1000.0 ; intro line
G92 E0.0
M221 S95
M900 K30; Filament gcode
G21 ; set units to millimeters
G90 ; use absolute coordinates
M83 ; use relative distances for extrusion
;BEFORE_LAYER_CHANGE
G92 E0.0
;0.2


G1 E-0.80000 F2100.00000
G1 Z0.600 F10800.000
;AFTER_LAYER_CHANGE
;0.2
G1 X24.431 Y54.148
G1 Z0.200
G1 E0.80000 F2100.00000
M204 S1000
G1 F1800
G1 X24.970 Y53.814 E0.01987
G1 X46.793 Y44.957 E0.73843
G1 X60.435 Y39.945 E0.45571
G1 X86.826 Y31.447 E0.86930
G1 X107.455 Y25.170 E0.67609
G1 X119.354 Y21.908 E0.38685
G1 X125.319 Y20.375 E0.19312
G1 X125.848 Y20.312 E0.01669
G1 X126.544 Y20.427 E0.02213
G1 X127.170 Y20.760 E0.02225
G1 X218.535 Y91.152 E3.61627
G1 X222.798 Y94.718 E0.17429
G1 X223.552 Y95.490 E0.03382
G1 X224.007 Y96.103 E0.02394
G1 X225.536 Y99.290 E0.11084
G1 X226.258 Y101.902 E0.08497
G1 X226.358 Y102.810 E0.02863
G1 X226.022 Y105.775 E0.09358
G1 X225.793 Y106.762 E0.03178
G1 X223.958 Y110.458 E0.12937
G1 X221.392 Y113.676 E0.12903
G1 X217.562 Y117.212 E0.16343
G1 X214.015 Y120.224 E0.14592
G1 X127.184 Y189.218 E3.47734
G1 X126.545 Y189.567 E0.02281
G1 X125.828 Y189.688 E0.02281
G1 X125.285 Y189.620 E0.01714
G1 X118.929 Y187.917 E0.20634
G1 X106.338 Y184.399 E0.40988
G1 X65.381 Y171.177 E1.34944
G1 X55.978 Y167.803 E0.31325
G1 X37.336 Y160.607 E0.62652
G1 X24.938 Y155.355 E0.42216
G1 X24.474 Y155.073 E0.01703
G1 X24.091 Y154.683 E0.01714
G1 X23.760 Y154.064 E0.02202
G1 X23.642 Y153.368 E0.02213
G1 X23.651 Y55.823 E3.05846
G1 X23.743 Y55.196 E0.01987
G1 X24.010 Y54.621 E0.01987
G1 X24.391 Y54.192 E0.01799
G1 F8640
G1 X24.970 Y53.814 E-0.15965
G1 X27.379 Y52.836 E-0.60035
G1 E-0.04000 F2100.00000
G1 Z0.800 F10800.000
G1 X26.427 Y56.215
G1 Z0.200
G1 E0.80000 F2100.00000
G1 F1800
G1 X28.975 Y55.155 E0.08653
G1 X40.612 Y50.470 E0.39333
G1 X46.355 Y48.115 E0.19464
G1 X47.801 Y47.543 E0.04875
G1 X50.715 Y46.455 E0.09751
G1 X54.909 Y44.943 E0.13980
G1 X59.729 Y43.144 E0.16130
G1 X62.233 Y42.262 E0.08324
G1 X64.177 Y41.618 E0.06421
G1 X76.846 Y37.653 E0.41626
G1 X79.864 Y36.664 E0.09957
G1 X84.791 Y35.014 E0.16292
G1 X87.655 Y34.096 E0.09428
G1 X99.450 Y30.571 E0.38600
G1 X105.321 Y28.722 E0.19298
G1 X108.249 Y27.829 E0.09597
G1 X117.107 Y25.373 E0.28822
G1 X120.061 Y24.592 E0.09580
G1 X125.255 Y23.257 E0.16816
G1 X125.241 Y186.735 E5.12573
G1 X119.656 Y185.239 E0.18129
G1 X110.271 Y182.664 E0.30512
G1 X108.713 Y182.220 E0.05080
G1 X107.155 Y181.746 E0.05106
G1 X100.861 Y179.702 E0.20748
G1 X88.427 Y175.733 E0.40924
G1 X74.292 Y171.051 E0.46688
G1 X69.447 Y169.590 E0.15865
G1 X67.854 Y169.087 E0.05239
G1 X66.287 Y168.554 E0.05188
G1 X56.956 Y165.205 E0.31085
G1 X38.366 Y158.030 E0.62478
G1 X35.292 Y156.755 E0.10434
G1 X32.209 Y155.425 E0.10527
G1 X26.418 Y152.968 E0.19725
G1 X26.427 Y56.275 E3.03175
G1 X26.049 Y55.963 F10800.000
G1 F1800
G1 X28.832 Y54.806 E0.09448
G1 X40.470 Y50.121 E0.39335
G1 X46.214 Y47.765 E0.19468
G1 X47.666 Y47.191 E0.04894
G1 X50.585 Y46.101 E0.09769
G1 X54.779 Y44.589 E0.13980
G1 X59.600 Y42.789 E0.16135
G1 X62.111 Y41.906 E0.08346
G1 X64.061 Y41.259 E0.06441
G1 X76.731 Y37.294 E0.41628
G1 X79.746 Y36.306 E0.09945
G1 X84.674 Y34.656 E0.16296
G1 X87.543 Y33.736 E0.09448
G1 X99.340 Y30.211 E0.38603
G1 X105.209 Y28.362 E0.19295
G1 X108.143 Y27.467 E0.09618
G1 X117.008 Y25.009 E0.28844
G1 X119.966 Y24.227 E0.09592
G1 X125.632 Y22.771 E0.18345
G1 X125.618 Y187.226 E5.15638
G1 X119.557 Y185.603 E0.19673
G1 X110.169 Y183.027 E0.30522
G1 X108.606 Y182.582 E0.05096
G1 X107.041 Y182.106 E0.05128
G1 X100.745 Y180.061 E0.20756
G1 X88.310 Y176.092 E0.40927
G1 X74.178 Y171.411 E0.46679
G1 X69.336 Y169.950 E0.15856
G1 X67.736 Y169.445 E0.05260
G1 X66.163 Y168.910 E0.05212
G1 X56.824 Y165.558 E0.31109
G1 X38.226 Y158.380 E0.62506
G1 X35.145 Y157.102 E0.10457
G1 X32.061 Y155.772 E0.10532
G1 X26.041 Y153.217 E0.20505
G1 X26.049 Y56.023 E3.04746
G1 X26.438 Y56.058 F10800.000
G1 F8640
G1 X28.832 Y54.806 E-0.70122
G1 X29.068 Y54.711 E-0.05878
G1 E-0.04000 F2100.00000
G1 Z0.800 F10800.000
G1 X26.531 Y152.123
G1 Z0.200
G1 E0.80000 F2100.00000
G1 F1800
G1 X27.549 Y153.140 E0.04522
G1 X28.477 Y153.534 E0.03169
G1 X26.701 Y151.758 E0.07893
G1 X26.701 Y151.224 E0.01679
G1 X29.405 Y153.928 E0.12017
G1 X30.334 Y154.322 E0.03169
G1 X26.701 Y150.690 E0.16142
G1 X26.701 Y150.155 E0.01679
G1 X31.262 Y154.716 E0.20267
G1 X32.190 Y155.110 E0.03169
G1 X26.701 Y149.621 E0.24391
G1 X26.701 Y149.087 E0.01679
G1 X33.128 Y155.514 E0.28558
G1 X34.068 Y155.919 E0.03214
G1 X26.701 Y148.552 E0.32732
G1 X26.701 Y148.018 E0.01679
G1 X35.007 Y156.324 E0.36906
G1 X35.931 Y156.714 E0.03151
G1 X26.701 Y147.484 E0.41012
G1 X26.701 Y146.949 E0.01679
G1 X36.844 Y157.092 E0.45068
G1 X37.757 Y157.471 E0.03105
G1 X26.701 Y146.415 E0.49125
G1 X26.701 Y145.881 E0.01679
G1 X38.661 Y157.840 E0.53140
G1 X39.531 Y158.176 E0.02931
G1 X26.701 Y145.346 E0.57006
G1 X26.701 Y144.812 E0.01679
G1 X40.401 Y158.512 E0.60873
G1 X41.272 Y158.848 E0.02931
G1 X26.701 Y144.278 E0.64740
G1 X26.702 Y143.743 E0.01679
G1 X42.142 Y159.184 E0.68607
G1 X43.012 Y159.520 E0.02931
G1 X26.702 Y143.209 E0.72473
G1 X26.702 Y142.675 E0.01679
G1 X43.883 Y159.856 E0.76340
G1 X44.753 Y160.192 E0.02931
G1 X26.702 Y142.140 E0.80207
G1 X26.702 Y141.606 E0.01679
G1 X45.623 Y160.528 E0.84074
G1 X46.493 Y160.863 E0.02931
G1 X26.702 Y141.072 E0.87940
G1 X26.702 Y140.537 E0.01679
G1 X47.364 Y161.199 E0.91807
G1 X48.234 Y161.535 E0.02931
G1 X26.702 Y140.003 E0.95674
G1 X26.702 Y139.469 E0.01679
G1 X49.104 Y161.871 E0.99541
G1 X49.975 Y162.207 E0.02931
G1 X26.702 Y138.934 E1.03407
G1 X26.702 Y138.400 E0.01679
G1 X50.845 Y162.543 E1.07274
G1 X51.715 Y162.879 E0.02931
G1 X26.702 Y137.866 E1.11141
G1 X26.702 Y137.331 E0.01679
G1 X52.586 Y163.215 E1.15008
G1 X53.456 Y163.551 E0.02931
G1 X26.702 Y136.797 E1.18875
G1 X26.702 Y136.263 E0.01679
G1 X54.326 Y163.887 E1.22741
G1 X55.196 Y164.223 E0.02931
G1 X26.702 Y135.729 E1.26608
G1 X26.702 Y135.194 E0.01679
G1 X56.067 Y164.559 E1.30475
G1 X56.937 Y164.895 E0.02931
G1 X26.702 Y134.660 E1.34342
G1 X26.702 Y134.126 E0.01679
G1 X57.775 Y165.199 E1.38067
G1 X58.609 Y165.498 E0.02782
G1 X26.702 Y133.591 E1.41770
G1 X26.702 Y133.057 E0.01679
G1 X59.442 Y165.797 E1.45473
G1 X60.276 Y166.096 E0.02782
G1 X26.703 Y132.523 E1.49177
G1 X26.703 Y131.988 E0.01679
G1 X61.109 Y166.395 E1.52880
G1 X61.943 Y166.694 E0.02782
G1 X26.703 Y131.454 E1.56583
G1 X26.703 Y130.920 E0.01679
G1 X62.776 Y166.993 E1.60286
G1 X63.610 Y167.292 E0.02782
G1 X26.703 Y130.385 E1.63990
G1 X26.703 Y129.851 E0.01679
G1 X64.443 Y167.592 E1.67693
G1 X65.277 Y167.891 E0.02782
G1 X26.703 Y129.317 E1.71396
G1 X26.703 Y128.782 E0.01679
G1 X66.110 Y168.190 E1.75099
G1 X66.928 Y168.473 E0.02719
G1 X26.703 Y128.248 E1.78733
G1 X26.703 Y127.714 E0.01679
G1 X67.738 Y168.749 E1.82332
G1 X68.526 Y169.003 E0.02601
G1 X26.703 Y127.179 E1.85833
G1 X26.703 Y126.645 E0.01679
G1 X69.307 Y169.249 E1.89301
G1 X70.076 Y169.484 E0.02529
G1 X26.703 Y126.111 E1.92720
G1 X26.703 Y125.576 E0.01679
G1 X70.842 Y169.715 E1.96120
G1 X71.607 Y169.946 E0.02511
G1 X26.703 Y125.042 E1.99520
G1 X26.703 Y124.508 E0.01679
G1 X72.372 Y170.177 E2.02920
G1 X73.137 Y170.407 E0.02511
G1 X26.703 Y123.973 E2.06320
G1 X26.703 Y123.439 E0.01679
G1 X73.903 Y170.638 E2.09720
G1 X74.681 Y170.882 E0.02562
G1 X26.703 Y122.905 E2.13177
G1 X26.703 Y122.370 E0.01679
G1 X75.480 Y171.147 E2.16727
G1 X76.279 Y171.411 E0.02645
G1 X26.703 Y121.836 E2.20277
G1 X26.704 Y121.302 E0.01679
G1 X77.078 Y171.676 E2.23827
G1 X77.877 Y171.941 E0.02645
G1 X26.704 Y120.768 E2.27377
G1 X26.704 Y120.233 E0.01679
G1 X78.676 Y172.205 E2.30927
G1 X79.475 Y172.470 E0.02645
G1 X26.704 Y119.699 E2.34477
G1 X26.704 Y119.165 E0.01679
G1 X80.274 Y172.735 E2.38028
G1 X81.073 Y172.999 E0.02645
G1 X26.704 Y118.630 E2.41578
G1 X26.704 Y118.096 E0.01679
G1 X81.872 Y173.264 E2.45128
G1 X82.671 Y173.529 E0.02645
G1 X26.704 Y117.562 E2.48678
G1 X26.704 Y117.027 E0.01679
G1 X83.470 Y173.793 E2.52228
G1 X84.269 Y174.058 E0.02645
G1 X26.704 Y116.493 E2.55778
G1 X26.704 Y115.959 E0.01679
G1 X85.068 Y174.322 E2.59328
G1 X85.867 Y174.587 E0.02645
G1 X26.704 Y115.424 E2.62878
G1 X26.704 Y114.890 E0.01679
G1 X86.666 Y174.852 E2.66428
G1 X87.465 Y175.116 E0.02645
G1 X26.704 Y114.356 E2.69978
G1 X26.704 Y113.821 E0.01679
G1 X88.264 Y175.381 E2.73528
G1 X89.053 Y175.636 E0.02606
G1 X26.704 Y113.287 E2.77035
G1 X26.704 Y112.753 E0.01679
G1 X89.838 Y175.887 E2.80522
G1 X90.623 Y176.137 E0.02589
G1 X26.704 Y112.218 E2.84010
G1 X26.704 Y111.684 E0.01679
G1 X91.408 Y176.388 E2.87497
G1 X92.193 Y176.638 E0.02589
G1 X26.704 Y111.150 E2.90984
G1 X26.704 Y110.615 E0.01679
G1 X92.978 Y176.889 E2.94472
G1 X93.763 Y177.139 E0.02589
G1 X26.705 Y110.081 E2.97959
G1 X26.705 Y109.547 E0.01679
G1 X94.548 Y177.390 E3.01446
G1 X95.332 Y177.640 E0.02589
G1 X26.705 Y109.012 E3.04934
G1 X26.705 Y108.478 E0.01679
G1 X96.117 Y177.891 E3.08421
G1 X96.902 Y178.141 E0.02589
G1 X26.705 Y107.944 E3.11908
G1 X26.705 Y107.409 E0.01679
G1 X97.687 Y178.392 E3.15396
G1 X98.472 Y178.642 E0.02589
G1 X26.705 Y106.875 E3.18883
G1 X26.705 Y106.341 E0.01679
G1 X99.257 Y178.893 E3.22370
G1 X100.042 Y179.143 E0.02589
G1 X26.705 Y105.807 E3.25858
G1 X26.705 Y105.272 E0.01679
G1 X100.827 Y179.394 E3.29345
G1 X101.617 Y179.650 E0.02611
G1 X26.705 Y104.738 E3.32857
G1 X26.705 Y104.204 E0.01679
G1 X102.409 Y179.907 E3.36374
G1 X103.200 Y180.164 E0.02615
G1 X26.705 Y103.669 E3.39891
G1 X26.705 Y103.135 E0.01679
G1 X103.992 Y180.422 E3.43408
G1 X104.783 Y180.679 E0.02615
G1 X26.705 Y102.601 E3.46925
G1 X26.705 Y102.066 E0.01679
G1 X105.575 Y180.936 E3.50441
G1 X106.366 Y181.193 E0.02615
G1 X26.705 Y101.532 E3.53958
G1 X26.705 Y100.998 E0.01679
G1 X107.158 Y181.450 E3.57475
G1 X107.928 Y181.686 E0.02530
G1 X26.705 Y100.463 E3.60897
G1 X26.705 Y99.929 E0.01679
G1 X108.696 Y181.919 E3.64307
G1 X109.445 Y182.135 E0.02451
G1 X26.705 Y99.395 E3.67638
G1 X26.706 Y98.860 E0.01679
G1 X110.193 Y182.347 E3.70958
G1 X110.931 Y182.552 E0.02408
G1 X26.706 Y98.326 E3.74240
G1 X26.706 Y97.792 E0.01679
G1 X111.668 Y182.754 E3.77512
G1 X112.404 Y182.956 E0.02399
G1 X26.706 Y97.257 E3.80783
G1 X26.706 Y96.723 E0.01679
G1 X113.140 Y183.158 E3.84055
G1 X113.877 Y183.360 E0.02399
G1 X26.706 Y96.189 E3.87327
G1 X26.706 Y95.654 E0.01679
G1 X114.613 Y183.562 E3.90599
G1 X115.350 Y183.764 E0.02399
G1 X26.706 Y95.120 E3.93871
G1 X26.706 Y94.586 E0.01679
G1 X116.086 Y183.966 E3.97143
G1 X116.823 Y184.168 E0.02399
G1 X26.706 Y94.051 E4.00415
G1 X26.706 Y93.517 E0.01679
G1 X117.559 Y184.370 E4.03687
G1 X118.295 Y184.572 E0.02399
G1 X26.706 Y92.983 E4.06959
G1 X26.706 Y92.448 E0.01679
G1 X119.032 Y184.774 E4.10231
G1 X119.768 Y184.976 E0.02398
G1 X26.706 Y91.914 E4.13501
G1 X26.706 Y91.380 E0.01679
G1 X120.498 Y185.171 E4.16744
G1 X121.228 Y185.367 E0.02374
G1 X26.706 Y90.846 E4.19987
G1 X26.706 Y90.311 E0.01679
G1 X121.958 Y185.563 E4.23230
G1 X122.688 Y185.758 E0.02374
G1 X26.706 Y89.777 E4.26473
G1 X26.706 Y89.243 E0.01679
G1 X123.418 Y185.954 E4.29716
G1 X124.147 Y186.149 E0.02374
G1 X26.706 Y88.708 E4.32959
G1 X26.706 Y88.174 E0.01679
G1 X124.877 Y186.345 E4.36202
G1 X124.958 Y186.366 E0.00262
G1 X124.958 Y185.891 E0.01493
G1 X26.707 Y87.640 E4.36561
G1 X26.707 Y87.105 E0.01679
G1 X124.958 Y185.357 E4.36561
G1 X124.958 Y184.822 E0.01679
G1 X26.707 Y86.571 E4.36561
G1 X26.707 Y86.037 E0.01679
G1 X124.958 Y184.288 E4.36561
G1 X124.958 Y183.754 E0.01679
G1 X26.707 Y85.502 E4.36561
G1 X26.707 Y84.968 E0.01679
G1 X124.958 Y183.220 E4.36561
G1 X124.958 Y182.685 E0.01679
G1 X26.707 Y84.434 E4.36561
G1 X26.707 Y83.899 E0.01679
G1 X124.958 Y182.151 E4.36561
G1 X124.958 Y181.617 E0.01679
G1 X26.707 Y83.365 E4.36561
G1 X26.707 Y82.831 E0.01679
G1 X124.958 Y181.082 E4.36561
G1 X124.959 Y180.548 E0.01679
G1 X26.707 Y82.296 E4.36561
G1 X26.707 Y81.762 E0.01679
G1 X124.959 Y180.014 E4.36561
G1 X124.959 Y179.479 E0.01679
G1 X26.707 Y81.228 E4.36561
G1 X26.707 Y80.693 E0.01679
G1 X124.959 Y178.945 E4.36561
G1 X124.959 Y178.411 E0.01679
G1 X26.707 Y80.159 E4.36561
G1 X26.707 Y79.625 E0.01679
G1 X124.959 Y177.876 E4.36561
G1 X124.959 Y177.342 E0.01679
G1 X26.707 Y79.090 E4.36561
G1 X26.707 Y78.556 E0.01679
G1 X124.959 Y176.808 E4.36561
G1 X124.959 Y176.273 E0.01679
G1 X26.707 Y78.022 E4.36561
G1 X26.707 Y77.487 E0.01679
G1 X124.959 Y175.739 E4.36561
G1 X124.959 Y175.205 E0.01679
G1 X26.707 Y76.953 E4.36561
G1 X26.708 Y76.419 E0.01679
G1 X124.959 Y174.670 E4.36561
G1 X124.959 Y174.136 E0.01679
G1 X26.708 Y75.885 E4.36561
G1 X26.708 Y75.350 E0.01679
G1 X124.959 Y173.602 E4.36561
G1 X124.959 Y173.067 E0.01679
G1 X26.708 Y74.816 E4.36561
G1 X26.708 Y74.282 E0.01679
G1 X124.959 Y172.533 E4.36561
G1 X124.959 Y171.999 E0.01679
G1 X26.708 Y73.747 E4.36561
G1 X26.708 Y73.213 E0.01679
G1 X124.959 Y171.464 E4.36561
G1 X124.959 Y170.930 E0.01679
G1 X26.708 Y72.679 E4.36561
G1 X26.708 Y72.144 E0.01679
G1 X124.959 Y170.396 E4.36561
G1 X124.959 Y169.861 E0.01679
G1 X26.708 Y71.610 E4.36561
G1 X26.708 Y71.076 E0.01679
G1 X124.960 Y169.327 E4.36561
G1 X124.960 Y168.793 E0.01679
G1 X26.708 Y70.541 E4.36561
G1 X26.708 Y70.007 E0.01679
G1 X124.960 Y168.258 E4.36561
G1 X124.960 Y167.724 E0.01679
G1 X26.708 Y69.473 E4.36561
G1 X26.708 Y68.938 E0.01679
G1 X124.960 Y167.190 E4.36561
G1 X124.960 Y166.656 E0.01679
G1 X26.708 Y68.404 E4.36561
G1 X26.708 Y67.870 E0.01679
G1 X124.960 Y166.121 E4.36561
G1 X124.960 Y165.587 E0.01679
G1 X26.708 Y67.335 E4.36561
G1 X26.708 Y66.801 E0.01679
G1 X124.960 Y165.053 E4.36561
G1 X124.960 Y164.518 E0.01679
G1 X26.708 Y66.267 E4.36561
G1 X26.708 Y65.732 E0.01679
G1 X124.960 Y163.984 E4.36561
G1 X124.960 Y163.450 E0.01679
G1 X26.709 Y65.198 E4.36561
G1 X26.709 Y64.664 E0.01679
G1 X124.960 Y162.915 E4.36561
G1 X124.960 Y162.381 E0.01679
G1 X26.709 Y64.129 E4.36561
G1 X26.709 Y63.595 E0.01679
G1 X124.960 Y161.847 E4.36561
G1 X124.960 Y161.312 E0.01679
G1 X26.709 Y63.061 E4.36561
G1 X26.709 Y62.526 E0.01679
G1 X124.960 Y160.778 E4.36561
G1 X124.960 Y160.244 E0.01679
G1 X26.709 Y61.992 E4.36561
G1 X26.709 Y61.458 E0.01679
G1 X124.960 Y159.709 E4.36561
G1 X124.960 Y159.175 E0.01679
G1 X26.709 Y60.924 E4.36561
G1 X26.709 Y60.389 E0.01679
G1 X124.960 Y158.641 E4.36561
G1 X124.961 Y158.106 E0.01679
G1 X26.709 Y59.855 E4.36561
G1 X26.709 Y59.321 E0.01679
G1 X124.961 Y157.572 E4.36561
G1 X124.961 Y157.038 E0.01679
G1 X26.709 Y58.786 E4.36561
G1 X26.709 Y58.252 E0.01679
G1 X124.961 Y156.503 E4.36561
G1 X124.961 Y155.969 E0.01679
G1 X26.709 Y57.718 E4.36561
G1 X26.709 Y57.183 E0.01679
G1 X124.961 Y155.435 E4.36561
G1 X124.961 Y154.900 E0.01679
G1 X26.709 Y56.649 E4.36561
G1 X26.709 Y56.403 E0.00772
G1 X26.913 Y56.318 E0.00694
G1 X124.961 Y154.366 E4.35655
G1 X124.961 Y153.832 E0.01679
G1 X27.291 Y56.161 E4.33979
G1 X27.668 Y56.004 E0.01284
G1 X124.961 Y153.297 E4.32302
G1 X124.961 Y152.763 E0.01679
G1 X28.045 Y55.847 E4.30625
G1 X28.423 Y55.691 E0.01284
G1 X124.961 Y152.229 E4.28948
G1 X124.961 Y151.695 E0.01679
G1 X28.800 Y55.534 E4.27272
G1 X29.178 Y55.377 E0.01286
G1 X124.961 Y151.160 E4.25591
G1 X124.961 Y150.626 E0.01679
G1 X29.559 Y55.224 E4.23898
