; generated by Slic3r Prusa Edition 1.40.0+ on 2018-07-11 at 12:52:06

; 

; external perimeters extrusion width = 0.45mm
; perimeters extrusion width = 0.45mm
; infill extrusion width = 0.45mm
; solid infill extrusion width = 0.45mm
; top infill extrusion width = 0.40mm
; first layer extrusion width = 0.42mm

M107
M115 U3.2.1 ; tell printer latest fw version
M201 X1000 Y1000 Z200 E5000 ; sets maximum accelerations, mm/sec^2
M203 X200 Y200 Z12 E120 ; sets maximum feedrates, mm/sec
M204 S1250 T1250 ; sets acceleration (S) and retract acceleration (T)
M205 X10 Y10 Z0.4 E2.5 ; sets the jerk limits, mm/sec
M205 S0 T0 ; sets the minimum extruding and travel feed rate, mm/sec
M83  ; extruder relative mode
M104 S215 ; set extruder temp
M140 S60 ; set bed temp
M190 S60 ; wait for bed temp
M109 S215 ; wait for extruder temp
G28 W ; home all without mesh bed level
G80 ; mesh bed leveling
G1 Y-3.0 F1000.0 ; go outside print area
G92 E0.0
G1 X60.0 E9.0  F1000.0 ; intro line
G1 X100.0 E12.5  F1000.0 ; intro line
G92 E0.0
M221 S95
M900 K30; Filament gcode
G21 ; set units to millimeters
G90 ; use absolute coordinates
M83 ; use relative distances for extrusion
;BEFORE_LAYER_CHANGE
G92 E0.0
;0.2


G1 E-0.80000 F2100.00000
G1 Z0.600 F10800.000
;AFTER_LAYER_CHANGE
;0.2
G1 X22.967 Y2.922
G1 Z0.200
G1 E0.80000 F2100.00000
M204 S1000
G1 F1800
G1 X23.780 Y2.762 E0.02597
G1 X224.760 Y2.834 E6.30160
G1 X225.587 Y2.997 E0.02642
G1 X226.291 Y3.460 E0.02642
G1 X226.746 Y4.104 E0.02473
G1 X227.029 Y5.060 E0.03125
G1 X228.998 Y26.143 E0.66393
G1 X232.605 Y66.882 E1.28235
G1 X233.611 Y79.888 E0.40900
G1 X236.866 Y135.537 E1.74781
G1 X238.024 Y173.133 E1.17935
G1 X238.433 Y194.186 E0.66024
G1 X238.522 Y205.060 E0.34094
G1 X238.329 Y205.861 E0.02586
G1 X237.849 Y206.537 E0.02597
G1 X237.157 Y206.984 E0.02586
G1 X236.344 Y207.144 E0.02597
G1 X13.891 Y207.064 E6.97484
G1 X13.007 Y206.897 E0.02821
G1 X12.265 Y206.389 E0.02822
G1 X11.817 Y205.696 E0.02586
G1 X11.657 Y204.884 E0.02597
G1 X11.733 Y187.306 E0.55113
G1 X12.078 Y160.406 E0.84350
G1 X12.328 Y148.990 E0.35803
G1 X13.524 Y121.641 E0.85834
G1 X15.410 Y85.868 E1.12320
G1 X17.667 Y52.791 E1.03952
G1 X21.120 Y9.203 E1.37096
G1 X21.549 Y4.812 E0.13831
G1 X21.831 Y3.969 E0.02788
G1 X22.272 Y3.372 E0.02326
G1 X22.917 Y2.954 E0.02409
G1 F8640
G1 X23.780 Y2.762 E-0.20418
G1 X26.187 Y2.763 E-0.55582
G1 E-0.04000 F2100.00000
G1 Z0.800 F10800.000
G1 X24.321 Y5.538
G1 Z0.200
G1 E0.80000 F2100.00000
G1 F1800
G1 X224.214 Y5.610 E6.26753
G1 X224.555 Y10.183 E0.14378
G1 X224.894 Y14.094 E0.12309
G1 X225.157 Y16.705 E0.08227
G1 X225.841 Y22.930 E0.19636
G1 X226.227 Y27.081 E0.13071
G1 X226.642 Y32.227 E0.16189
G1 X227.555 Y44.342 E0.38093
G1 X227.909 Y48.547 E0.13231
G1 X228.186 Y51.421 E0.09053
G1 X228.926 Y58.350 E0.21850
G1 X229.425 Y63.335 E0.15708
G1 X229.780 Y67.186 E0.12126
G1 X230.358 Y74.166 E0.21958
G1 X230.802 Y80.384 E0.19547
G1 X231.164 Y86.360 E0.18772
G1 X231.518 Y93.127 E0.21246
G1 X232.129 Y105.742 E0.39602
G1 X232.981 Y120.681 E0.46915
G1 X233.217 Y125.751 E0.15915
G1 X233.313 Y127.202 E0.04557
G1 X233.428 Y128.545 E0.04228
G1 X233.832 Y132.397 E0.12143
G1 X233.971 Y134.188 E0.05634
G1 X234.092 Y136.850 E0.08353
G1 X234.195 Y141.136 E0.13442
G1 X234.643 Y153.876 E0.39970
G1 X234.906 Y164.374 E0.32927
G1 X235.236 Y174.021 E0.30266
G1 X235.414 Y184.170 E0.31825
G1 X235.640 Y194.673 E0.32940
G1 X235.727 Y204.368 E0.30400
G1 X225.896 Y204.365 E0.30824
G1 X225.796 Y194.324 E0.31485
G1 X225.567 Y183.601 E0.33626
G1 X225.436 Y175.564 E0.25204
G1 X225.360 Y172.802 E0.08663
G1 X225.025 Y162.966 E0.30858
G1 X224.795 Y153.665 E0.29171
G1 X224.402 Y142.608 E0.34691
G1 X224.279 Y137.760 E0.15206
G1 X224.198 Y135.620 E0.06714
G1 X224.083 Y133.911 E0.05371
G1 X223.651 Y129.748 E0.13123
G1 X223.563 Y128.787 E0.03027
G1 X223.418 Y126.744 E0.06421
G1 X223.098 Y119.964 E0.21281
G1 X222.900 Y116.226 E0.11738
G1 X222.283 Y105.897 E0.32445
G1 X221.689 Y93.606 E0.38580
G1 X221.357 Y87.219 E0.20053
G1 X220.934 Y80.309 E0.21708
G1 X220.670 Y76.573 E0.11743
G1 X220.139 Y69.920 E0.20925
G1 X219.752 Y65.593 E0.13622
G1 X219.192 Y59.905 E0.17920
G1 X218.298 Y51.465 E0.26611
G1 X218.004 Y48.292 E0.09993
G1 X217.586 Y43.090 E0.16364
G1 X216.709 Y31.456 E0.36578
G1 X216.273 Y26.255 E0.16367
G1 X215.931 Y22.785 E0.10931
G1 X215.122 Y15.361 E0.23417
G1 X33.315 Y15.295 E5.70043
G1 X30.543 Y50.578 E1.10966
G1 X29.953 Y58.795 E0.25832
G1 X28.504 Y79.671 E0.65612
G1 X28.262 Y83.361 E0.11593
G1 X27.819 Y90.997 E0.23984
G1 X26.094 Y124.017 E1.03672
G1 X24.999 Y149.257 E0.79214
G1 X24.870 Y153.436 E0.13108
G1 X24.708 Y163.122 E0.30375
G1 X24.623 Y171.284 E0.25591
G1 X24.447 Y183.052 E0.36902
G1 X24.338 Y192.696 E0.30240
G1 X24.320 Y195.723 E0.09490
G1 X24.316 Y204.292 E0.26869
G1 X14.480 Y204.289 E0.30842
G1 X14.482 Y196.275 E0.25126
G1 X14.597 Y183.844 E0.38979
G1 X14.736 Y175.199 E0.27108
G1 X14.884 Y161.992 E0.41411
G1 X15.035 Y153.141 E0.27758
G1 X15.086 Y151.131 E0.06305
G1 X15.189 Y148.345 E0.08741
G1 X15.740 Y135.884 E0.39109
G1 X16.120 Y126.731 E0.28723
G1 X16.350 Y121.830 E0.15382
G1 X17.351 Y102.996 E0.59136
G1 X18.108 Y88.328 E0.46053
G1 X18.461 Y82.398 E0.18625
G1 X18.712 Y78.632 E0.11834
G1 X19.488 Y67.626 E0.34595
G1 X20.246 Y56.483 E0.35019
G1 X20.803 Y48.853 E0.23986
G1 X23.470 Y14.970 E1.06567
G1 X23.854 Y10.433 E0.14275
G1 X24.315 Y5.598 E0.15231
G1 F8640
G1 X27.606 Y5.598 E-0.76000
G1 E-0.04000 F2100.00000
G1 Z0.800 F10800.000
G1 X214.784 Y15.738
G1 Z0.200
G1 E0.80000 F2100.00000
G1 F1800
G1 X33.664 Y15.673 E5.67889
G1 X30.919 Y50.606 E1.09869
G1 X30.329 Y58.822 E0.25827
G1 X28.880 Y79.697 E0.65609
G1 X28.638 Y83.384 E0.11586
G1 X28.195 Y91.018 E0.23977
G1 X26.471 Y124.035 E1.03663
G1 X25.376 Y149.271 E0.79201
G1 X25.247 Y153.445 E0.13092
G1 X25.085 Y163.128 E0.30363
G1 X25.000 Y171.289 E0.25590
G1 X24.824 Y183.057 E0.36903
G1 X24.716 Y192.699 E0.30235
G1 X24.697 Y195.724 E0.09484
G1 X24.693 Y204.670 E0.28048
G1 X14.102 Y204.666 E0.33206
G1 X14.105 Y196.273 E0.26314
G1 X14.220 Y183.839 E0.38989
G1 X14.359 Y175.194 E0.27109
G1 X14.507 Y161.987 E0.41412
G1 X14.658 Y153.133 E0.27766
G1 X14.709 Y151.119 E0.06316
G1 X14.812 Y148.329 E0.08752
G1 X15.363 Y135.867 E0.39112
G1 X15.743 Y126.714 E0.28724
G1 X15.973 Y121.811 E0.15389
G1 X16.974 Y102.976 E0.59139
G1 X17.731 Y88.307 E0.46057
G1 X18.085 Y82.374 E0.18634
G1 X18.335 Y78.607 E0.11840
G1 X19.112 Y67.600 E0.34596
G1 X19.870 Y56.457 E0.35020
G1 X20.427 Y48.825 E0.23993
G1 X23.094 Y14.939 E1.06574
G1 X23.478 Y10.400 E0.14284
G1 X23.978 Y5.161 E0.16501
G1 X224.564 Y5.233 E6.28925
G1 X224.931 Y10.152 E0.15468
G1 X225.270 Y14.059 E0.12294
G1 X225.532 Y16.665 E0.08213
G1 X226.216 Y22.892 E0.19640
G1 X226.602 Y27.048 E0.13088
G1 X227.018 Y32.198 E0.16199
G1 X227.931 Y44.312 E0.38091
G1 X228.284 Y48.513 E0.13219
G1 X228.561 Y51.383 E0.09040
G1 X229.301 Y58.312 E0.21848
G1 X229.800 Y63.299 E0.15717
G1 X230.156 Y67.154 E0.12136
G1 X230.734 Y74.137 E0.21970
G1 X231.178 Y80.359 E0.19560
G1 X231.541 Y86.339 E0.18783
G1 X231.894 Y93.108 E0.21253
G1 X232.506 Y105.722 E0.39599
G1 X233.357 Y120.661 E0.46916
G1 X233.593 Y125.730 E0.15909
G1 X233.689 Y127.173 E0.04534
G1 X233.803 Y128.509 E0.04206
G1 X234.208 Y132.363 E0.12148
G1 X234.347 Y134.165 E0.05669
G1 X234.468 Y136.837 E0.08384
G1 X234.572 Y141.124 E0.13448
G1 X235.020 Y153.864 E0.39969
G1 X235.283 Y164.363 E0.32927
G1 X235.613 Y174.011 E0.30271
G1 X235.791 Y184.162 E0.31832
G1 X236.017 Y194.667 E0.32945
G1 X236.107 Y204.745 E0.31601
G1 X225.523 Y204.742 E0.33188
G1 X225.419 Y194.330 E0.32648
G1 X225.190 Y183.608 E0.33623
G1 X225.059 Y175.572 E0.25200
G1 X224.983 Y172.814 E0.08653
G1 X224.648 Y162.977 E0.30860
G1 X224.418 Y153.677 E0.29170
G1 X224.026 Y142.620 E0.34690
G1 X223.902 Y137.772 E0.15204
G1 X223.822 Y135.640 E0.06689
G1 X223.707 Y133.943 E0.05332
G1 X223.276 Y129.785 E0.13110
G1 X223.187 Y128.817 E0.03046
G1 X223.041 Y126.766 E0.06447
G1 X222.721 Y119.983 E0.21292
G1 X222.524 Y116.247 E0.11730
G1 X221.907 Y105.917 E0.32448
G1 X221.313 Y93.625 E0.38584
G1 X220.980 Y87.241 E0.20046
G1 X220.558 Y80.333 E0.21697
G1 X220.294 Y76.601 E0.11732
G1 X219.763 Y69.952 E0.20914
G1 X219.377 Y65.628 E0.13611
G1 X218.817 Y59.944 E0.17910
G1 X217.923 Y51.503 E0.26615
G1 X217.629 Y48.324 E0.10008
G1 X217.210 Y43.119 E0.16374
G1 X216.334 Y31.486 E0.36576
G1 X215.897 Y26.289 E0.16353
G1 X215.556 Y22.824 E0.10916
G1 X214.790 Y15.797 E0.22163
G1 X214.770 Y15.338 F10800.000
G1 X214.735 Y15.248
G1 F1800
G1 X205.373 Y5.886 E0.41521
G1 X204.840 Y5.886 E0.01673
G1 X214.032 Y15.078 E0.40768
G1 X213.498 Y15.077 E0.01673
G1 X204.306 Y5.885 E0.40768
G1 X203.773 Y5.885 E0.01673
G1 X212.965 Y15.077 E0.40768
G1 X212.431 Y15.077 E0.01673
G1 X203.239 Y5.885 E0.40768
G1 X202.705 Y5.885 E0.01673
G1 X211.897 Y15.077 E0.40768
G1 X211.364 Y15.077 E0.01673
G1 X202.172 Y5.885 E0.40768
G1 X201.638 Y5.884 E0.01673
G1 X210.830 Y15.076 E0.40768
G1 X210.297 Y15.076 E0.01673
G1 X201.105 Y5.884 E0.40768
G1 X200.571 Y5.884 E0.01673
G1 X209.763 Y15.076 E0.40768
G1 X209.230 Y15.076 E0.01673
G1 X200.037 Y5.884 E0.40768
G1 X199.504 Y5.884 E0.01673
G1 X208.696 Y15.076 E0.40768
G1 X208.162 Y15.076 E0.01673
G1 X198.970 Y5.883 E0.40768
G1 X198.437 Y5.883 E0.01673
G1 X207.629 Y15.075 E0.40768
G1 X207.095 Y15.075 E0.01673
G1 X197.903 Y5.883 E0.40768
G1 X197.370 Y5.883 E0.01673
G1 X206.562 Y15.075 E0.40768
G1 X206.028 Y15.075 E0.01673
G1 X196.836 Y5.883 E0.40768
G1 X196.302 Y5.882 E0.01673
G1 X205.494 Y15.075 E0.40768
G1 X204.961 Y15.074 E0.01673
G1 X195.769 Y5.882 E0.40768
G1 X195.235 Y5.882 E0.01673
G1 X204.427 Y15.074 E0.40768
G1 X203.894 Y15.074 E0.01673
G1 X194.702 Y5.882 E0.40768
G1 X194.168 Y5.882 E0.01673
G1 X203.360 Y15.074 E0.40768
G1 X202.827 Y15.074 E0.01673
G1 X193.634 Y5.881 E0.40768
G1 X193.101 Y5.881 E0.01673
G1 X202.293 Y15.073 E0.40768
G1 X201.759 Y15.073 E0.01673
G1 X192.567 Y5.881 E0.40768
G1 X192.034 Y5.881 E0.01673
G1 X201.226 Y15.073 E0.40768
G1 X200.692 Y15.073 E0.01673
G1 X191.500 Y5.881 E0.40768
G1 X190.967 Y5.881 E0.01673
G1 X200.159 Y15.073 E0.40768
G1 X199.625 Y15.072 E0.01673
G1 X190.433 Y5.880 E0.40768
G1 X189.899 Y5.880 E0.01673
G1 X199.092 Y15.072 E0.40768
G1 X198.558 Y15.072 E0.01673
G1 X189.366 Y5.880 E0.40768
G1 X188.832 Y5.880 E0.01673
G1 X198.024 Y15.072 E0.40768
G1 X197.491 Y15.072 E0.01673
G1 X188.299 Y5.880 E0.40768
G1 X187.765 Y5.879 E0.01673
G1 X196.957 Y15.071 E0.40768
G1 X196.424 Y15.071 E0.01673
G1 X187.231 Y5.879 E0.40768
G1 X186.698 Y5.879 E0.01673
G1 X195.890 Y15.071 E0.40768
G1 X195.356 Y15.071 E0.01673
G1 X186.164 Y5.879 E0.40768
G1 X185.631 Y5.879 E0.01673
G1 X194.823 Y15.071 E0.40768
G1 X194.289 Y15.071 E0.01673
G1 X185.097 Y5.878 E0.40768
G1 X184.564 Y5.878 E0.01673
G1 X193.756 Y15.070 E0.40768
G1 X193.222 Y15.070 E0.01673
G1 X184.030 Y5.878 E0.40768
G1 X183.496 Y5.878 E0.01673
G1 X192.689 Y15.070 E0.40768
G1 X192.155 Y15.070 E0.01673
G1 X182.963 Y5.878 E0.40768
G1 X182.429 Y5.877 E0.01673
G1 X191.621 Y15.070 E0.40768
G1 X191.088 Y15.069 E0.01673
G1 X181.896 Y5.877 E0.40768
G1 X181.362 Y5.877 E0.01673
G1 X190.554 Y15.069 E0.40768
G1 X190.021 Y15.069 E0.01673
G1 X180.829 Y5.877 E0.40768
G1 X180.295 Y5.877 E0.01673
G1 X189.487 Y15.069 E0.40768
G1 X188.953 Y15.069 E0.01673
G1 X179.761 Y5.877 E0.40768
G1 X179.228 Y5.876 E0.01673
G1 X188.420 Y15.068 E0.40768
G1 X187.886 Y15.068 E0.01673
G1 X178.694 Y5.876 E0.40768
G1 X178.161 Y5.876 E0.01673
G1 X187.353 Y15.068 E0.40768
G1 X186.819 Y15.068 E0.01673
G1 X177.627 Y5.876 E0.40768
G1 X177.093 Y5.876 E0.01673
G1 X186.286 Y15.068 E0.40768
G1 X185.752 Y15.067 E0.01673
G1 X176.560 Y5.875 E0.40768
G1 X176.026 Y5.875 E0.01673
G1 X185.218 Y15.067 E0.40768
G1 X184.685 Y15.067 E0.01673
G1 X175.493 Y5.875 E0.40768
G1 X174.959 Y5.875 E0.01673
G1 X184.151 Y15.067 E0.40768
G1 X183.618 Y15.067 E0.01673
G1 X174.426 Y5.875 E0.40768
G1 X173.892 Y5.874 E0.01673
G1 X183.084 Y15.066 E0.40768
G1 X182.550 Y15.066 E0.01673
G1 X173.358 Y5.874 E0.40768
G1 X172.825 Y5.874 E0.01673
G1 X182.017 Y15.066 E0.40768
G1 X181.483 Y15.066 E0.01673
G1 X172.291 Y5.874 E0.40768
G1 X171.758 Y5.874 E0.01673
G1 X180.950 Y15.066 E0.40768
G1 X180.416 Y15.066 E0.01673
G1 X171.224 Y5.873 E0.40768
G1 X170.690 Y5.873 E0.01673
G1 X179.883 Y15.065 E0.40768
G1 X179.349 Y15.065 E0.01673
G1 X170.157 Y5.873 E0.40768
G1 X169.623 Y5.873 E0.01673
G1 X178.815 Y15.065 E0.40768
G1 X178.282 Y15.065 E0.01673
G1 X169.090 Y5.873 E0.40768
G1 X168.556 Y5.872 E0.01673
G1 X177.748 Y15.065 E0.40768
G1 X177.215 Y15.064 E0.01673
G1 X168.023 Y5.872 E0.40768
G1 X167.489 Y5.872 E0.01673
G1 X176.681 Y15.064 E0.40768
G1 X176.147 Y15.064 E0.01673
G1 X166.955 Y5.872 E0.40768
G1 X166.422 Y5.872 E0.01673
G1 X175.614 Y15.064 E0.40768
G1 X175.080 Y15.064 E0.01673
G1 X165.888 Y5.872 E0.40768
G1 X165.355 Y5.871 E0.01673
G1 X174.547 Y15.063 E0.40768
G1 X174.013 Y15.063 E0.01673
G1 X164.821 Y5.871 E0.40768
G1 X164.287 Y5.871 E0.01673
G1 X173.480 Y15.063 E0.40768
G1 X172.946 Y15.063 E0.01673
G1 X163.754 Y5.871 E0.40768
G1 X163.220 Y5.871 E0.01673
G1 X172.412 Y15.063 E0.40768
G1 X171.879 Y15.062 E0.01673
G1 X162.687 Y5.870 E0.40768
G1 X162.153 Y5.870 E0.01673
G1 X171.345 Y15.062 E0.40768
G1 X170.812 Y15.062 E0.01673
G1 X161.620 Y5.870 E0.40768
G1 X161.086 Y5.870 E0.01673
G1 X170.278 Y15.062 E0.40768
G1 X169.744 Y15.062 E0.01673
G1 X160.552 Y5.870 E0.40768
G1 X160.019 Y5.869 E0.01673
G1 X169.211 Y15.062 E0.40768
G1 X168.677 Y15.061 E0.01673
G1 X159.485 Y5.869 E0.40768
G1 X158.952 Y5.869 E0.01673
G1 X168.144 Y15.061 E0.40768
G1 X167.610 Y15.061 E0.01673
G1 X158.418 Y5.869 E0.40768
G1 X157.884 Y5.869 E0.01673
G1 X167.077 Y15.061 E0.40768
G1 X166.543 Y15.061 E0.01673
G1 X157.351 Y5.868 E0.40768
G1 X156.817 Y5.868 E0.01673
G1 X166.009 Y15.060 E0.40768
G1 X165.476 Y15.060 E0.01673
G1 X156.284 Y5.868 E0.40768
G1 X155.750 Y5.868 E0.01673
G1 X164.942 Y15.060 E0.40768
G1 X164.409 Y15.060 E0.01673
G1 X155.217 Y5.868 E0.40768
G1 X154.683 Y5.867 E0.01673
G1 X163.875 Y15.060 E0.40768
G1 X163.342 Y15.059 E0.01673
G1 X154.149 Y5.867 E0.40768
G1 X153.616 Y5.867 E0.01673
G1 X162.808 Y15.059 E0.40768
G1 X162.274 Y15.059 E0.01673
G1 X153.082 Y5.867 E0.40768
G1 X152.549 Y5.867 E0.01673
G1 X161.741 Y15.059 E0.40768
G1 X161.207 Y15.059 E0.01673
G1 X152.015 Y5.867 E0.40768
G1 X151.482 Y5.866 E0.01673
G1 X160.674 Y15.058 E0.40768
G1 X160.140 Y15.058 E0.01673
G1 X150.948 Y5.866 E0.40768
G1 X150.414 Y5.866 E0.01673
G1 X159.606 Y15.058 E0.40768
G1 X159.073 Y15.058 E0.01673
G1 X149.881 Y5.866 E0.40768
G1 X149.347 Y5.866 E0.01673
G1 X158.539 Y15.058 E0.40768
G1 X158.006 Y15.057 E0.01673
G1 X148.814 Y5.865 E0.40768
G1 X148.280 Y5.865 E0.01673
G1 X157.472 Y15.057 E0.40768
G1 X156.939 Y15.057 E0.01673
G1 X147.746 Y5.865 E0.40768
G1 X147.213 Y5.865 E0.01673
G1 X156.405 Y15.057 E0.40768
G1 X155.871 Y15.057 E0.01673
G1 X146.679 Y5.865 E0.40768
G1 X146.146 Y5.864 E0.01673
G1 X155.338 Y15.057 E0.40768
G1 X154.804 Y15.056 E0.01673
G1 X145.612 Y5.864 E0.40768
G1 X145.079 Y5.864 E0.01673
G1 X154.271 Y15.056 E0.40768
G1 X153.737 Y15.056 E0.01673
G1 X144.545 Y5.864 E0.40768
G1 X144.011 Y5.864 E0.01673
G1 X153.203 Y15.056 E0.40768
G1 X152.670 Y15.056 E0.01673
G1 X143.478 Y5.863 E0.40768
G1 X142.944 Y5.863 E0.01673
G1 X152.136 Y15.055 E0.40768
G1 X151.603 Y15.055 E0.01673
G1 X142.411 Y5.863 E0.40768
G1 X141.877 Y5.863 E0.01673
G1 X151.069 Y15.055 E0.40768
G1 X150.536 Y15.055 E0.01673
G1 X141.343 Y5.863 E0.40768
G1 X140.810 Y5.863 E0.01673
G1 X150.002 Y15.055 E0.40768
G1 X149.468 Y15.054 E0.01673
G1 X140.276 Y5.862 E0.40768
G1 X139.743 Y5.862 E0.01673
G1 X148.935 Y15.054 E0.40768
G1 X148.401 Y15.054 E0.01673
G1 X139.209 Y5.862 E0.40768
G1 X138.676 Y5.862 E0.01673
G1 X147.868 Y15.054 E0.40768
G1 X147.334 Y15.054 E0.01673
G1 X138.142 Y5.862 E0.40768
G1 X137.608 Y5.861 E0.01673
G1 X146.800 Y15.053 E0.40768
G1 X146.267 Y15.053 E0.01673
G1 X137.075 Y5.861 E0.40768
G1 X136.541 Y5.861 E0.01673
G1 X145.733 Y15.053 E0.40768
G1 X145.200 Y15.053 E0.01673
G1 X136.008 Y5.861 E0.40768
G1 X135.474 Y5.861 E0.01673
G1 X144.666 Y15.053 E0.40768
G1 X144.133 Y15.053 E0.01673
G1 X134.940 Y5.860 E0.40768
