; generated by Slic3r Prusa Edition 1.40.0+ on 2018-07-12 at 13:24:58

; 

; external perimeters extrusion width = 0.45mm
; perimeters extrusion width = 0.45mm
; infill extrusion width = 0.45mm
; solid infill extrusion width = 0.45mm
; top infill extrusion width = 0.40mm
; first layer extrusion width = 0.42mm

M107
M115 U3.2.1 ; tell printer latest fw version
M201 X1000 Y1000 Z200 E5000 ; sets maximum accelerations, mm/sec^2
M203 X200 Y200 Z12 E120 ; sets maximum feedrates, mm/sec
M204 S1250 T1250 ; sets acceleration (S) and retract acceleration (T)
M205 X10 Y10 Z0.4 E2.5 ; sets the jerk limits, mm/sec
M205 S0 T0 ; sets the minimum extruding and travel feed rate, mm/sec
M83  ; extruder relative mode
M104 S215 ; set extruder temp
M140 S60 ; set bed temp
M190 S60 ; wait for bed temp
M109 S215 ; wait for extruder temp
G28 W ; home all without mesh bed level
G80 ; mesh bed leveling
G1 Y-3.0 F1000.0 ; go outside print area
G92 E0.0
G1 X60.0 E9.0  F1000.0 ; intro line
G1 X100.0 E12.5  F1000.0 ; intro line
G92 E0.0
M221 S95
M900 K30; Filament gcode
G21 ; set units to millimeters
G90 ; use absolute coordinates
M83 ; use relative distances for extrusion
;BEFORE_LAYER_CHANGE
G92 E0.0
;0.2


G1 E-0.80000 F2100.00000
G1 Z0.600 F10800.000
;AFTER_LAYER_CHANGE
;0.2
G1 X41.302 Y53.627
G1 Z0.200
G1 E0.80000 F2100.00000
M204 S1000
G1 F1800
G1 X41.935 Y53.087 E0.02608
G1 X42.452 Y52.877 E0.01749
G1 X43.008 Y52.803 E0.01760
G1 X208.064 Y52.819 E5.17521
G1 X208.619 Y52.904 E0.01760
G1 X209.093 Y53.103 E0.01612
G1 X209.507 Y53.408 E0.01612
G1 X209.841 Y53.803 E0.01623
G1 X210.071 Y54.263 E0.01612
G1 X210.915 Y57.610 E0.10823
G1 X213.034 Y66.949 E0.30027
G1 X216.933 Y85.698 E0.60043
G1 X219.226 Y98.220 E0.39915
G1 X222.393 Y117.056 E0.59886
G1 X227.517 Y154.717 E1.19173
G1 X227.507 Y155.365 E0.02032
G1 X227.308 Y155.982 E0.02032
G1 X226.937 Y156.513 E0.02032
G1 X226.426 Y156.913 E0.02032
G1 X225.906 Y157.124 E0.01760
G1 X225.350 Y157.197 E0.01760
G1 X24.645 Y157.179 E6.29296
G1 X24.078 Y157.102 E0.01794
G1 X23.547 Y156.879 E0.01805
G1 X23.092 Y156.525 E0.01805
G1 X22.748 Y156.069 E0.01794
G1 X22.508 Y155.428 E0.02146
G1 X22.477 Y154.744 E0.02146
G1 X23.693 Y145.303 E0.29845
G1 X25.049 Y135.824 E0.30025
G1 X26.433 Y126.426 E0.29785
G1 X27.939 Y117.068 E0.29720
G1 X29.514 Y107.588 E0.30131
G1 X31.193 Y98.208 E0.29876
G1 X33.612 Y85.664 E0.40056
G1 X37.772 Y66.885 E0.60308
G1 X40.918 Y54.360 E0.40491
G1 X41.275 Y53.680 E0.02409
G1 F8640
G1 X41.935 Y53.087 E-0.20500
G1 X42.452 Y52.877 E-0.12877
G1 X43.008 Y52.803 E-0.12960
G1 X44.293 Y52.803 E-0.29663
G1 E-0.04000 F2100.00000
G1 Z0.800 F10800.000
G1 X43.466 Y55.579
G1 Z0.200
G1 E0.80000 F2100.00000
G1 F1800
G1 X207.554 Y55.594 E5.14485
G1 X208.213 Y58.245 E0.08567
G1 X210.322 Y67.541 E0.29885
G1 X212.918 Y80.005 E0.39919
G1 X214.213 Y86.254 E0.20009
G1 X214.808 Y89.364 E0.09929
G1 X216.492 Y98.697 E0.29734
G1 X217.518 Y104.971 E0.19936
G1 X218.575 Y111.234 E0.19915
G1 X219.403 Y115.919 E0.14917
G1 X219.649 Y117.474 E0.04936
G1 X219.867 Y119.031 E0.04929
G1 X220.443 Y123.735 E0.14859
G1 X220.853 Y126.876 E0.09931
G1 X222.157 Y136.281 E0.29771
G1 X223.845 Y148.825 E0.39685
G1 X224.668 Y154.421 E0.17736
G1 X25.317 Y154.403 E6.25051
G1 X26.017 Y148.816 E0.17656
G1 X26.443 Y145.679 E0.09925
G1 X27.795 Y136.225 E0.29945
G1 X29.177 Y126.847 E0.29720
G1 X30.679 Y117.514 E0.29641
G1 X32.249 Y108.061 E0.30045
G1 X33.922 Y98.716 E0.29765
G1 X35.693 Y89.349 E0.29891
G1 X36.328 Y86.236 E0.09963
G1 X37.738 Y79.992 E0.20069
G1 X40.472 Y67.527 E0.40011
G1 X42.769 Y58.243 E0.29987
G1 X43.451 Y55.637 E0.08447
G1 X43.175 Y55.202 F10800.000
G1 F1800
G1 X207.849 Y55.217 E5.16322
G1 X208.580 Y58.158 E0.09504
G1 X210.691 Y67.460 E0.29908
G1 X213.287 Y79.928 E0.39930
G1 X214.583 Y86.180 E0.20019
G1 X215.179 Y89.295 E0.09944
G1 X216.863 Y98.633 E0.29749
G1 X217.890 Y104.909 E0.19942
G1 X218.946 Y111.170 E0.19907
G1 X219.774 Y115.857 E0.14923
G1 X220.022 Y117.418 E0.04957
G1 X220.241 Y118.982 E0.04950
G1 X220.817 Y123.688 E0.14865
G1 X221.226 Y126.825 E0.09922
G1 X222.531 Y136.230 E0.29768
G1 X224.218 Y148.772 E0.39680
G1 X225.105 Y154.798 E0.19098
G1 X24.890 Y154.780 E6.27759
G1 X25.643 Y148.767 E0.19002
G1 X26.069 Y145.627 E0.09936
G1 X27.422 Y136.170 E0.29952
G1 X28.804 Y126.790 E0.29730
G1 X30.307 Y117.453 E0.29652
G1 X31.878 Y107.997 E0.30056
G1 X33.551 Y98.648 E0.29778
G1 X35.323 Y89.276 E0.29905
G1 X35.959 Y86.156 E0.09984
G1 X37.370 Y79.910 E0.20078
G1 X40.105 Y67.442 E0.40023
G1 X42.403 Y58.150 E0.30011
G1 X43.160 Y55.260 E0.09368
G1 X43.504 Y55.430 F10800.000
G1 F8640
G1 X46.451 Y55.259 E-0.76000
G1 E-0.04000 F2100.00000
G1 Z0.800 F10800.000
G1 X26.206 Y154.290
G1 Z0.200
G1 E0.80000 F2100.00000
G1 F1800
G1 X25.682 Y153.767 E0.02323
G1 X25.741 Y153.292 E0.01500
G1 X26.570 Y154.121 E0.03675
G1 X27.103 Y154.121 E0.01674
G1 X25.801 Y152.818 E0.05779
G1 X25.860 Y152.344 E0.01499
G1 X27.637 Y154.121 E0.07884
G1 X28.171 Y154.121 E0.01674
G1 X25.919 Y151.870 E0.09988
G1 X25.979 Y151.395 E0.01499
G1 X28.704 Y154.121 E0.12093
G1 X29.238 Y154.121 E0.01674
G1 X26.038 Y150.921 E0.14197
G1 X26.098 Y150.447 E0.01499
G1 X29.772 Y154.121 E0.16301
G1 X30.305 Y154.121 E0.01674
G1 X26.157 Y149.973 E0.18406
G1 X26.216 Y149.498 E0.01499
G1 X30.839 Y154.121 E0.20510
G1 X31.372 Y154.121 E0.01674
G1 X26.276 Y149.024 E0.22614
G1 X26.338 Y148.553 E0.01492
G1 X31.906 Y154.121 E0.24706
G1 X32.440 Y154.121 E0.01674
G1 X26.402 Y148.083 E0.26791
G1 X26.465 Y147.613 E0.01488
G1 X32.973 Y154.121 E0.28876
G1 X33.507 Y154.121 E0.01674
G1 X26.529 Y147.143 E0.30961
G1 X26.593 Y146.673 E0.01488
G1 X34.041 Y154.121 E0.33046
G1 X34.574 Y154.121 E0.01674
G1 X26.657 Y146.204 E0.35130
G1 X26.721 Y145.734 E0.01488
G1 X35.108 Y154.121 E0.37215
G1 X35.642 Y154.121 E0.01674
G1 X26.787 Y145.267 E0.39287
G1 X26.854 Y144.800 E0.01480
G1 X36.175 Y154.121 E0.41358
G1 X36.709 Y154.121 E0.01674
G1 X26.921 Y144.333 E0.43430
G1 X26.988 Y143.866 E0.01480
G1 X37.243 Y154.122 E0.45501
G1 X37.776 Y154.122 E0.01674
G1 X27.054 Y143.400 E0.47573
G1 X27.121 Y142.933 E0.01480
G1 X38.310 Y154.122 E0.49644
G1 X38.844 Y154.122 E0.01674
G1 X27.188 Y142.466 E0.51716
G1 X27.255 Y141.999 E0.01480
G1 X39.377 Y154.122 E0.53787
G1 X39.911 Y154.122 E0.01674
G1 X27.321 Y141.532 E0.55859
G1 X27.388 Y141.065 E0.01480
G1 X40.445 Y154.122 E0.57930
G1 X40.978 Y154.122 E0.01674
G1 X27.455 Y140.599 E0.60002
G1 X27.522 Y140.132 E0.01480
G1 X41.512 Y154.122 E0.62073
G1 X42.046 Y154.122 E0.01674
G1 X27.589 Y139.665 E0.64145
G1 X27.655 Y139.198 E0.01480
G1 X42.579 Y154.122 E0.66216
G1 X43.113 Y154.122 E0.01674
G1 X27.722 Y138.731 E0.68288
G1 X27.789 Y138.265 E0.01480
G1 X43.647 Y154.122 E0.70359
G1 X44.180 Y154.122 E0.01674
G1 X27.856 Y137.798 E0.72431
G1 X27.923 Y137.331 E0.01480
G1 X44.714 Y154.122 E0.74502
G1 X45.247 Y154.122 E0.01674
G1 X27.989 Y136.864 E0.76574
G1 X28.056 Y136.397 E0.01480
G1 X45.781 Y154.122 E0.78645
G1 X46.315 Y154.122 E0.01674
G1 X28.124 Y135.932 E0.80711
G1 X28.193 Y135.467 E0.01475
G1 X46.848 Y154.122 E0.82775
G1 X47.382 Y154.122 E0.01674
G1 X28.261 Y135.002 E0.84839
G1 X28.330 Y134.536 E0.01475
G1 X47.916 Y154.122 E0.86902
G1 X48.449 Y154.123 E0.01674
G1 X28.398 Y134.071 E0.88966
G1 X28.467 Y133.606 E0.01475
G1 X48.983 Y154.123 E0.91030
G1 X49.517 Y154.123 E0.01674
G1 X28.535 Y133.141 E0.93094
G1 X28.604 Y132.676 E0.01475
G1 X50.050 Y154.123 E0.95157
G1 X50.584 Y154.123 E0.01674
G1 X28.672 Y132.211 E0.97221
G1 X28.741 Y131.746 E0.01475
G1 X51.118 Y154.123 E0.99285
G1 X51.651 Y154.123 E0.01674
G1 X28.809 Y131.281 E1.01349
G1 X28.878 Y130.816 E0.01475
G1 X52.185 Y154.123 E1.03412
G1 X52.719 Y154.123 E0.01674
G1 X28.946 Y130.351 E1.05476
G1 X29.015 Y129.886 E0.01475
G1 X53.252 Y154.123 E1.07540
G1 X53.786 Y154.123 E0.01674
G1 X29.084 Y129.421 E1.09604
G1 X29.152 Y128.956 E0.01475
G1 X54.320 Y154.123 E1.11667
G1 X54.853 Y154.123 E0.01674
G1 X29.221 Y128.490 E1.13731
G1 X29.289 Y128.025 E0.01475
G1 X55.387 Y154.123 E1.15795
G1 X55.921 Y154.123 E0.01674
G1 X29.358 Y127.560 E1.17859
G1 X29.426 Y127.095 E0.01475
G1 X56.454 Y154.123 E1.19922
G1 X56.988 Y154.123 E0.01674
G1 X29.498 Y126.633 E1.21973
G1 X29.572 Y126.174 E0.01461
G1 X57.522 Y154.123 E1.24012
G1 X58.055 Y154.123 E0.01674
G1 X29.646 Y125.714 E1.26052
G1 X29.720 Y125.254 E0.01461
G1 X58.589 Y154.123 E1.28091
G1 X59.122 Y154.123 E0.01674
G1 X29.794 Y124.795 E1.30131
G1 X29.868 Y124.335 E0.01461
G1 X59.656 Y154.124 E1.32171
G1 X60.190 Y154.124 E0.01674
G1 X29.942 Y123.875 E1.34210
G1 X30.016 Y123.416 E0.01461
G1 X60.723 Y154.124 E1.36250
G1 X61.257 Y154.124 E0.01674
G1 X30.089 Y122.956 E1.38290
G1 X30.163 Y122.496 E0.01461
G1 X61.791 Y154.124 E1.40329
G1 X62.324 Y154.124 E0.01674
G1 X30.237 Y122.037 E1.42369
G1 X30.311 Y121.577 E0.01461
G1 X62.858 Y154.124 E1.44408
G1 X63.392 Y154.124 E0.01674
G1 X30.385 Y121.117 E1.46448
G1 X30.459 Y120.658 E0.01461
G1 X63.925 Y154.124 E1.48488
G1 X64.459 Y154.124 E0.01674
G1 X30.533 Y120.198 E1.50527
G1 X30.607 Y119.739 E0.01461
G1 X64.993 Y154.124 E1.52567
G1 X65.526 Y154.124 E0.01674
G1 X30.681 Y119.279 E1.54606
G1 X30.755 Y118.819 E0.01461
G1 X66.060 Y154.124 E1.56646
G1 X66.594 Y154.124 E0.01674
G1 X30.829 Y118.360 E1.58686
G1 X30.903 Y117.900 E0.01461
G1 X67.127 Y154.124 E1.60725
G1 X67.661 Y154.124 E0.01674
G1 X30.978 Y117.441 E1.62763
G1 X31.054 Y116.983 E0.01455
G1 X68.195 Y154.124 E1.64793
G1 X68.728 Y154.124 E0.01674
G1 X31.130 Y116.526 E1.66824
G1 X31.206 Y116.068 E0.01455
G1 X69.262 Y154.124 E1.68854
G1 X69.796 Y154.124 E0.01674
G1 X31.282 Y115.611 E1.70885
G1 X31.358 Y115.153 E0.01455
G1 X70.329 Y154.124 E1.72915
G1 X70.863 Y154.125 E0.01674
G1 X31.434 Y114.695 E1.74946
G1 X31.510 Y114.238 E0.01455
G1 X71.397 Y154.125 E1.76976
G1 X71.930 Y154.125 E0.01674
G1 X31.586 Y113.780 E1.79007
G1 X31.662 Y113.323 E0.01455
G1 X72.464 Y154.125 E1.81037
G1 X72.998 Y154.125 E0.01674
G1 X31.738 Y112.865 E1.83068
G1 X31.814 Y112.407 E0.01455
G1 X73.531 Y154.125 E1.85098
G1 X74.065 Y154.125 E0.01674
G1 X31.890 Y111.950 E1.87129
G1 X31.966 Y111.492 E0.01455
G1 X74.598 Y154.125 E1.89159
G1 X75.132 Y154.125 E0.01674
G1 X32.042 Y111.035 E1.91190
G1 X32.118 Y110.577 E0.01455
G1 X75.666 Y154.125 E1.93220
G1 X76.199 Y154.125 E0.01674
G1 X32.194 Y110.120 E1.95250
G1 X32.270 Y109.662 E0.01455
G1 X76.733 Y154.125 E1.97281
G1 X77.267 Y154.125 E0.01674
G1 X32.346 Y109.204 E1.99311
G1 X32.422 Y108.747 E0.01455
G1 X77.800 Y154.125 E2.01342
G1 X78.334 Y154.125 E0.01674
G1 X32.498 Y108.289 E2.03372
G1 X32.577 Y107.835 E0.01448
G1 X78.868 Y154.125 E2.05390
G1 X79.401 Y154.125 E0.01674
G1 X32.658 Y107.382 E2.07398
G1 X32.739 Y106.929 E0.01443
G1 X79.935 Y154.125 E2.09406
G1 X80.469 Y154.125 E0.01674
G1 X32.820 Y106.477 E2.11415
G1 X32.901 Y106.024 E0.01443
G1 X81.002 Y154.125 E2.13423
G1 X81.536 Y154.125 E0.01674
G1 X32.982 Y105.572 E2.15431
G1 X33.063 Y105.119 E0.01443
G1 X82.070 Y154.126 E2.17439
G1 X82.603 Y154.126 E0.01674
G1 X33.144 Y104.667 E2.19448
G1 X33.225 Y104.214 E0.01443
G1 X83.137 Y154.126 E2.21456
G1 X83.671 Y154.126 E0.01674
G1 X33.306 Y103.761 E2.23464
G1 X33.387 Y103.309 E0.01443
G1 X84.204 Y154.126 E2.25473
G1 X84.738 Y154.126 E0.01674
G1 X33.468 Y102.856 E2.27481
G1 X33.549 Y102.404 E0.01443
G1 X85.272 Y154.126 E2.29489
G1 X85.805 Y154.126 E0.01674
G1 X33.630 Y101.951 E2.31498
G1 X33.711 Y101.498 E0.01443
G1 X86.339 Y154.126 E2.33506
G1 X86.873 Y154.126 E0.01674
G1 X33.792 Y101.046 E2.35514
G1 X33.873 Y100.593 E0.01443
G1 X87.406 Y154.126 E2.37523
G1 X87.940 Y154.126 E0.01674
G1 X33.954 Y100.141 E2.39531
G1 X34.035 Y99.688 E0.01443
G1 X88.473 Y154.126 E2.41539
G1 X89.007 Y154.126 E0.01674
G1 X34.116 Y99.235 E2.43548
G1 X34.197 Y98.783 E0.01443
G1 X89.541 Y154.126 E2.45556
G1 X90.074 Y154.126 E0.01674
G1 X34.282 Y98.334 E2.47548
G1 X34.367 Y97.885 E0.01433
G1 X90.608 Y154.126 E2.49539
G1 X91.142 Y154.126 E0.01674
G1 X34.452 Y97.436 E2.51531
G1 X34.537 Y96.988 E0.01433
G1 X91.675 Y154.126 E2.53522
G1 X92.209 Y154.126 E0.01674
G1 X34.621 Y96.539 E2.55514
G1 X34.706 Y96.090 E0.01433
G1 X92.743 Y154.126 E2.57505
G1 X93.276 Y154.127 E0.01674
G1 X34.791 Y95.641 E2.59496
G1 X34.876 Y95.193 E0.01433
G1 X93.810 Y154.127 E2.61488
G1 X94.344 Y154.127 E0.01674
G1 X34.961 Y94.744 E2.63479
G1 X35.046 Y94.295 E0.01433
G1 X94.877 Y154.127 E2.65471
G1 X95.411 Y154.127 E0.01674
G1 X35.130 Y93.846 E2.67462
G1 X35.215 Y93.397 E0.01433
G1 X95.945 Y154.127 E2.69453
G1 X96.478 Y154.127 E0.01674
G1 X35.300 Y92.949 E2.71445
G1 X35.385 Y92.500 E0.01433
G1 X97.012 Y154.127 E2.73436
G1 X97.546 Y154.127 E0.01674
G1 X35.470 Y92.051 E2.75428
G1 X35.555 Y91.602 E0.01433
G1 X98.079 Y154.127 E2.77419
G1 X98.613 Y154.127 E0.01674
G1 X35.639 Y91.154 E2.79411
G1 X35.724 Y90.705 E0.01433
G1 X99.147 Y154.127 E2.81402
G1 X99.680 Y154.127 E0.01674
G1 X35.809 Y90.256 E2.83393
G1 X35.894 Y89.807 E0.01433
G1 X100.214 Y154.127 E2.85385
G1 X100.748 Y154.127 E0.01674
G1 X35.979 Y89.359 E2.87374
G1 X36.070 Y88.916 E0.01419
G1 X101.281 Y154.127 E2.89340
G1 X101.815 Y154.127 E0.01674
G1 X36.160 Y88.473 E2.91307
G1 X36.251 Y88.029 E0.01419
G1 X102.348 Y154.127 E2.93274
G1 X102.882 Y154.127 E0.01674
G1 X36.341 Y87.586 E2.95241
G1 X36.431 Y87.143 E0.01419
G1 X103.416 Y154.127 E2.97208
G1 X103.949 Y154.127 E0.01674
G1 X36.522 Y86.700 E2.99174
G1 X36.613 Y86.257 E0.01417
G1 X104.483 Y154.128 E3.01138
G1 X105.017 Y154.128 E0.01674
G1 X36.711 Y85.822 E3.03069
G1 X36.809 Y85.387 E0.01400
G1 X105.550 Y154.128 E3.05001
G1 X106.084 Y154.128 E0.01674
G1 X36.908 Y84.951 E3.06932
G1 X37.006 Y84.516 E0.01400
G1 X106.618 Y154.128 E3.08864
G1 X107.151 Y154.128 E0.01674
G1 X37.104 Y84.081 E3.10795
G1 X37.203 Y83.646 E0.01400
G1 X107.685 Y154.128 E3.12727
G1 X108.219 Y154.128 E0.01674
G1 X37.301 Y83.210 E3.14658
G1 X37.399 Y82.775 E0.01400
G1 X108.752 Y154.128 E3.16590
G1 X109.286 Y154.128 E0.01674
G1 X37.498 Y82.340 E3.18521
G1 X37.596 Y81.904 E0.01400
G1 X109.820 Y154.128 E3.20453
G1 X110.353 Y154.128 E0.01674
G1 X37.694 Y81.469 E3.22384
G1 X37.793 Y81.034 E0.01400
G1 X110.887 Y154.128 E3.24316
G1 X111.421 Y154.128 E0.01674
G1 X37.891 Y80.599 E3.26247
G1 X37.989 Y80.163 E0.01400
G1 X111.954 Y154.128 E3.28179
G1 X112.488 Y154.128 E0.01674
G1 X38.086 Y79.726 E3.30118
G1 X38.182 Y79.289 E0.01406
G1 X113.022 Y154.128 E3.32060
G1 X113.555 Y154.128 E0.01674
G1 X38.278 Y78.851 E3.34002
G1 X38.374 Y78.413 E0.01406
G1 X114.089 Y154.128 E3.35944
G1 X114.623 Y154.128 E0.01674
G1 X38.470 Y77.976 E3.37886
G1 X38.566 Y77.538 E0.01406
G1 X115.156 Y154.128 E3.39828
G1 X115.690 Y154.129 E0.01674
G1 X38.662 Y77.101 E3.41770
G1 X38.758 Y76.663 E0.01406
G1 X116.223 Y154.129 E3.43712
G1 X116.757 Y154.129 E0.01674
G1 X38.854 Y76.225 E3.45654
G1 X38.950 Y75.788 E0.01406
G1 X117.291 Y154.129 E3.47596
G1 X117.824 Y154.129 E0.01674
G1 X39.046 Y75.350 E3.49538
G1 X39.142 Y74.912 E0.01406
G1 X118.358 Y154.129 E3.51480
G1 X118.892 Y154.129 E0.01674
G1 X39.238 Y74.475 E3.53422
G1 X39.334 Y74.037 E0.01406
G1 X119.425 Y154.129 E3.55364
G1 X119.959 Y154.129 E0.01674
G1 X39.430 Y73.600 E3.57306
G1 X39.526 Y73.162 E0.01406
G1 X120.493 Y154.129 E3.59248
G1 X121.026 Y154.129 E0.01674
G1 X39.622 Y72.724 E3.61189
G1 X39.718 Y72.287 E0.01406
G1 X121.560 Y154.129 E3.63131
G1 X122.094 Y154.129 E0.01674
G1 X39.814 Y71.849 E3.65073
G1 X39.910 Y71.411 E0.01406
G1 X122.627 Y154.129 E3.67015
G1 X123.161 Y154.129 E0.01674
G1 X40.006 Y70.974 E3.68957
G1 X40.102 Y70.536 E0.01406
G1 X123.695 Y154.129 E3.70899
G1 X124.228 Y154.129 E0.01674
G1 X40.197 Y70.098 E3.72841
G1 X40.293 Y69.661 E0.01406
G1 X124.762 Y154.129 E3.74783
G1 X125.296 Y154.129 E0.01674
G1 X40.389 Y69.223 E3.76725
G1 X40.485 Y68.786 E0.01406
G1 X125.829 Y154.129 E3.78667
G1 X126.363 Y154.129 E0.01674
G1 X40.581 Y68.348 E3.80609
G1 X40.677 Y67.910 E0.01406
G1 X126.897 Y154.129 E3.82551
G1 X127.430 Y154.130 E0.01674
G1 X40.776 Y67.475 E3.84481
G1 X40.882 Y67.048 E0.01383
G1 X127.964 Y154.130 E3.86379
G1 X128.498 Y154.130 E0.01674
G1 X40.988 Y66.620 E3.88278
G1 X41.093 Y66.192 E0.01383
G1 X129.031 Y154.130 E3.90176
G1 X129.565 Y154.130 E0.01674
G1 X41.199 Y65.764 E3.92074
G1 X41.305 Y65.336 E0.01383
