; generated by Slic3r Prusa Edition 1.40.0+ on 2018-07-12 at 13:23:59

; 

; external perimeters extrusion width = 0.45mm
; perimeters extrusion width = 0.45mm
; infill extrusion width = 0.45mm
; solid infill extrusion width = 0.45mm
; top infill extrusion width = 0.40mm
; first layer extrusion width = 0.42mm

M107
M115 U3.2.1 ; tell printer latest fw version
M201 X1000 Y1000 Z200 E5000 ; sets maximum accelerations, mm/sec^2
M203 X200 Y200 Z12 E120 ; sets maximum feedrates, mm/sec
M204 S1250 T1250 ; sets acceleration (S) and retract acceleration (T)
M205 X10 Y10 Z0.4 E2.5 ; sets the jerk limits, mm/sec
M205 S0 T0 ; sets the minimum extruding and travel feed rate, mm/sec
M83  ; extruder relative mode
M104 S215 ; set extruder temp
M140 S60 ; set bed temp
M190 S60 ; wait for bed temp
M109 S215 ; wait for extruder temp
G28 W ; home all without mesh bed level
G80 ; mesh bed leveling
G1 Y-3.0 F1000.0 ; go outside print area
G92 E0.0
G1 X60.0 E9.0  F1000.0 ; intro line
G1 X100.0 E12.5  F1000.0 ; intro line
G92 E0.0
M221 S95
M900 K30; Filament gcode
G21 ; set units to millimeters
G90 ; use absolute coordinates
M83 ; use relative distances for extrusion
;BEFORE_LAYER_CHANGE
G92 E0.0
;0.2


G1 E-0.80000 F2100.00000
G1 Z0.600 F10800.000
;AFTER_LAYER_CHANGE
;0.2
G1 X11.913 Y53.873
G1 Z0.200
G1 E0.80000 F2100.00000
M204 S1000
G1 F1800
G1 X12.533 Y53.202 E0.02867
G1 X13.328 Y52.852 E0.02721
G1 X14.370 Y52.802 E0.03270
G1 X236.209 Y52.822 E6.95563
G1 X236.681 Y52.874 E0.01487
G1 X237.133 Y53.028 E0.01498
G1 X237.640 Y53.357 E0.01896
G1 X238.038 Y53.813 E0.01896
G1 X238.295 Y54.360 E0.01896
G1 X238.394 Y54.961 E0.01908
G1 X238.295 Y65.317 E0.32474
G1 X237.884 Y85.839 E0.64358
G1 X236.669 Y124.441 E1.21093
G1 X234.691 Y155.159 E0.96514
G1 X234.489 Y155.940 E0.02529
G1 X234.151 Y156.455 E0.01930
G1 X233.687 Y156.853 E0.01919
G1 X233.127 Y157.109 E0.01930
G1 X232.518 Y157.198 E0.01930
G1 X16.521 Y157.179 E6.77241
G1 X16.050 Y157.127 E0.01487
G1 X15.598 Y156.973 E0.01498
G1 X15.127 Y156.674 E0.01749
G1 X14.747 Y156.266 E0.01749
G1 X14.482 Y155.775 E0.01749
G1 X14.350 Y155.230 E0.01760
G1 X13.370 Y136.647 E0.58345
G1 X12.182 Y108.450 E0.88488
G1 X11.708 Y75.441 E1.03508
G1 X11.607 Y65.200 E0.32111
G1 X11.621 Y54.735 E0.32813
G1 X11.893 Y53.930 E0.02667
G1 F8640
G1 X12.533 Y53.202 E-0.22382
G1 X13.328 Y52.852 E-0.20036
G1 X14.370 Y52.802 E-0.24085
G1 X14.781 Y52.802 E-0.09497
G1 E-0.04000 F2100.00000
G1 Z0.800 F10800.000
G1 X14.382 Y55.577
G1 Z0.200
G1 E0.80000 F2100.00000
G1 F1800
G1 X235.613 Y55.597 E6.93655
G1 X235.520 Y65.272 E0.30337
G1 X235.292 Y75.553 E0.32242
G1 X235.110 Y85.769 E0.32037
G1 X234.752 Y96.098 E0.32405
G1 X234.492 Y106.380 E0.32250
G1 X234.054 Y118.608 E0.38365
G1 X233.954 Y122.756 E0.13008
G1 X233.896 Y124.307 E0.04868
G1 X233.812 Y125.823 E0.04761
G1 X233.700 Y127.246 E0.04475
G1 X233.289 Y131.143 E0.12285
G1 X233.118 Y133.213 E0.06513
G1 X232.987 Y135.559 E0.07369
G1 X232.826 Y139.146 E0.11256
G1 X231.953 Y154.423 E0.47978
G1 X17.082 Y154.404 E6.73713
G1 X16.358 Y140.811 E0.42679
G1 X16.096 Y135.524 E0.16596
G1 X15.054 Y111.181 E0.76398
G1 X14.973 Y108.942 E0.07025
G1 X14.910 Y106.457 E0.07793
G1 X14.764 Y97.550 E0.27930
G1 X14.639 Y85.578 E0.37541
G1 X14.483 Y75.406 E0.31896
G1 X14.383 Y65.187 E0.32043
G1 X14.382 Y55.637 E0.29942
G1 X14.004 Y55.200 F10800.000
G1 F1800
G1 X235.994 Y55.220 E6.96031
G1 X235.897 Y65.278 E0.31538
G1 X235.669 Y75.560 E0.32247
G1 X235.487 Y85.779 E0.32044
G1 X235.128 Y96.109 E0.32410
G1 X234.869 Y106.391 E0.32250
G1 X234.431 Y118.619 E0.38365
G1 X234.331 Y122.767 E0.13009
G1 X234.273 Y124.325 E0.04886
G1 X234.189 Y125.848 E0.04786
G1 X234.076 Y127.281 E0.04504
G1 X233.665 Y131.178 E0.12287
G1 X233.495 Y133.239 E0.06484
G1 X233.363 Y135.578 E0.07347
G1 X233.203 Y139.165 E0.11256
G1 X232.309 Y154.800 E0.49103
G1 X16.724 Y154.781 E6.75951
G1 X15.981 Y140.830 E0.43802
G1 X15.719 Y135.542 E0.16602
G1 X14.677 Y111.196 E0.76405
G1 X14.596 Y108.953 E0.07035
G1 X14.533 Y106.465 E0.07805
G1 X14.387 Y97.555 E0.27939
G1 X14.261 Y85.583 E0.37541
G1 X14.106 Y75.411 E0.31896
G1 X14.006 Y65.189 E0.32052
G1 X14.004 Y55.260 E0.31130
G1 X14.351 Y55.400 F10800.000
G1 F8640
G1 X17.296 Y55.260 E-0.76000
G1 E-0.04000 F2100.00000
G1 Z0.800 F10800.000
G1 X17.953 Y154.290
G1 Z0.200
G1 E0.80000 F2100.00000
G1 F1800
G1 X17.326 Y153.663 E0.02784
G1 X17.296 Y153.099 E0.01771
G1 X18.317 Y154.121 E0.04532
G1 X18.851 Y154.121 E0.01674
G1 X17.266 Y152.536 E0.07033
G1 X17.236 Y151.972 E0.01771
G1 X19.384 Y154.121 E0.09534
G1 X19.918 Y154.121 E0.01674
G1 X17.206 Y151.409 E0.12035
G1 X17.176 Y150.845 E0.01771
G1 X20.452 Y154.121 E0.14536
G1 X20.985 Y154.121 E0.01674
G1 X17.146 Y150.281 E0.17037
G1 X17.116 Y149.718 E0.01771
G1 X21.519 Y154.121 E0.19538
G1 X22.053 Y154.121 E0.01674
G1 X17.086 Y149.154 E0.22039
G1 X17.056 Y148.590 E0.01771
G1 X22.586 Y154.121 E0.24540
G1 X23.120 Y154.121 E0.01674
G1 X17.026 Y148.027 E0.27041
G1 X16.995 Y147.463 E0.01771
G1 X23.654 Y154.121 E0.29542
G1 X24.187 Y154.121 E0.01674
G1 X16.965 Y146.900 E0.32043
G1 X16.935 Y146.336 E0.01771
G1 X24.721 Y154.121 E0.34544
G1 X25.255 Y154.121 E0.01674
G1 X16.905 Y145.772 E0.37045
G1 X16.875 Y145.209 E0.01771
G1 X25.788 Y154.121 E0.39546
G1 X26.322 Y154.122 E0.01674
G1 X16.845 Y144.645 E0.42047
G1 X16.815 Y144.081 E0.01771
G1 X26.856 Y154.122 E0.44548
G1 X27.389 Y154.122 E0.01674
G1 X16.785 Y143.518 E0.47049
G1 X16.755 Y142.954 E0.01771
G1 X27.923 Y154.122 E0.49550
G1 X28.457 Y154.122 E0.01674
G1 X16.725 Y142.391 E0.52051
G1 X16.695 Y141.827 E0.01771
G1 X28.990 Y154.122 E0.54552
G1 X29.524 Y154.122 E0.01674
G1 X16.665 Y141.263 E0.57053
G1 X16.636 Y140.700 E0.01770
G1 X30.058 Y154.122 E0.59552
G1 X30.591 Y154.122 E0.01674
G1 X16.608 Y140.139 E0.62044
G1 X16.580 Y139.577 E0.01764
G1 X31.125 Y154.122 E0.64535
G1 X31.658 Y154.122 E0.01674
G1 X16.552 Y139.016 E0.67026
G1 X16.524 Y138.454 E0.01764
G1 X32.192 Y154.122 E0.69517
G1 X32.726 Y154.122 E0.01674
G1 X16.497 Y137.893 E0.72009
G1 X16.469 Y137.332 E0.01764
G1 X33.259 Y154.122 E0.74500
G1 X33.793 Y154.122 E0.01674
G1 X16.441 Y136.770 E0.76991
G1 X16.413 Y136.209 E0.01764
G1 X34.327 Y154.122 E0.79482
G1 X34.860 Y154.122 E0.01674
G1 X16.385 Y135.647 E0.81973
G1 X16.361 Y135.089 E0.01754
G1 X35.394 Y154.122 E0.84451
G1 X35.928 Y154.122 E0.01674
G1 X16.337 Y134.531 E0.86925
G1 X16.313 Y133.974 E0.01751
G1 X36.461 Y154.122 E0.89399
G1 X36.995 Y154.122 E0.01674
G1 X16.289 Y133.416 E0.91873
G1 X16.265 Y132.859 E0.01751
G1 X37.529 Y154.123 E0.94346
G1 X38.062 Y154.123 E0.01674
G1 X16.241 Y132.301 E0.96820
G1 X16.217 Y131.744 E0.01751
G1 X38.596 Y154.123 E0.99294
G1 X39.130 Y154.123 E0.01674
G1 X16.194 Y131.187 E1.01767
G1 X16.170 Y130.629 E0.01751
G1 X39.663 Y154.123 E1.04241
G1 X40.197 Y154.123 E0.01674
G1 X16.146 Y130.072 E1.06715
G1 X16.122 Y129.514 E0.01751
G1 X40.731 Y154.123 E1.09189
G1 X41.264 Y154.123 E0.01674
G1 X16.098 Y128.957 E1.11662
G1 X16.074 Y128.399 E0.01751
G1 X41.798 Y154.123 E1.14136
G1 X42.332 Y154.123 E0.01674
G1 X16.050 Y127.842 E1.16610
G1 X16.026 Y127.284 E0.01751
G1 X42.865 Y154.123 E1.19083
G1 X43.399 Y154.123 E0.01674
G1 X16.003 Y126.727 E1.21557
G1 X15.979 Y126.169 E0.01751
G1 X43.933 Y154.123 E1.24031
G1 X44.466 Y154.123 E0.01674
G1 X15.955 Y125.612 E1.26505
G1 X15.931 Y125.054 E0.01751
G1 X45.000 Y154.123 E1.28978
G1 X45.534 Y154.123 E0.01674
G1 X15.907 Y124.497 E1.31452
G1 X15.883 Y123.939 E0.01751
G1 X46.067 Y154.123 E1.33926
G1 X46.601 Y154.123 E0.01674
G1 X15.859 Y123.382 E1.36399
G1 X15.836 Y122.824 E0.01751
G1 X47.135 Y154.123 E1.38873
G1 X47.668 Y154.123 E0.01674
G1 X15.812 Y122.267 E1.41347
G1 X15.788 Y121.709 E0.01751
G1 X48.202 Y154.123 E1.43821
G1 X48.736 Y154.124 E0.01674
G1 X15.764 Y121.152 E1.46294
G1 X15.740 Y120.594 E0.01751
G1 X49.269 Y154.124 E1.48768
G1 X49.803 Y154.124 E0.01674
G1 X15.716 Y120.037 E1.51242
G1 X15.692 Y119.480 E0.01751
G1 X50.336 Y154.124 E1.53716
G1 X50.870 Y154.124 E0.01674
G1 X15.668 Y118.922 E1.56189
G1 X15.645 Y118.365 E0.01751
G1 X51.404 Y154.124 E1.58663
G1 X51.937 Y154.124 E0.01674
G1 X15.621 Y117.807 E1.61137
G1 X15.597 Y117.250 E0.01751
G1 X52.471 Y154.124 E1.63610
G1 X53.005 Y154.124 E0.01674
G1 X15.573 Y116.692 E1.66084
G1 X15.549 Y116.135 E0.01751
G1 X53.538 Y154.124 E1.68558
G1 X54.072 Y154.124 E0.01674
G1 X15.525 Y115.577 E1.71032
G1 X15.501 Y115.020 E0.01751
G1 X54.606 Y154.124 E1.73505
G1 X55.139 Y154.124 E0.01674
G1 X15.478 Y114.462 E1.75979
G1 X15.454 Y113.905 E0.01751
G1 X55.673 Y154.124 E1.78453
G1 X56.207 Y154.124 E0.01674
G1 X15.430 Y113.347 E1.80926
G1 X15.406 Y112.790 E0.01751
G1 X56.740 Y154.124 E1.83400
G1 X57.274 Y154.124 E0.01674
G1 X15.382 Y112.232 E1.85874
G1 X15.358 Y111.675 E0.01751
G1 X57.808 Y154.124 E1.88348
G1 X58.341 Y154.124 E0.01674
G1 X15.335 Y111.118 E1.90820
G1 X15.315 Y110.564 E0.01738
G1 X58.875 Y154.124 E1.93276
G1 X59.409 Y154.124 E0.01674
G1 X15.295 Y110.010 E1.95733
G1 X15.275 Y109.457 E0.01738
G1 X59.942 Y154.125 E1.98190
G1 X60.476 Y154.125 E0.01674
G1 X15.255 Y108.903 E2.00645
G1 X15.241 Y108.356 E0.01718
G1 X61.010 Y154.125 E2.03075
G1 X61.543 Y154.125 E0.01674
G1 X15.227 Y107.809 E2.05504
G1 X15.213 Y107.261 E0.01718
G1 X62.077 Y154.125 E2.07933
G1 X62.611 Y154.125 E0.01674
G1 X15.199 Y106.714 E2.10363
G1 X15.188 Y106.169 E0.01710
G1 X63.144 Y154.125 E2.12780
G1 X63.678 Y154.125 E0.01674
G1 X15.179 Y105.626 E2.15188
G1 X15.170 Y105.084 E0.01702
G1 X64.212 Y154.125 E2.17595
G1 X64.745 Y154.125 E0.01674
G1 X15.161 Y104.541 E2.20002
G1 X15.153 Y103.999 E0.01702
G1 X65.279 Y154.125 E2.22409
G1 X65.813 Y154.125 E0.01674
G1 X15.144 Y103.456 E2.24817
G1 X15.135 Y102.914 E0.01702
G1 X66.346 Y154.125 E2.27224
G1 X66.880 Y154.125 E0.01674
G1 X15.126 Y102.371 E2.29631
G1 X15.117 Y101.829 E0.01702
G1 X67.414 Y154.125 E2.32038
G1 X67.947 Y154.125 E0.01674
G1 X15.108 Y101.286 E2.34445
G1 X15.099 Y100.744 E0.01702
G1 X68.481 Y154.125 E2.36853
G1 X69.014 Y154.125 E0.01674
G1 X15.090 Y100.201 E2.39260
G1 X15.082 Y99.659 E0.01702
G1 X69.548 Y154.125 E2.41667
G1 X70.082 Y154.125 E0.01674
G1 X15.073 Y99.116 E2.44074
G1 X15.064 Y98.574 E0.01702
G1 X70.615 Y154.125 E2.46482
G1 X71.149 Y154.126 E0.01674
G1 X15.055 Y98.031 E2.48889
G1 X15.046 Y97.489 E0.01701
G1 X71.683 Y154.126 E2.51295
G1 X72.216 Y154.126 E0.01674
G1 X15.041 Y96.950 E2.53687
G1 X15.035 Y96.411 E0.01692
G1 X72.750 Y154.126 E2.56080
G1 X73.284 Y154.126 E0.01674
G1 X15.029 Y95.871 E2.58473
G1 X15.024 Y95.332 E0.01692
G1 X73.817 Y154.126 E2.60866
G1 X74.351 Y154.126 E0.01674
G1 X15.018 Y94.793 E2.63259
G1 X15.012 Y94.254 E0.01692
G1 X74.885 Y154.126 E2.65652
G1 X75.418 Y154.126 E0.01674
G1 X15.007 Y93.714 E2.68045
G1 X15.001 Y93.175 E0.01692
G1 X75.952 Y154.126 E2.70438
G1 X76.486 Y154.126 E0.01674
G1 X14.995 Y92.636 E2.72831
G1 X14.990 Y92.096 E0.01692
G1 X77.019 Y154.126 E2.75224
G1 X77.553 Y154.126 E0.01674
G1 X14.984 Y91.557 E2.77617
G1 X14.978 Y91.018 E0.01692
G1 X78.087 Y154.126 E2.80010
G1 X78.620 Y154.126 E0.01674
G1 X14.973 Y90.479 E2.82403
G1 X14.967 Y89.939 E0.01692
G1 X79.154 Y154.126 E2.84796
G1 X79.688 Y154.126 E0.01674
G1 X14.961 Y89.400 E2.87189
G1 X14.956 Y88.861 E0.01692
G1 X80.221 Y154.126 E2.89582
G1 X80.755 Y154.126 E0.01674
G1 X14.950 Y88.322 E2.91975
G1 X14.944 Y87.782 E0.01692
G1 X81.289 Y154.126 E2.94368
G1 X81.822 Y154.126 E0.01674
G1 X14.939 Y87.243 E2.96761
G1 X14.933 Y86.704 E0.01692
G1 X82.356 Y154.127 E2.99153
G1 X82.890 Y154.127 E0.01674
G1 X14.928 Y86.165 E3.01546
G1 X14.922 Y85.625 E0.01692
G1 X83.423 Y154.127 E3.03939
G1 X83.957 Y154.127 E0.01674
G1 X14.914 Y85.084 E3.06343
G1 X14.906 Y84.542 E0.01700
G1 X84.491 Y154.127 E3.08747
G1 X85.024 Y154.127 E0.01674
G1 X14.897 Y84.000 E3.11152
G1 X14.889 Y83.458 E0.01700
G1 X85.558 Y154.127 E3.13556
G1 X86.091 Y154.127 E0.01674
G1 X14.881 Y82.916 E3.15961
G1 X14.872 Y82.374 E0.01700
G1 X86.625 Y154.127 E3.18365
G1 X87.159 Y154.127 E0.01674
G1 X14.864 Y81.832 E3.20770
G1 X14.856 Y81.290 E0.01700
G1 X87.692 Y154.127 E3.23175
G1 X88.226 Y154.127 E0.01674
G1 X14.848 Y80.749 E3.25579
G1 X14.839 Y80.207 E0.01700
G1 X88.760 Y154.127 E3.27984
G1 X89.293 Y154.127 E0.01674
G1 X14.831 Y79.665 E3.30388
G1 X14.823 Y79.123 E0.01700
G1 X89.827 Y154.127 E3.32793
G1 X90.361 Y154.127 E0.01674
G1 X14.815 Y78.581 E3.35197
G1 X14.806 Y78.039 E0.01700
G1 X90.894 Y154.127 E3.37602
G1 X91.428 Y154.127 E0.01674
G1 X14.798 Y77.497 E3.40006
G1 X14.790 Y76.955 E0.01700
G1 X91.962 Y154.127 E3.42411
G1 X92.495 Y154.127 E0.01674
G1 X14.781 Y76.413 E3.44815
G1 X14.773 Y75.872 E0.01700
G1 X93.029 Y154.127 E3.47220
G1 X93.563 Y154.128 E0.01674
G1 X14.765 Y75.330 E3.49623
G1 X14.760 Y74.791 E0.01691
G1 X94.096 Y154.128 E3.52014
G1 X94.630 Y154.128 E0.01674
G1 X14.755 Y74.252 E3.54405
G1 X14.749 Y73.713 E0.01691
G1 X95.164 Y154.128 E3.56797
G1 X95.697 Y154.128 E0.01674
G1 X14.744 Y73.174 E3.59188
G1 X14.739 Y72.636 E0.01691
G1 X96.231 Y154.128 E3.61579
G1 X96.765 Y154.128 E0.01674
G1 X14.734 Y72.097 E3.63971
G1 X14.728 Y71.558 E0.01691
G1 X97.298 Y154.128 E3.66362
G1 X97.832 Y154.128 E0.01674
G1 X14.723 Y71.019 E3.68753
G1 X14.718 Y70.480 E0.01691
G1 X98.366 Y154.128 E3.71145
G1 X98.899 Y154.128 E0.01674
G1 X14.712 Y69.941 E3.73536
G1 X14.707 Y69.402 E0.01691
G1 X99.433 Y154.128 E3.75927
G1 X99.967 Y154.128 E0.01674
G1 X14.702 Y68.863 E3.78319
G1 X14.696 Y68.324 E0.01691
G1 X100.500 Y154.128 E3.80710
G1 X101.034 Y154.128 E0.01674
G1 X14.691 Y67.785 E3.83101
G1 X14.686 Y67.246 E0.01691
G1 X101.568 Y154.128 E3.85493
G1 X102.101 Y154.128 E0.01674
G1 X14.680 Y66.708 E3.87884
G1 X14.675 Y66.169 E0.01691
G1 X102.635 Y154.128 E3.90276
G1 X103.169 Y154.128 E0.01674
G1 X14.670 Y65.630 E3.92667
G1 X14.666 Y65.092 E0.01688
G1 X103.702 Y154.128 E3.95054
G1 X104.236 Y154.128 E0.01674
G1 X14.665 Y64.558 E3.97422
G1 X14.665 Y64.024 E0.01674
G1 X104.769 Y154.129 E3.99790
G1 X105.303 Y154.129 E0.01674
G1 X14.665 Y63.491 E4.02159
G1 X14.665 Y62.957 E0.01674
G1 X105.837 Y154.129 E4.04527
G1 X106.370 Y154.129 E0.01674
G1 X14.665 Y62.423 E4.06895
G1 X14.665 Y61.890 E0.01674
G1 X106.904 Y154.129 E4.09263
G1 X107.438 Y154.129 E0.01674
G1 X14.665 Y61.356 E4.11631
G1 X14.665 Y60.822 E0.01674
G1 X107.971 Y154.129 E4.13999
G1 X108.505 Y154.129 E0.01674
G1 X14.665 Y60.289 E4.16367
G1 X14.665 Y59.755 E0.01674
G1 X109.039 Y154.129 E4.18735
G1 X109.572 Y154.129 E0.01674
G1 X14.665 Y59.221 E4.21103
G1 X14.665 Y58.688 E0.01674
G1 X110.106 Y154.129 E4.23472
G1 X110.640 Y154.129 E0.01674
G1 X14.665 Y58.154 E4.25840
G1 X14.665 Y57.620 E0.01674
G1 X111.173 Y154.129 E4.28208
G1 X111.707 Y154.129 E0.01674
G1 X14.665 Y57.087 E4.30576
G1 X14.664 Y56.553 E0.01674
G1 X112.241 Y154.129 E4.32944
G1 X112.774 Y154.129 E0.01674
G1 X14.664 Y56.019 E4.35312
G1 X14.664 Y55.860 E0.00499
G1 X15.039 Y55.860 E0.01175
G1 X113.308 Y154.129 E4.36018
G1 X113.842 Y154.129 E0.01674
G1 X15.573 Y55.860 E4.36018
G1 X16.106 Y55.860 E0.01674
G1 X114.375 Y154.129 E4.36018
G1 X114.909 Y154.129 E0.01674
G1 X16.640 Y55.860 E4.36018
G1 X17.174 Y55.860 E0.01674
G1 X115.443 Y154.129 E4.36018
G1 X115.976 Y154.129 E0.01674
G1 X17.707 Y55.861 E4.36018
G1 X18.241 Y55.861 E0.01674
G1 X116.510 Y154.130 E4.36018
G1 X117.044 Y154.130 E0.01674
G1 X18.775 Y55.861 E4.36018
G1 X19.308 Y55.861 E0.01674
G1 X117.577 Y154.130 E4.36018
G1 X118.111 Y154.130 E0.01674
G1 X19.842 Y55.861 E4.36018
G1 X20.376 Y55.861 E0.01674
G1 X118.645 Y154.130 E4.36018
G1 X119.178 Y154.130 E0.01674
G1 X20.909 Y55.861 E4.36018
G1 X21.443 Y55.861 E0.01674
G1 X119.712 Y154.130 E4.36018
G1 X120.246 Y154.130 E0.01674
G1 X21.977 Y55.861 E4.36018
G1 X22.510 Y55.861 E0.01674
G1 X120.779 Y154.130 E4.36018
G1 X121.313 Y154.130 E0.01674
G1 X23.044 Y55.861 E4.36018
G1 X23.578 Y55.861 E0.01674
G1 X121.847 Y154.130 E4.36018
G1 X122.380 Y154.130 E0.01674
G1 X24.111 Y55.861 E4.36018
G1 X24.645 Y55.861 E0.01674
G1 X122.914 Y154.130 E4.36018
G1 X123.447 Y154.130 E0.01674
G1 X25.178 Y55.861 E4.36018
G1 X25.712 Y55.861 E0.01674
G1 X123.981 Y154.130 E4.36018
G1 X124.515 Y154.130 E0.01674
G1 X26.246 Y55.861 E4.36018
G1 X26.779 Y55.861 E0.01674
G1 X125.048 Y154.130 E4.36018
G1 X125.582 Y154.130 E0.01674
