; generated by Slic3r Prusa Edition 1.40.0+ on 2018-07-11 at 12:56:21

; 

; external perimeters extrusion width = 0.45mm
; perimeters extrusion width = 0.45mm
; infill extrusion width = 0.45mm
; solid infill extrusion width = 0.45mm
; top infill extrusion width = 0.40mm
; first layer extrusion width = 0.42mm

M107
M115 U3.2.1 ; tell printer latest fw version
M201 X1000 Y1000 Z200 E5000 ; sets maximum accelerations, mm/sec^2
M203 X200 Y200 Z12 E120 ; sets maximum feedrates, mm/sec
M204 S1250 T1250 ; sets acceleration (S) and retract acceleration (T)
M205 X10 Y10 Z0.4 E2.5 ; sets the jerk limits, mm/sec
M205 S0 T0 ; sets the minimum extruding and travel feed rate, mm/sec
M83  ; extruder relative mode
M104 S215 ; set extruder temp
M140 S60 ; set bed temp
M190 S60 ; wait for bed temp
M109 S215 ; wait for extruder temp
G28 W ; home all without mesh bed level
G80 ; mesh bed leveling
G1 Y-3.0 F1000.0 ; go outside print area
G92 E0.0
G1 X60.0 E9.0  F1000.0 ; intro line
G1 X100.0 E12.5  F1000.0 ; intro line
G92 E0.0
M221 S95
M900 K30; Filament gcode
G21 ; set units to millimeters
G90 ; use absolute coordinates
M83 ; use relative distances for extrusion
;BEFORE_LAYER_CHANGE
G92 E0.0
;0.2


G1 E-0.80000 F2100.00000
G1 Z0.600 F10800.000
;AFTER_LAYER_CHANGE
;0.2
G1 X65.051 Y36.519
G1 Z0.200
G1 E0.80000 F2100.00000
M204 S1000
G1 F1800
G1 X65.529 Y35.816 E0.02664
G1 X66.238 Y35.347 E0.02664
G1 X67.072 Y35.184 E0.02664
G1 X67.747 Y35.293 E0.02146
G1 X76.907 Y38.398 E0.30326
G1 X84.743 Y41.199 E0.26089
G1 X103.639 Y48.201 E0.63184
G1 X115.047 Y52.734 E0.38489
G1 X132.495 Y60.530 E0.59920
G1 X136.268 Y62.319 E0.13093
G1 X144.800 Y66.611 E0.29945
G1 X157.189 Y73.288 E0.44127
G1 X164.845 Y77.980 E0.28155
G1 X170.479 Y81.978 E0.21661
G1 X172.047 Y83.220 E0.06271
G1 X175.915 Y86.701 E0.16314
G1 X178.265 Y89.165 E0.10678
G1 X180.701 Y91.979 E0.11669
G1 X182.118 Y94.006 E0.07754
G1 X183.028 Y95.612 E0.05788
G1 X183.899 Y97.532 E0.06613
G1 X184.600 Y99.706 E0.07160
G1 X184.930 Y101.480 E0.05661
G1 X185.147 Y104.237 E0.08668
G1 X185.074 Y106.737 E0.07844
G1 X184.777 Y108.585 E0.05867
G1 X183.973 Y111.526 E0.09560
G1 X182.579 Y115.329 E0.12702
G1 X181.533 Y117.445 E0.07401
G1 X180.224 Y119.435 E0.07467
G1 X179.075 Y120.882 E0.05792
G1 X177.229 Y122.995 E0.08800
G1 X175.599 Y124.730 E0.07461
G1 X174.248 Y126.024 E0.05868
G1 X170.448 Y129.105 E0.15339
G1 X164.677 Y133.298 E0.22364
G1 X156.715 Y138.575 E0.29950
G1 X154.375 Y139.981 E0.08559
G1 X148.897 Y142.908 E0.19474
G1 X136.606 Y148.900 E0.42873
G1 X132.317 Y150.795 E0.14701
G1 X114.011 Y158.148 E0.61856
G1 X99.624 Y163.487 E0.48116
G1 X67.725 Y174.710 E1.06027
G1 X67.216 Y174.809 E0.01623
G1 X66.695 Y174.786 E0.01635
G1 X66.195 Y174.640 E0.01635
G1 X65.746 Y174.381 E0.01623
G1 X65.380 Y174.036 E0.01578
G1 X65.102 Y173.616 E0.01578
G1 X64.928 Y173.144 E0.01578
G1 X64.866 Y172.641 E0.01589
G1 X64.878 Y37.351 E4.24194
G1 X65.039 Y36.578 E0.02476
G1 F8640
G1 X65.529 Y35.816 E-0.20910
G1 X66.238 Y35.347 E-0.19622
G1 X67.072 Y35.184 E-0.19622
G1 X67.747 Y35.293 E-0.15800
G1 X67.749 Y35.294 E-0.00046
G1 E-0.04000 F2100.00000
G1 Z0.800 F10800.000
G1 X67.658 Y38.198
G1 Z0.200
G1 E0.80000 F2100.00000
G1 F1800
G1 X73.445 Y40.125 E0.19124
G1 X83.785 Y43.805 E0.34412
G1 X102.635 Y50.790 E0.63030
G1 X111.434 Y54.259 E0.29655
G1 X113.953 Y55.286 E0.08532
G1 X122.638 Y59.122 E0.29767
G1 X132.584 Y63.626 E0.34235
G1 X135.034 Y64.808 E0.08529
G1 X143.522 Y69.077 E0.29788
G1 X152.637 Y73.937 E0.32390
G1 X155.819 Y75.705 E0.11412
G1 X157.355 Y76.600 E0.05573
G1 X158.738 Y77.437 E0.05069
G1 X163.324 Y80.305 E0.16961
G1 X164.612 Y81.170 E0.04866
G1 X168.820 Y84.206 E0.16270
G1 X169.354 Y84.609 E0.02095
G1 X170.229 Y85.320 E0.03535
G1 X172.652 Y87.440 E0.10094
G1 X173.970 Y88.686 E0.05688
G1 X174.671 Y89.393 E0.03122
G1 X176.206 Y91.032 E0.07041
G1 X177.273 Y92.222 E0.05012
G1 X178.080 Y93.161 E0.03883
G1 X178.924 Y94.230 E0.04269
G1 X179.277 Y94.730 E0.01919
G1 X179.771 Y95.494 E0.02854
G1 X180.275 Y96.358 E0.03136
G1 X180.820 Y97.414 E0.03726
G1 X181.307 Y98.535 E0.03833
G1 X181.556 Y99.225 E0.02298
G1 X181.849 Y100.178 E0.03127
G1 X182.047 Y101.023 E0.02722
G1 X182.171 Y101.818 E0.02522
G1 X182.311 Y103.235 E0.04464
G1 X182.367 Y104.296 E0.03330
G1 X182.372 Y105.395 E0.03448
G1 X182.304 Y106.497 E0.03461
G1 X182.241 Y107.012 E0.01626
G1 X182.063 Y107.985 E0.03104
G1 X181.668 Y109.538 E0.05025
G1 X181.329 Y110.669 E0.03701
G1 X180.667 Y112.603 E0.06408
G1 X180.016 Y114.253 E0.05563
G1 X179.505 Y115.358 E0.03817
G1 X179.122 Y116.062 E0.02512
G1 X178.685 Y116.774 E0.02618
G1 X177.991 Y117.780 E0.03835
G1 X177.190 Y118.802 E0.04071
G1 X175.782 Y120.444 E0.06781
G1 X174.427 Y121.937 E0.06321
G1 X173.206 Y123.193 E0.05495
G1 X172.396 Y123.953 E0.03482
G1 X171.662 Y124.575 E0.03015
G1 X170.675 Y125.354 E0.03944
G1 X169.397 Y126.400 E0.05175
G1 X168.107 Y127.387 E0.05094
G1 X166.066 Y128.864 E0.07901
G1 X164.398 Y130.100 E0.06508
G1 X163.117 Y131.000 E0.04909
G1 X160.175 Y132.956 E0.11078
G1 X159.096 Y133.704 E0.04115
G1 X157.481 Y134.728 E0.05997
G1 X155.204 Y136.243 E0.08573
G1 X153.745 Y137.143 E0.05376
G1 X153.022 Y137.555 E0.02607
G1 X148.880 Y139.799 E0.14774
G1 X147.648 Y140.427 E0.04334
G1 X139.718 Y144.273 E0.27634
G1 X135.399 Y146.398 E0.15091
G1 X133.950 Y147.078 E0.05019
G1 X132.611 Y147.668 E0.04589
G1 X131.262 Y148.226 E0.04575
G1 X127.018 Y149.907 E0.14312
G1 X122.340 Y151.811 E0.15839
G1 X112.989 Y155.565 E0.31592
G1 X110.842 Y156.397 E0.07219
G1 X107.830 Y157.523 E0.10085
G1 X98.100 Y161.084 E0.32485
G1 X82.111 Y166.741 E0.53177
G1 X67.646 Y171.797 E0.48046
G1 X67.647 Y157.143 E0.45946
G1 X77.376 Y153.750 E0.32305
G1 X92.994 Y148.226 E0.51943
G1 X101.989 Y144.942 E0.30024
G1 X105.301 Y143.710 E0.11080
G1 X107.494 Y142.870 E0.07362
G1 X116.697 Y139.178 E0.31092
G1 X120.527 Y137.616 E0.12970
G1 X126.897 Y135.074 E0.21502
G1 X128.981 Y134.141 E0.07160
G1 X141.818 Y127.886 E0.44773
G1 X146.207 Y125.523 E0.15629
G1 X147.168 Y124.973 E0.03473
G1 X150.061 Y123.058 E0.10878
G1 X151.517 Y122.132 E0.05410
G1 X153.262 Y120.947 E0.06612
G1 X155.297 Y119.598 E0.07657
G1 X156.166 Y118.991 E0.03323
G1 X158.430 Y117.318 E0.08825
G1 X160.376 Y115.910 E0.07532
G1 X163.078 Y113.737 E0.10872
G1 X163.378 Y113.466 E0.01269
G1 X163.947 Y112.895 E0.02525
G1 X165.087 Y111.666 E0.05258
G1 X166.334 Y110.234 E0.05954
G1 X167.122 Y109.223 E0.04018
G1 X167.501 Y108.329 E0.03046
G1 X167.841 Y107.421 E0.03040
G1 X168.165 Y106.446 E0.03222
G1 X168.553 Y105.068 E0.04489
G1 X168.514 Y104.166 E0.02829
G1 X168.449 Y103.602 E0.01780
G1 X168.276 Y103.231 E0.01284
G1 X167.992 Y102.737 E0.01786
G1 X167.765 Y102.390 E0.01301
G1 X167.510 Y102.072 E0.01277
G1 X166.795 Y101.248 E0.03423
G1 X165.800 Y100.147 E0.04652
G1 X164.798 Y99.080 E0.04589
G1 X164.145 Y98.416 E0.02920
G1 X163.429 Y97.742 E0.03085
G1 X161.174 Y95.778 E0.09374
G1 X160.696 Y95.401 E0.01910
G1 X158.031 Y93.495 E0.10273
G1 X156.888 Y92.654 E0.04449
G1 X155.995 Y92.041 E0.03397
G1 X151.243 Y89.077 E0.17559
G1 X149.900 Y88.270 E0.04912
G1 X148.385 Y87.398 E0.05481
G1 X146.506 Y86.362 E0.06728
G1 X139.395 Y82.558 E0.25286
G1 X136.875 Y81.239 E0.08917
G1 X129.435 Y77.501 E0.26106
G1 X128.398 Y76.987 E0.03631
G1 X126.363 Y76.023 E0.07058
G1 X116.150 Y71.420 E0.35126
G1 X109.873 Y68.638 E0.21527
G1 X107.445 Y67.612 E0.08263
G1 X99.298 Y64.388 E0.27473
G1 X96.022 Y63.141 E0.10989
G1 X79.522 Y57.047 E0.55153
G1 X70.187 Y53.715 E0.31076
G1 X67.656 Y52.859 E0.08376
G1 X67.658 Y38.258 E0.45780
G1 X67.281 Y37.670 F10800.000
G1 F1800
G1 X68.747 Y38.174 E0.04862
G1 X73.567 Y39.769 E0.15918
G1 X83.913 Y43.451 E0.34433
G1 X102.770 Y50.437 E0.63050
G1 X111.574 Y53.909 E0.29675
G1 X114.101 Y54.939 E0.08556
G1 X122.791 Y58.778 E0.29789
G1 X131.502 Y62.715 E0.29971
G1 X132.745 Y63.285 E0.04286
G1 X135.201 Y64.469 E0.08550
G1 X143.695 Y68.742 E0.29812
G1 X152.817 Y73.606 E0.32414
G1 X156.005 Y75.377 E0.11435
G1 X157.547 Y76.275 E0.05596
G1 X158.935 Y77.116 E0.05088
G1 X163.529 Y79.989 E0.16988
G1 X164.828 Y80.861 E0.04905
G1 X169.044 Y83.903 E0.16302
G1 X169.586 Y84.312 E0.02129
G1 X170.472 Y85.032 E0.03578
G1 X172.905 Y87.161 E0.10138
G1 X174.234 Y88.416 E0.05731
G1 X174.942 Y89.132 E0.03158
G1 X176.484 Y90.777 E0.07070
G1 X177.556 Y91.973 E0.05037
G1 X178.372 Y92.921 E0.03920
G1 X179.226 Y94.004 E0.04325
G1 X179.590 Y94.518 E0.01975
G1 X180.093 Y95.297 E0.02906
G1 X180.606 Y96.177 E0.03193
G1 X181.161 Y97.253 E0.03796
G1 X181.658 Y98.396 E0.03910
G1 X181.913 Y99.105 E0.02364
G1 X182.213 Y100.079 E0.03195
G1 X182.417 Y100.951 E0.02807
G1 X182.545 Y101.770 E0.02599
G1 X182.687 Y103.206 E0.04524
G1 X182.744 Y104.285 E0.03386
G1 X182.749 Y105.406 E0.03516
G1 X182.680 Y106.532 E0.03535
G1 X182.613 Y107.069 E0.01696
G1 X182.432 Y108.066 E0.03178
G1 X182.031 Y109.639 E0.05090
G1 X181.688 Y110.784 E0.03749
G1 X181.021 Y112.733 E0.06458
G1 X180.363 Y114.402 E0.05624
G1 X179.842 Y115.527 E0.03889
G1 X179.449 Y116.251 E0.02581
G1 X179.002 Y116.979 E0.02681
G1 X178.295 Y118.004 E0.03903
G1 X177.482 Y119.041 E0.04133
G1 X176.065 Y120.693 E0.06823
G1 X174.702 Y122.195 E0.06358
G1 X173.470 Y123.463 E0.05543
G1 X172.647 Y124.235 E0.03539
G1 X171.901 Y124.867 E0.03066
G1 X170.911 Y125.648 E0.03955
G1 X169.631 Y126.695 E0.05184
G1 X168.332 Y127.690 E0.05129
G1 X166.288 Y129.168 E0.07910
G1 X164.618 Y130.406 E0.06516
G1 X163.329 Y131.311 E0.04939
G1 X160.386 Y133.268 E0.11082
G1 X159.305 Y134.018 E0.04128
G1 X157.686 Y135.045 E0.06009
G1 X155.408 Y136.561 E0.08581
G1 X153.937 Y137.468 E0.05417
G1 X153.206 Y137.884 E0.02640
G1 X149.055 Y140.133 E0.14801
G1 X147.816 Y140.765 E0.04361
G1 X139.883 Y144.612 E0.27643
G1 X135.563 Y146.738 E0.15098
G1 X134.106 Y147.422 E0.05044
G1 X132.759 Y148.014 E0.04616
G1 X131.404 Y148.575 E0.04597
G1 X127.159 Y150.257 E0.14316
G1 X122.481 Y152.161 E0.15836
G1 X113.128 Y155.916 E0.31603
G1 X110.976 Y156.749 E0.07233
G1 X107.960 Y157.877 E0.10096
G1 X98.228 Y161.439 E0.32495
G1 X82.236 Y167.097 E0.53186
G1 X67.269 Y172.328 E0.49714
G1 X67.270 Y156.875 E0.48452
G1 X77.251 Y153.394 E0.33142
G1 X92.867 Y147.872 E0.51935
G1 X101.859 Y144.588 E0.30015
G1 X105.168 Y143.358 E0.11070
G1 X107.356 Y142.519 E0.07347
G1 X116.556 Y138.828 E0.31079
G1 X120.386 Y137.266 E0.12971
G1 X126.750 Y134.727 E0.21482
G1 X128.821 Y133.799 E0.07117
G1 X141.646 Y127.550 E0.44730
G1 X146.024 Y125.194 E0.15590
G1 X146.970 Y124.651 E0.03419
G1 X149.856 Y122.742 E0.10851
G1 X151.310 Y121.817 E0.05403
G1 X153.052 Y120.634 E0.06601
G1 X155.085 Y119.286 E0.07649
G1 X155.946 Y118.685 E0.03293
G1 X158.208 Y117.014 E0.08815
G1 X160.147 Y115.610 E0.07507
G1 X162.834 Y113.450 E0.10807
G1 X163.118 Y113.193 E0.01203
G1 X163.675 Y112.634 E0.02473
G1 X164.806 Y111.414 E0.05218
G1 X166.043 Y109.994 E0.05903
G1 X166.794 Y109.030 E0.03831
G1 X167.151 Y108.189 E0.02866
G1 X167.485 Y107.295 E0.02992
G1 X167.804 Y106.335 E0.03173
G1 X168.174 Y105.024 E0.04272
G1 X168.138 Y104.196 E0.02597
G1 X168.081 Y103.706 E0.01547
G1 X167.941 Y103.405 E0.01041
G1 X167.671 Y102.935 E0.01701
G1 X167.460 Y102.612 E0.01209
G1 X167.221 Y102.314 E0.01197
G1 X166.512 Y101.498 E0.03388
G1 X165.523 Y100.403 E0.04629
G1 X164.526 Y99.341 E0.04565
G1 X163.882 Y98.685 E0.02883
G1 X163.176 Y98.021 E0.03039
G1 X160.933 Y96.069 E0.09323
G1 X160.469 Y95.703 E0.01854
G1 X157.810 Y93.800 E0.10253
G1 X156.669 Y92.961 E0.04437
G1 X155.788 Y92.356 E0.03352
G1 X151.046 Y89.399 E0.17523
G1 X149.709 Y88.595 E0.04892
G1 X148.200 Y87.726 E0.05458
G1 X146.326 Y86.693 E0.06710
G1 X139.218 Y82.891 E0.25274
G1 X136.703 Y81.575 E0.08902
G1 X129.267 Y77.839 E0.26092
G1 X128.233 Y77.327 E0.03617
G1 X126.205 Y76.366 E0.07037
G1 X115.996 Y71.765 E0.35111
G1 X109.723 Y68.984 E0.21514
G1 X107.303 Y67.961 E0.08239
G1 X99.161 Y64.739 E0.27452
G1 X95.890 Y63.494 E0.10975
G1 X79.393 Y57.401 E0.55141
G1 X70.063 Y54.071 E0.31059
G1 X67.279 Y53.130 E0.09215
G1 X67.281 Y37.730 E0.48285
G1 X67.590 Y37.924 F10800.000
G1 F8640
G1 X68.747 Y38.174 E-0.35379
G1 X70.417 Y38.727 E-0.40621
G1 E-0.04000 F2100.00000
G1 Z0.800 F10800.000
G1 X67.770 Y52.320
G1 Z0.200
G1 E0.80000 F2100.00000
G1 F1800
G1 X68.192 Y52.742 E0.01874
G1 X68.999 Y53.015 E0.02676
G1 X67.939 Y51.955 E0.04705
G1 X67.939 Y51.421 E0.01677
G1 X69.806 Y53.288 E0.08289
G1 X70.623 Y53.570 E0.02714
G1 X67.939 Y50.887 E0.11916
G1 X67.939 Y50.353 E0.01677
G1 X71.453 Y53.867 E0.15605
G1 X72.284 Y54.163 E0.02769
G1 X67.940 Y49.819 E0.19293
G1 X67.940 Y49.285 E0.01677
G1 X73.114 Y54.459 E0.22981
G1 X73.945 Y54.756 E0.02769
G1 X67.940 Y48.751 E0.26669
G1 X67.940 Y48.217 E0.01677
G1 X74.775 Y55.052 E0.30358
G1 X75.606 Y55.349 E0.02769
G1 X67.940 Y47.683 E0.34046
G1 X67.940 Y47.149 E0.01677
G1 X76.436 Y55.645 E0.37734
G1 X77.267 Y55.942 E0.02769
G1 X67.940 Y46.615 E0.41422
G1 X67.940 Y46.080 E0.01677
G1 X78.097 Y56.238 E0.45111
G1 X78.928 Y56.534 E0.02769
G1 X67.940 Y45.546 E0.48799
G1 X67.940 Y45.012 E0.01677
G1 X79.761 Y56.834 E0.52500
G1 X80.608 Y57.146 E0.02835
G1 X67.940 Y44.478 E0.56261
G1 X67.940 Y43.944 E0.01677
G1 X81.455 Y57.459 E0.60022
G1 X82.302 Y57.772 E0.02835
G1 X67.940 Y43.410 E0.63783
G1 X67.940 Y42.876 E0.01677
G1 X83.149 Y58.085 E0.67544
G1 X83.996 Y58.398 E0.02835
G1 X67.940 Y42.342 E0.71306
G1 X67.940 Y41.808 E0.01677
G1 X84.843 Y58.710 E0.75067
G1 X85.690 Y59.023 E0.02835
G1 X67.940 Y41.274 E0.78828
G1 X67.940 Y40.740 E0.01677
G1 X86.537 Y59.336 E0.82589
G1 X87.384 Y59.649 E0.02835
G1 X67.940 Y40.206 E0.86350
G1 X67.940 Y39.672 E0.01677
G1 X88.230 Y59.962 E0.90111
G1 X89.077 Y60.275 E0.02835
G1 X67.940 Y39.138 E0.93873
G1 X67.940 Y38.604 E0.01677
G1 X89.924 Y60.587 E0.97634
G1 X90.771 Y60.900 E0.02835
G1 X68.736 Y38.865 E0.97860
G1 X69.535 Y39.130 E0.02641
G1 X91.618 Y61.213 E0.98077
G1 X92.465 Y61.526 E0.02835
G1 X70.333 Y39.394 E0.98293
G1 X71.131 Y39.658 E0.02641
G1 X93.312 Y61.839 E0.98509
G1 X94.159 Y62.152 E0.02835
G1 X71.929 Y39.922 E0.98725
G1 X72.728 Y40.186 E0.02641
G1 X95.006 Y62.464 E0.98941
G1 X95.853 Y62.777 E0.02835
G1 X73.533 Y40.457 E0.99127
G1 X74.362 Y40.752 E0.02764
G1 X96.710 Y63.100 E0.99252
G1 X97.572 Y63.429 E0.02897
G1 X75.191 Y41.047 E0.99399
G1 X76.020 Y41.342 E0.02764
G1 X98.435 Y63.757 E0.99545
G1 X99.297 Y64.085 E0.02897
G1 X76.850 Y41.637 E0.99692
G1 X77.679 Y41.933 E0.02764
G1 X100.178 Y64.432 E0.99923
G1 X101.062 Y64.782 E0.02985
G1 X78.508 Y42.228 E1.00166
G1 X79.337 Y42.523 E0.02764
G1 X101.946 Y65.131 E1.00408
G1 X102.830 Y65.481 E0.02985
G1 X80.167 Y42.818 E1.00651
G1 X80.996 Y43.113 E0.02764
G1 X103.714 Y65.831 E1.00894
G1 X104.598 Y66.181 E0.02985
G1 X81.825 Y43.408 E1.01137
G1 X82.654 Y43.703 E0.02764
G1 X105.481 Y66.531 E1.01379
G1 X106.365 Y66.880 E0.02985
G1 X83.483 Y43.998 E1.01622
G1 X84.327 Y44.308 E0.02822
G1 X107.249 Y67.230 E1.01801
G1 X108.160 Y67.607 E0.03097
G1 X85.176 Y44.622 E1.02079
G1 X86.024 Y44.937 E0.02842
G1 X109.086 Y67.998 E1.02420
G1 X110.012 Y68.391 E0.03159
G1 X86.873 Y45.251 E1.02766
G1 X87.721 Y45.566 E0.02842
G1 X110.971 Y68.816 E1.03258
G1 X111.931 Y69.241 E0.03295
G1 X88.570 Y45.880 E1.03751
G1 X89.418 Y46.194 E0.02842
G1 X112.890 Y69.666 E1.04243
G1 X113.849 Y70.091 E0.03295
G1 X90.267 Y46.509 E1.04735
G1 X91.115 Y46.823 E0.02842
G1 X114.809 Y70.517 E1.05227
G1 X115.768 Y70.942 E0.03295
G1 X91.964 Y47.137 E1.05720
G1 X92.812 Y47.452 E0.02842
G1 X116.734 Y71.373 E1.06240
G1 X117.706 Y71.812 E0.03349
G1 X93.661 Y47.766 E1.06789
G1 X94.509 Y48.081 E0.02842
G1 X118.678 Y72.250 E1.07339
G1 X119.651 Y72.688 E0.03349
G1 X95.357 Y48.395 E1.07889
G1 X96.206 Y48.709 E0.02842
G1 X120.623 Y73.126 E1.08439
G1 X121.595 Y73.564 E0.03349
G1 X97.054 Y49.024 E1.08989
G1 X97.903 Y49.338 E0.02842
G1 X122.567 Y74.003 E1.09539
G1 X123.540 Y74.441 E0.03349
G1 X98.751 Y49.652 E1.10089
G1 X99.600 Y49.967 E0.02842
G1 X124.512 Y74.879 E1.10639
G1 X125.484 Y75.317 E0.03349
G1 X100.448 Y50.281 E1.11189
G1 X101.297 Y50.596 E0.02842
G1 X126.457 Y75.755 E1.11738
G1 X127.471 Y76.235 E0.03523
G1 X102.145 Y50.910 E1.12473
G1 X103.012 Y51.242 E0.02914
G1 X128.859 Y77.090 E1.14793
G1 F8640
G1 X126.532 Y74.762 E-0.76000
G1 E-0.04000 F2100.00000
G1 Z0.800 F10800.000
