; generated by Slic3r Prusa Edition 1.40.0+ on 2018-07-11 at 18:07:22

; 

; external perimeters extrusion width = 0.45mm
; perimeters extrusion width = 0.45mm
; infill extrusion width = 0.45mm
; solid infill extrusion width = 0.45mm
; top infill extrusion width = 0.40mm
; first layer extrusion width = 0.42mm

M107
M115 U3.2.1 ; tell printer latest fw version
M201 X1000 Y1000 Z200 E5000 ; sets maximum accelerations, mm/sec^2
M203 X200 Y200 Z12 E120 ; sets maximum feedrates, mm/sec
M204 S1250 T1250 ; sets acceleration (S) and retract acceleration (T)
M205 X10 Y10 Z0.4 E2.5 ; sets the jerk limits, mm/sec
M205 S0 T0 ; sets the minimum extruding and travel feed rate, mm/sec
M83  ; extruder relative mode
M104 S215 ; set extruder temp
M140 S60 ; set bed temp
M190 S60 ; wait for bed temp
M109 S215 ; wait for extruder temp
G28 W ; home all without mesh bed level
G80 ; mesh bed leveling
G1 Y-3.0 F1000.0 ; go outside print area
G92 E0.0
G1 X60.0 E9.0  F1000.0 ; intro line
G1 X100.0 E12.5  F1000.0 ; intro line
G92 E0.0
M221 S95
M900 K30; Filament gcode
G21 ; set units to millimeters
G90 ; use absolute coordinates
M83 ; use relative distances for extrusion
;BEFORE_LAYER_CHANGE
G92 E0.0
;0.2


G1 E-0.80000 F2100.00000
G1 Z0.600 F10800.000
;AFTER_LAYER_CHANGE
;0.2
G1 X22.614 Y23.007
G1 Z0.200
G1 E0.80000 F2100.00000
M204 S1000
G1 F1800
G1 X23.098 Y22.534 E0.02123
G1 X23.703 Y22.231 E0.02123
G1 X24.373 Y22.128 E0.02123
G1 X229.248 Y26.695 E6.42533
G1 X229.959 Y26.831 E0.02270
G1 X230.587 Y27.193 E0.02270
G1 X230.918 Y27.532 E0.01487
G1 X231.170 Y27.938 E0.01498
G1 X231.327 Y28.385 E0.01487
G1 X231.384 Y28.860 E0.01498
G1 X231.740 Y136.819 E3.38500
G1 X218.609 Y180.723 E1.43684
G1 X218.206 Y181.479 E0.02687
G1 X217.484 Y182.052 E0.02889
G1 X216.587 Y182.278 E0.02900
G1 X38.147 Y187.878 E5.59762
G1 X37.378 Y187.761 E0.02439
G1 X36.696 Y187.381 E0.02451
G1 X36.344 Y187.016 E0.01587
G1 X19.734 Y165.118 E0.86179
G1 X19.527 Y164.364 E0.02451
G1 X18.325 Y149.014 E0.48277
G1 X18.589 Y38.870 E3.45348
G1 X22.299 Y23.603 E0.49264
G1 X22.586 Y23.060 E0.01923
G1 F8640
G1 X23.098 Y22.534 E-0.16958
G1 X23.703 Y22.231 E-0.15634
G1 X24.373 Y22.128 E-0.15634
G1 X25.575 Y22.155 E-0.27774
G1 E-0.04000 F2100.00000
G1 Z0.800 F10800.000
G1 X38.807 Y170.542
G1 Z0.200
G1 E0.80000 F2100.00000
G1 F1800
G1 X44.746 Y170.406 E0.18626
G1 X54.607 Y169.927 E0.30957
G1 X63.914 Y169.357 E0.29234
G1 X67.776 Y169.083 E0.12139
G1 X71.678 Y168.781 E0.12273
G1 X75.464 Y168.522 E0.11898
G1 X85.979 Y167.907 E0.33024
G1 X94.286 Y167.479 E0.26081
G1 X105.594 Y166.953 E0.35495
G1 X117.803 Y166.503 E0.38305
G1 X142.791 Y165.478 E0.78416
G1 X152.557 Y164.972 E0.30661
G1 X154.372 Y164.919 E0.05694
G1 X156.000 Y164.901 E0.05104
G1 X160.250 Y164.929 E0.13326
G1 X166.715 Y164.922 E0.20270
G1 X173.200 Y164.967 E0.20335
G1 X192.278 Y164.889 E0.59818
G1 X195.441 Y164.917 E0.09917
G1 X204.468 Y165.144 E0.28311
G1 X216.058 Y165.302 E0.36343
G1 X215.933 Y179.496 E0.44508
G1 X204.571 Y179.352 E0.35625
G1 X201.021 Y179.284 E0.11133
G1 X194.796 Y179.122 E0.19526
G1 X192.140 Y179.100 E0.08326
G1 X175.014 Y179.191 E0.53698
G1 X164.860 Y179.149 E0.31838
G1 X159.333 Y179.162 E0.17329
G1 X156.108 Y179.141 E0.10113
G1 X153.585 Y179.183 E0.07913
G1 X151.047 Y179.295 E0.07964
G1 X143.405 Y179.711 E0.23999
G1 X122.265 Y180.595 E0.66341
G1 X105.778 Y181.223 E0.51730
G1 X96.113 Y181.686 E0.30340
G1 X84.853 Y182.278 E0.35354
G1 X76.236 Y182.793 E0.27066
G1 X73.386 Y182.987 E0.08954
G1 X66.830 Y183.494 E0.20618
G1 X55.642 Y184.204 E0.35150
G1 X38.679 Y185.072 E0.53258
G1 X38.806 Y170.602 E0.45373
G1 X38.433 Y170.173 F10800.000
G1 F1800
G1 X44.732 Y170.029 E0.19757
G1 X54.587 Y169.550 E0.30935
G1 X63.889 Y168.981 E0.29221
G1 X67.748 Y168.707 E0.12130
G1 X71.651 Y168.405 E0.12274
G1 X75.440 Y168.146 E0.11909
G1 X85.958 Y167.531 E0.33034
G1 X94.267 Y167.102 E0.26088
G1 X105.578 Y166.576 E0.35504
G1 X117.788 Y166.126 E0.38308
G1 X142.774 Y165.102 E0.78407
G1 X152.542 Y164.596 E0.30668
G1 X154.365 Y164.542 E0.05718
G1 X155.999 Y164.523 E0.05126
G1 X160.251 Y164.552 E0.13332
G1 X166.716 Y164.545 E0.20270
G1 X173.201 Y164.590 E0.20333
G1 X192.279 Y164.512 E0.59819
G1 X195.447 Y164.540 E0.09934
G1 X204.475 Y164.767 E0.28314
G1 X216.438 Y164.930 E0.37513
G1 X216.306 Y179.878 E0.46872
G1 X204.565 Y179.729 E0.36816
G1 X201.013 Y179.661 E0.11141
G1 X194.789 Y179.499 E0.19520
G1 X192.140 Y179.477 E0.08308
G1 X175.015 Y179.568 E0.53695
G1 X164.860 Y179.526 E0.31839
G1 X159.333 Y179.540 E0.17331
G1 X156.110 Y179.518 E0.10104
G1 X153.596 Y179.559 E0.07883
G1 X151.066 Y179.672 E0.07941
G1 X143.423 Y180.088 E0.24000
G1 X122.280 Y180.972 E0.66350
G1 X105.794 Y181.600 E0.51726
G1 X96.132 Y182.063 E0.30331
G1 X84.874 Y182.655 E0.35347
G1 X76.260 Y183.169 E0.27057
G1 X73.414 Y183.363 E0.08943
G1 X66.857 Y183.870 E0.20620
G1 X55.664 Y184.581 E0.35166
G1 X38.298 Y185.469 E0.54521
G1 X38.432 Y170.233 E0.47774
G1 X38.823 Y170.259 F10800.000
G1 F8640
G1 X41.722 Y170.127 E-0.76000
G1 E-0.04000 F2100.00000
G1 Z0.800 F10800.000
G1 X39.519 Y184.916
G1 Z0.200
G1 E0.80000 F2100.00000
G1 F1800
G1 X38.968 Y184.365 E0.02450
G1 X38.972 Y183.835 E0.01666
G1 X39.866 Y184.728 E0.03973
G1 X40.374 Y184.702 E0.01601
G1 X38.977 Y183.305 E0.06213
G1 X38.982 Y182.775 E0.01666
G1 X40.883 Y184.676 E0.08454
G1 X41.392 Y184.650 E0.01601
G1 X38.986 Y182.245 E0.10695
G1 X38.991 Y181.715 E0.01666
G1 X41.900 Y184.624 E0.12936
G1 X42.409 Y184.598 E0.01601
G1 X38.996 Y181.185 E0.15176
G1 X39.000 Y180.655 E0.01666
G1 X42.918 Y184.572 E0.17417
G1 X43.426 Y184.546 E0.01601
G1 X39.005 Y180.125 E0.19658
G1 X39.010 Y179.595 E0.01666
G1 X43.935 Y184.520 E0.21898
G1 X44.444 Y184.494 E0.01601
G1 X39.014 Y179.065 E0.24139
G1 X39.019 Y178.535 E0.01666
G1 X44.952 Y184.468 E0.26380
G1 X45.461 Y184.442 E0.01601
G1 X39.024 Y178.005 E0.28621
G1 X39.028 Y177.475 E0.01666
G1 X45.970 Y184.416 E0.30861
G1 X46.478 Y184.390 E0.01601
G1 X39.033 Y176.945 E0.33102
G1 X39.038 Y176.415 E0.01666
G1 X46.987 Y184.364 E0.35343
G1 X47.496 Y184.338 E0.01601
G1 X39.042 Y175.885 E0.37584
G1 X39.047 Y175.355 E0.01666
G1 X48.004 Y184.312 E0.39824
G1 X48.513 Y184.286 E0.01601
G1 X39.052 Y174.825 E0.42065
G1 X39.056 Y174.295 E0.01666
G1 X49.022 Y184.260 E0.44306
G1 X49.530 Y184.234 E0.01601
G1 X39.061 Y173.764 E0.46547
G1 X39.066 Y173.234 E0.01666
G1 X50.039 Y184.208 E0.48787
G1 X50.548 Y184.182 E0.01601
G1 X39.070 Y172.704 E0.51028
G1 X39.075 Y172.174 E0.01666
G1 X51.056 Y184.156 E0.53269
G1 X51.565 Y184.130 E0.01601
G1 X39.080 Y171.644 E0.55510
G1 X39.084 Y171.114 E0.01666
G1 X52.074 Y184.104 E0.57750
G1 X52.582 Y184.078 E0.01601
G1 X39.318 Y170.813 E0.58975
G1 X39.840 Y170.801 E0.01644
G1 X53.091 Y184.052 E0.58912
G1 X53.600 Y184.026 E0.01601
G1 X40.363 Y170.789 E0.58850
G1 X40.886 Y170.777 E0.01644
G1 X54.108 Y183.999 E0.58787
G1 X54.617 Y183.973 E0.01601
G1 X41.408 Y170.765 E0.58725
G1 X41.931 Y170.753 E0.01644
G1 X55.126 Y183.947 E0.58662
G1 X55.634 Y183.921 E0.01601
G1 X42.454 Y170.741 E0.58599
G1 X42.977 Y170.729 E0.01644
G1 X56.137 Y183.889 E0.58510
G1 X56.640 Y183.857 E0.01584
G1 X43.499 Y170.717 E0.58421
G1 X44.022 Y170.705 E0.01644
G1 X57.142 Y183.826 E0.58333
G1 X57.645 Y183.794 E0.01584
G1 X44.545 Y170.693 E0.58244
G1 X45.060 Y170.674 E0.01621
G1 X58.148 Y183.762 E0.58189
G1 X58.651 Y183.730 E0.01584
G1 X45.570 Y170.649 E0.58157
G1 X46.080 Y170.624 E0.01605
G1 X59.154 Y183.698 E0.58126
G1 X59.656 Y183.666 E0.01584
G1 X46.590 Y170.599 E0.58094
G1 X47.100 Y170.575 E0.01605
G1 X60.159 Y183.634 E0.58062
G1 X60.662 Y183.602 E0.01584
G1 X47.610 Y170.550 E0.58030
G1 X48.120 Y170.525 E0.01605
G1 X61.165 Y183.570 E0.57999
G1 X61.667 Y183.538 E0.01584
G1 X48.630 Y170.500 E0.57967
G1 X49.139 Y170.476 E0.01605
G1 X62.170 Y183.506 E0.57935
G1 X62.673 Y183.475 E0.01584
G1 X49.649 Y170.451 E0.57903
G1 X50.159 Y170.426 E0.01605
G1 X63.176 Y183.443 E0.57871
G1 X63.679 Y183.411 E0.01584
G1 X50.669 Y170.401 E0.57840
G1 X51.179 Y170.377 E0.01605
G1 X64.181 Y183.379 E0.57808
G1 X64.684 Y183.347 E0.01584
G1 X51.689 Y170.352 E0.57776
G1 X52.199 Y170.327 E0.01605
G1 X65.187 Y183.315 E0.57744
G1 X65.690 Y183.283 E0.01584
G1 X52.709 Y170.302 E0.57712
G1 X53.219 Y170.278 E0.01605
G1 X66.193 Y183.251 E0.57681
G1 X66.695 Y183.219 E0.01584
G1 X53.729 Y170.253 E0.57649
G1 X54.239 Y170.228 E0.01605
G1 X67.193 Y183.182 E0.57595
G1 X67.689 Y183.144 E0.01565
G1 X54.747 Y170.202 E0.57541
G1 X55.251 Y170.171 E0.01587
G1 X68.186 Y183.106 E0.57508
G1 X68.682 Y183.067 E0.01565
G1 X55.755 Y170.140 E0.57474
G1 X56.259 Y170.109 E0.01587
G1 X69.178 Y183.029 E0.57441
G1 X69.675 Y182.990 E0.01565
G1 X56.763 Y170.078 E0.57407
G1 X57.266 Y170.047 E0.01587
G1 X70.171 Y182.952 E0.57374
G1 X70.667 Y182.914 E0.01565
G1 X57.770 Y170.017 E0.57340
G1 X58.274 Y169.986 E0.01587
G1 X71.164 Y182.875 E0.57307
G1 X71.660 Y182.837 E0.01565
G1 X58.778 Y169.955 E0.57274
G1 X59.282 Y169.924 E0.01587
G1 X72.156 Y182.798 E0.57240
G1 X72.652 Y182.760 E0.01565
G1 X59.785 Y169.893 E0.57207
G1 X60.289 Y169.862 E0.01587
G1 X73.149 Y182.722 E0.57173
G1 X73.648 Y182.686 E0.01572
G1 X60.793 Y169.831 E0.57151
G1 X61.297 Y169.800 E0.01587
G1 X74.148 Y182.652 E0.57137
G1 X74.649 Y182.618 E0.01578
G1 X61.801 Y169.770 E0.57122
G1 X62.305 Y169.739 E0.01587
G1 X75.149 Y182.584 E0.57108
G1 X75.650 Y182.550 E0.01578
G1 X62.808 Y169.708 E0.57094
G1 X63.312 Y169.677 E0.01587
G1 X76.151 Y182.515 E0.57080
G1 X76.655 Y182.485 E0.01587
G1 X63.816 Y169.646 E0.57081
G1 X64.316 Y169.612 E0.01577
G1 X77.159 Y182.455 E0.57099
G1 X77.664 Y182.425 E0.01589
G1 X64.816 Y169.576 E0.57123
G1 X65.315 Y169.541 E0.01574
G1 X78.168 Y182.394 E0.57146
G1 X78.673 Y182.364 E0.01589
G1 X65.814 Y169.506 E0.57169
G1 X66.314 Y169.470 E0.01574
G1 X79.177 Y182.334 E0.57192
G1 X79.682 Y182.304 E0.01589
G1 X66.813 Y169.435 E0.57215
G1 X67.312 Y169.400 E0.01574
G1 X80.187 Y182.274 E0.57238
G1 X80.691 Y182.244 E0.01589
G1 X67.812 Y169.364 E0.57262
G1 X68.308 Y169.326 E0.01565
G1 X81.196 Y182.213 E0.57299
G1 X81.700 Y182.183 E0.01589
G1 X68.804 Y169.287 E0.57335
G1 X69.301 Y169.249 E0.01565
G1 X82.205 Y182.153 E0.57372
G1 X82.709 Y182.123 E0.01589
G1 X69.797 Y169.210 E0.57409
G1 X70.293 Y169.172 E0.01565
G1 X83.214 Y182.093 E0.57446
G1 X83.718 Y182.063 E0.01589
G1 X70.789 Y169.134 E0.57483
G1 X71.286 Y169.095 E0.01565
G1 X84.223 Y182.033 E0.57520
G1 X84.727 Y182.002 E0.01589
G1 X71.783 Y169.057 E0.57553
G1 X72.283 Y169.023 E0.01577
G1 X85.235 Y181.975 E0.57583
G1 X85.743 Y181.948 E0.01599
G1 X72.783 Y168.989 E0.57616
G1 X73.284 Y168.955 E0.01577
G1 X86.251 Y181.921 E0.57650
G1 X86.759 Y181.895 E0.01599
G1 X73.784 Y168.921 E0.57683
G1 X74.285 Y168.886 E0.01577
G1 X87.267 Y181.868 E0.57716
G1 X87.775 Y181.841 E0.01599
G1 X74.785 Y168.852 E0.57750
G1 X75.286 Y168.818 E0.01577
G1 X88.283 Y181.815 E0.57783
G1 X88.791 Y181.788 E0.01599
G1 X75.789 Y168.787 E0.57804
G1 X76.294 Y168.757 E0.01591
G1 X89.299 Y181.761 E0.57816
G1 X89.806 Y181.734 E0.01599
G1 X76.800 Y168.728 E0.57829
G1 X77.305 Y168.698 E0.01591
G1 X90.314 Y181.708 E0.57842
G1 X90.822 Y181.681 E0.01599
G1 X77.810 Y168.668 E0.57854
G1 X78.315 Y168.639 E0.01591
G1 X91.330 Y181.654 E0.57867
G1 X91.838 Y181.628 E0.01599
G1 X78.820 Y168.609 E0.57879
G1 X79.325 Y168.580 E0.01591
G1 X92.346 Y181.601 E0.57892
G1 X92.854 Y181.574 E0.01599
G1 X79.830 Y168.550 E0.57904
G1 X80.336 Y168.521 E0.01591
G1 X93.362 Y181.547 E0.57917
G1 X93.870 Y181.521 E0.01599
G1 X80.841 Y168.491 E0.57930
G1 X81.346 Y168.462 E0.01591
G1 X94.378 Y181.494 E0.57942
G1 X94.886 Y181.467 E0.01599
G1 X81.851 Y168.432 E0.57955
G1 X82.356 Y168.402 E0.01591
G1 X95.394 Y181.441 E0.57967
G1 X95.902 Y181.414 E0.01599
G1 X82.861 Y168.373 E0.57980
G1 X83.366 Y168.343 E0.01591
G1 X96.412 Y181.389 E0.57999
G1 X96.922 Y181.364 E0.01606
G1 X83.872 Y168.314 E0.58021
G1 X84.377 Y168.284 E0.01591
G1 X97.432 Y181.340 E0.58044
G1 X97.942 Y181.315 E0.01606
G1 X84.882 Y168.255 E0.58067
G1 X85.387 Y168.225 E0.01591
G1 X98.453 Y181.291 E0.58089
G1 X98.963 Y181.266 E0.01606
G1 X85.892 Y168.196 E0.58112
G1 X86.400 Y168.169 E0.01599
G1 X99.473 Y181.242 E0.58123
G1 X99.983 Y181.217 E0.01606
G1 X86.908 Y168.143 E0.58131
G1 X87.417 Y168.116 E0.01601
G1 X100.494 Y181.193 E0.58139
G1 X101.004 Y181.168 E0.01606
G1 X87.925 Y168.090 E0.58146
G1 X88.434 Y168.064 E0.01601
G1 X101.514 Y181.144 E0.58154
G1 X102.024 Y181.120 E0.01606
G1 X88.942 Y168.038 E0.58162
G1 X89.451 Y168.011 E0.01601
G1 X102.534 Y181.095 E0.58170
G1 X103.045 Y181.071 E0.01606
G1 X89.959 Y167.985 E0.58178
G1 X90.468 Y167.959 E0.01601
G1 X103.555 Y181.046 E0.58186
G1 X104.065 Y181.022 E0.01606
G1 X90.976 Y167.933 E0.58193
G1 X91.485 Y167.907 E0.01601
G1 X104.575 Y180.997 E0.58201
G1 X105.086 Y180.973 E0.01606
G1 X91.993 Y167.880 E0.58209
G1 X92.502 Y167.854 E0.01601
G1 X105.596 Y180.948 E0.58217
G1 X106.109 Y180.927 E0.01616
G1 X93.010 Y167.828 E0.58239
G1 X93.519 Y167.802 E0.01601
G1 X106.625 Y180.908 E0.58269
G1 X107.140 Y180.888 E0.01621
G1 X94.027 Y167.776 E0.58298
G1 X94.537 Y167.750 E0.01604
G1 X107.655 Y180.868 E0.58322
G1 X108.170 Y180.849 E0.01621
G1 X95.048 Y167.727 E0.58341
G1 X95.559 Y167.703 E0.01608
G1 X108.685 Y180.829 E0.58360
G1 X109.200 Y180.810 E0.01621
G1 X96.070 Y167.679 E0.58378
G1 X96.580 Y167.655 E0.01608
G1 X109.715 Y180.790 E0.58397
G1 X110.230 Y180.770 E0.01621
G1 X97.091 Y167.632 E0.58415
G1 X97.602 Y167.608 E0.01608
G1 X110.745 Y180.751 E0.58434
G1 X111.260 Y180.731 E0.01621
G1 X98.113 Y167.584 E0.58452
G1 X98.624 Y167.560 E0.01608
G1 X111.775 Y180.712 E0.58471
G1 X112.291 Y180.692 E0.01621
G1 X99.135 Y167.536 E0.58489
G1 X99.646 Y167.513 E0.01608
G1 X112.806 Y180.672 E0.58508
G1 X113.321 Y180.653 E0.01621
G1 X100.157 Y167.489 E0.58526
G1 X100.668 Y167.465 E0.01608
G1 X113.836 Y180.633 E0.58545
G1 X114.351 Y180.614 E0.01621
G1 X101.179 Y167.441 E0.58564
G1 X101.690 Y167.418 E0.01608
G1 X114.866 Y180.594 E0.58582
G1 X115.381 Y180.574 E0.01621
G1 X102.201 Y167.394 E0.58601
G1 X102.711 Y167.370 E0.01608
G1 X115.896 Y180.555 E0.58619
G1 X116.411 Y180.535 E0.01621
G1 X103.222 Y167.346 E0.58638
G1 X103.733 Y167.323 E0.01608
G1 X116.926 Y180.516 E0.58656
G1 X117.441 Y180.496 E0.01621
G1 X104.244 Y167.299 E0.58675
G1 X104.755 Y167.275 E0.01608
G1 X117.957 Y180.476 E0.58693
G1 X118.472 Y180.457 E0.01621
G1 X105.266 Y167.251 E0.58712
G1 X105.779 Y167.229 E0.01613
G1 X118.987 Y180.437 E0.58723
G1 X119.502 Y180.418 E0.01621
G1 X106.294 Y167.210 E0.58721
G1 X106.810 Y167.191 E0.01622
G1 X120.017 Y180.398 E0.58718
G1 X120.532 Y180.378 E0.01621
G1 X107.326 Y167.172 E0.58715
G1 X107.841 Y167.153 E0.01622
G1 X121.047 Y180.359 E0.58713
G1 X121.562 Y180.339 E0.01621
G1 X108.357 Y167.134 E0.58710
G1 X108.873 Y167.115 E0.01622
G1 X122.077 Y180.320 E0.58707
G1 X122.591 Y180.299 E0.01617
G1 X109.389 Y167.096 E0.58699
G1 X109.904 Y167.077 E0.01622
G1 X123.104 Y180.277 E0.58688
G1 X123.618 Y180.256 E0.01615
G1 X110.420 Y167.058 E0.58677
G1 X110.936 Y167.039 E0.01622
G1 X124.131 Y180.234 E0.58666
G1 X124.644 Y180.213 E0.01615
G1 X111.451 Y167.020 E0.58655
G1 X111.967 Y167.001 E0.01622
G1 X125.157 Y180.191 E0.58644
G1 X125.671 Y180.170 E0.01615
G1 X112.483 Y166.982 E0.58633
G1 X112.998 Y166.963 E0.01622
G1 X126.184 Y180.148 E0.58622
G1 X126.697 Y180.127 E0.01615
G1 X113.514 Y166.944 E0.58611
G1 X114.030 Y166.925 E0.01622
G1 X127.210 Y180.106 E0.58600
G1 X127.723 Y180.084 E0.01615
G1 X114.546 Y166.906 E0.58589
G1 X115.061 Y166.887 E0.01622
G1 X128.237 Y180.063 E0.58578
G1 X128.750 Y180.041 E0.01615
G1 X115.577 Y166.868 E0.58567
G1 X116.093 Y166.849 E0.01622
G1 X129.263 Y180.020 E0.58556
G1 X129.776 Y179.998 E0.01615
G1 X116.608 Y166.830 E0.58545
G1 X117.124 Y166.811 E0.01622
G1 X130.290 Y179.977 E0.58534
G1 X130.803 Y179.955 E0.01615
G1 X117.640 Y166.792 E0.58523
G1 X118.154 Y166.772 E0.01618
G1 X131.316 Y179.934 E0.58518
G1 X131.829 Y179.912 E0.01615
G1 X118.668 Y166.751 E0.58517
G1 X119.181 Y166.730 E0.01616
G1 X132.343 Y179.891 E0.58515
G1 X132.856 Y179.869 E0.01615
G1 X119.695 Y166.709 E0.58513
G1 X120.209 Y166.688 E0.01616
G1 X133.369 Y179.848 E0.58511
G1 X133.882 Y179.827 E0.01615
G1 X120.722 Y166.667 E0.58510
