; G-Code generated by Simplify3D(R) Version 4.0.0
; Jul 13, 2018 at 8:05:45 AM
; Settings Summary
;   processName,Process1
;   applyToModels,deck-plate-3-bug
;   profileName,Original Prusa i3 MK2 RC4 (modified)
;   profileVersion,2018-03-09 10:42:50
;   baseProfile,Prusa Mendel (modified)
;   printMaterial,PLA
;   printQuality,FAST 0.3mm
;   printExtruders,
;   extruderName,Primary Extruder
;   extruderToolheadNumber,0
;   extruderDiameter,0.4
;   extruderAutoWidth,0
;   extruderWidth,0.45
;   extrusionMultiplier,1
;   extruderUseRetract,1
;   extruderRetractionDistance,0.8
;   extruderExtraRestartDistance,0
;   extruderRetractionZLift,0
;   extruderRetractionSpeed,1800
;   extruderUseCoasting,1
;   extruderCoastingDistance,0.2
;   extruderUseWipe,1
;   extruderWipeDistance,2
;   primaryExtruder,0
;   layerHeight,0.3
;   topSolidLayers,3
;   bottomSolidLayers,3
;   perimeterOutlines,2
;   printPerimetersInsideOut,1
;   startPointOption,2
;   startPointOriginX,0
;   startPointOriginY,0
;   sequentialIslands,0
;   spiralVaseMode,0
;   firstLayerHeightPercentage,66
;   firstLayerWidthPercentage,95
;   firstLayerUnderspeed,0.6
;   useRaft,0
;   raftExtruder,0
;   raftTopLayers,3
;   raftBaseLayers,2
;   raftOffset,3
;   raftSeparationDistance,0.14
;   raftTopInfill,100
;   aboveRaftSpeedMultiplier,0.3
;   useSkirt,1
;   skirtExtruder,0
;   skirtLayers,1
;   skirtOutlines,1
;   skirtOffset,1.8
;   usePrimePillar,0
;   primePillarExtruder,999
;   primePillarWidth,12
;   primePillarLocation,7
;   primePillarSpeedMultiplier,1
;   useOozeShield,0
;   oozeShieldExtruder,999
;   oozeShieldOffset,2
;   oozeShieldOutlines,1
;   oozeShieldSidewallShape,1
;   oozeShieldSidewallAngle,30
;   oozeShieldSpeedMultiplier,1
;   infillExtruder,0
;   internalInfillPattern,Grid
;   externalInfillPattern,Rectilinear
;   infillPercentage,20
;   outlineOverlapPercentage,21
;   infillExtrusionWidthPercentage,100
;   minInfillLength,2
;   infillLayerInterval,1
;   internalInfillAngles,45,-45
;   overlapInternalInfillAngles,1
;   externalInfillAngles,45,-45
;   generateSupport,0
;   supportExtruder,0
;   supportInfillPercentage,30
;   supportExtraInflation,1.4
;   supportBaseLayers,0
;   denseSupportExtruder,0
;   denseSupportLayers,0
;   denseSupportInfillPercentage,70
;   supportLayerInterval,1
;   supportHorizontalPartOffset,0.2
;   supportUpperSeparationLayers,1
;   supportLowerSeparationLayers,1
;   supportType,0
;   supportGridSpacing,4
;   maxOverhangAngle,45
;   supportAngles,0
;   temperatureName,Primary Extruder,Heated Bed
;   temperatureNumber,0,1
;   temperatureSetpointCount,2,1
;   temperatureSetpointLayers,1,2,1
;   temperatureSetpointTemperatures,215,200,55
;   temperatureStabilizeAtStartup,1,1
;   temperatureHeatedBed,0,1
;   temperatureRelayBetweenLayers,0,0
;   temperatureRelayBetweenLoops,0,0
;   fanLayers,1,2
;   fanSpeeds,0,100
;   blipFanToFullPower,1
;   adjustSpeedForCooling,1
;   minSpeedLayerTime,15
;   minCoolingSpeedSlowdown,5
;   increaseFanForCooling,0
;   minFanLayerTime,45
;   maxCoolingFanSpeed,100
;   increaseFanForBridging,1
;   bridgingFanSpeed,100
;   use5D,1
;   relativeEdistances,1
;   allowEaxisZeroing,1
;   independentExtruderAxes,0
;   includeM10123,0
;   stickySupport,1
;   applyToolheadOffsets,0
;   gcodeXoffset,0
;   gcodeYoffset,0
;   gcodeZoffset,0
;   overrideMachineDefinition,1
;   machineTypeOverride,0
;   strokeXoverride,250
;   strokeYoverride,210
;   strokeZoverride,200
;   originOffsetXoverride,0
;   originOffsetYoverride,0
;   originOffsetZoverride,0
;   homeXdirOverride,-1
;   homeYdirOverride,-1
;   homeZdirOverride,-1
;   flipXoverride,1
;   flipYoverride,-1
;   flipZoverride,1
;   toolheadOffsets,0,0|0,0|0,0|0,0|0,0|0,0
;   overrideFirmwareConfiguration,0
;   firmwareTypeOverride,RepRap (Marlin/Repetier/Sprinter)
;   GPXconfigOverride,r2
;   baudRateOverride,250000
;   overridePrinterModels,1
;   printerModelsOverride
;   startingGcode,M115 U3.0.7 ; tell the printer latest firmware varsion available,G28 W ; home all without mesh bed level,G80 ; mesh bed leveling,G1 Y-3.0 F1000.0 ; go outside printing area,G1 X60.0 E9.0  F1000.0 ; intro line,G1 X100.0 E12.5  F1000.0 ; intro line
;   layerChangeGcode,
;   retractionGcode,
;   toolChangeGcode,
;   endingGcode,M104 S0 ; turn off temperature,M140 S0 ; turn off heatbed,M107 ; turn off fan,G1 X0 Y200; home X axis,M84 ; disable motors
;   exportFileFormat,gcode
;   celebration,0
;   celebrationSong,Random Song
;   postProcessing,{REPLACE "; outer perimeter\n" "; outer perimeter\nM204 S600\n"},{REPLACE "; inner perimeter\n" "; inner perimeter\nM204 S1200\n"},{REPLACE "; solid layer\n" "; solid layer\nM204 S1500\n"},{REPLACE "; infill\n" "; infill\nM204 S2000\n"}
;   defaultSpeed,2400
;   outlineUnderspeed,1
;   solidInfillUnderspeed,0.8
;   supportUnderspeed,0.8
;   rapidXYspeed,4800
;   rapidZspeed,1000
;   minBridgingArea,50
;   bridgingExtraInflation,1
;   bridgingExtrusionMultiplier,1
;   bridgingSpeedMultiplier,1
;   useFixedBridgingAngle,0
;   fixedBridgingAngle,0
;   applyBridgingToPerimeters,0
;   filamentDiameters,1.75|1.75|1.75|1.75|1.75|1.75
;   filamentPricesPerKg,215|215|215|215|215|215
;   filamentDensities,1.25|1.25|1.25|1.25|1.25|1.25
;   useMinPrintHeight,0
;   minPrintHeight,0
;   useMaxPrintHeight,0
;   maxPrintHeight,0
;   useDiaphragm,0
;   diaphragmLayerInterval,20
;   robustSlicing,1
;   mergeAllIntoSolid,0
;   onlyRetractWhenCrossingOutline,0
;   retractBetweenLayers,1
;   useRetractionMinTravel,1
;   retractionMinTravel,3
;   retractWhileWiping,1
;   onlyWipeOutlines,1
;   avoidCrossingOutline,0
;   maxMovementDetourFactor,3
;   toolChangeRetractionDistance,12
;   toolChangeExtraRestartDistance,-0.5
;   toolChangeRetractionSpeed,600
;   externalThinWallType,0
;   internalThinWallType,2
;   thinWallAllowedOverlapPercentage,25
;   singleExtrusionMinLength,1
;   singleExtrusionMinPrintingWidthPercentage,50
;   singleExtrusionMaxPrintingWidthPercentage,200
;   singleExtrusionEndpointExtension,0.2
;   horizontalSizeCompensation,0
G90
M83
M106 S255
G4 P500
M106 S0
M140 S55
M190 S55
M104 S215 T0
M109 S215 T0
M115 U3.0.7 ; tell the printer latest firmware varsion available
G28 W ; home all without mesh bed level
G80 ; mesh bed leveling
G1 Y-3.0 F1000.0 ; go outside printing area
G1 X60.0 E9.0  F1000.0 ; intro line
G1 X100.0 E12.5  F1000.0 ; intro line
G1 E-0.8000 F1800
G1 Z0.198 F1000
; process Process1
; layer 1, Z = 0.198
T0
; tool H0.300 W0.428
; skirt
G1 X26.685 Y54.720 F4800
G1 E0.8000 F540
G1 X30.136 Y53.285 E0.1993 F1440
G1 X30.146 Y53.281 E0.0005
G1 X49.001 Y45.658 E1.0844
G1 X49.002 Y45.657 E0.0001
G1 X49.026 Y45.648 E0.0014
G1 X49.027 Y45.647 E0.0001
G1 X51.967 Y44.550 E0.1673
G1 X51.977 Y44.546 E0.0006
G1 X56.167 Y43.035 E0.2374
G1 X60.988 Y41.236 E0.2744
G1 X61.010 Y41.228 E0.0012
G1 X64.495 Y40.017 E0.1966
G1 X64.517 Y40.010 E0.0012
G1 X67.706 Y38.985 E0.1785
G1 X67.714 Y38.982 E0.0004
G1 X78.204 Y35.711 E0.5859
G1 X86.133 Y33.078 E0.4455
G1 X86.143 Y33.075 E0.0005
G1 X89.029 Y32.149 E0.1616
G1 X89.049 Y32.143 E0.0010
G1 X100.844 Y28.618 E0.6563
G1 X109.654 Y25.873 E0.4920
G1 X109.656 Y25.872 E0.0001
G1 X109.685 Y25.863 E0.0016
G1 X109.686 Y25.863 E0.0001
G1 X118.577 Y23.397 E0.4920
G1 X118.594 Y23.393 E0.0009
G1 X128.397 Y20.850 E0.5400
G1 X128.499 Y20.871 E0.0056
G1 X129.979 Y22.016 E0.0998
G1 X130.025 Y22.110 E0.0056
G1 X130.010 Y188.985 E8.8978
G1 X129.964 Y189.079 E0.0056
G1 X128.472 Y190.224 E0.1002
G1 X128.369 Y190.244 E0.0056
G1 X121.133 Y188.305 E0.3995
G1 X121.127 Y188.304 E0.0003
G1 X111.726 Y185.725 E0.5198
G1 X111.708 Y185.719 E0.0009
G1 X108.551 Y184.790 E0.1754
G1 X108.550 Y184.790 E0.0001
G1 X108.524 Y184.782 E0.0014
G1 X108.523 Y184.781 E0.0001
G1 X102.219 Y182.733 E0.3534
G1 X89.782 Y178.764 E0.6961
G1 X89.772 Y178.760 E0.0006
G1 X75.661 Y174.087 E0.7925
G1 X70.836 Y172.631 E0.2687
G1 X70.813 Y172.624 E0.0012
G1 X67.608 Y171.573 E0.1798
G1 X67.606 Y171.572 E0.0001
G1 X67.581 Y171.564 E0.0014
G1 X67.579 Y171.563 E0.0001
G1 X58.214 Y168.202 E0.5306
G1 X58.191 Y168.194 E0.0012
G1 X39.565 Y161.004 E1.0645
G1 X39.542 Y160.995 E0.0013
G1 X36.441 Y159.709 E0.1789
G1 X36.431 Y159.705 E0.0005
G1 X26.666 Y155.539 E0.5661
G1 X26.615 Y155.496 E0.0035
G1 X25.982 Y154.538 E0.0612
G1 X25.963 Y154.475 E0.0035
G1 X25.972 Y55.789 E5.2620
G1 X25.991 Y55.725 E0.0036
G1 X26.575 Y54.851 E0.0560
G1 X26.634 Y54.763 F1440
G1 X26.685 Y54.720 F1440
G1 E-0.8000 F1800
G1 X145.975 Y55.344 F4800
G1 E0.8000 F1800
G1 X146.029 Y55.244 E0.0060 F1440
G1 X147.737 Y54.114 E0.1092
G1 X147.849 Y54.104 E0.0060
G1 X151.585 Y55.691 E0.2164
G1 X157.565 Y58.238 E0.3465
G1 X157.580 Y58.245 E0.0008
G1 X166.635 Y62.275 E0.5284
G1 X166.638 Y62.277 E0.0002
G1 X175.590 Y66.299 E0.5233
G1 X175.614 Y66.310 E0.0013
G1 X178.594 Y67.743 E0.1762
G1 X178.595 Y67.743 E0.0001
G1 X178.617 Y67.754 E0.0013
G1 X190.362 Y73.783 E0.7038
G1 X194.742 Y75.994 E0.2616
G1 X194.759 Y76.003 E0.0010
G1 X197.754 Y77.585 E0.1806
G1 X197.756 Y77.586 E0.0001
G1 X197.787 Y77.603 E0.0019
G1 X197.788 Y77.604 E0.0001
G1 X206.552 Y82.655 E0.5393
G1 X206.561 Y82.661 E0.0005
G1 X212.277 Y86.037 E0.3539
G1 X212.278 Y86.037 E0.0001
G1 X212.300 Y86.051 E0.0013
G1 X213.448 Y86.770 E0.0722
G1 X213.450 Y86.772 E0.0001
G1 X213.479 Y86.791 E0.0019
G1 X213.481 Y86.792 E0.0001
G1 X214.596 Y87.549 E0.0718
G1 X214.606 Y87.556 E0.0006
G1 X219.538 Y90.992 E0.3205
G1 X219.541 Y90.994 E0.0002
G1 X219.589 Y91.030 E0.0032
G1 X219.591 Y91.032 E0.0002
G1 X220.557 Y91.797 E0.0657
G1 X220.558 Y91.798 E0.0001
G1 X220.590 Y91.824 E0.0022
G1 X220.592 Y91.826 E0.0001
G1 X222.658 Y93.613 E0.1457
G1 X224.536 Y95.114 E0.1282
G1 X224.539 Y95.117 E0.0002
G1 X224.596 Y95.166 E0.0040
G1 X224.599 Y95.169 E0.0002
G1 X225.306 Y95.831 E0.0517
G1 X225.311 Y95.836 E0.0004
G1 X225.392 Y95.921 E0.0063
G1 X225.396 Y95.927 E0.0004
G1 X225.801 Y96.411 E0.0337
G1 X225.805 Y96.417 E0.0004
G1 X225.878 Y96.516 E0.0065
G1 X225.882 Y96.521 E0.0004
G1 X226.200 Y97.021 E0.0316
G1 X226.204 Y97.028 E0.0004
G1 X226.269 Y97.147 E0.0072
G1 X226.272 Y97.154 E0.0004
G1 X226.724 Y98.150 E0.0583
G1 X227.298 Y99.295 E0.0683
G1 X227.300 Y99.299 E0.0002
G1 X227.331 Y99.368 E0.0041
G1 X227.333 Y99.372 E0.0002
G1 X227.530 Y99.860 E0.0281
G1 X227.533 Y99.867 E0.0004
G1 X227.573 Y99.991 E0.0069
G1 X227.576 Y99.998 E0.0004
G1 X227.887 Y101.221 E0.0673
G1 X228.257 Y102.475 E0.0697
G1 X228.260 Y102.487 E0.0007
G1 X228.297 Y102.701 E0.0116
G1 X228.299 Y102.713 E0.0007
G1 X228.349 Y103.538 E0.0440
G1 X228.349 Y103.550 E0.0006
G1 X228.339 Y103.756 E0.0110
G1 X228.338 Y103.768 E0.0006
G1 X228.155 Y104.942 E0.0634
G1 X227.982 Y106.527 E0.0850
G1 X227.981 Y106.537 E0.0006
G1 X227.944 Y106.716 E0.0097
G1 X227.941 Y106.726 E0.0006
G1 X227.690 Y107.539 E0.0453
G1 X227.687 Y107.549 E0.0006
G1 X227.617 Y107.716 E0.0097
G1 X227.613 Y107.726 E0.0006
G1 X226.902 Y109.062 E0.0807
G1 X226.290 Y110.354 E0.0762
G1 X226.288 Y110.358 E0.0002
G1 X226.259 Y110.415 E0.0034
G1 X226.257 Y110.418 E0.0002
G1 X225.993 Y110.890 E0.0288
G1 X225.991 Y110.894 E0.0003
G1 X225.943 Y110.970 E0.0048
G1 X225.940 Y110.975 E0.0003
G1 X225.629 Y111.426 E0.0292
G1 X225.626 Y111.430 E0.0003
G1 X225.573 Y111.501 E0.0047
G1 X225.570 Y111.505 E0.0003
G1 X224.696 Y112.551 E0.0727
G1 X223.869 Y113.614 E0.0718
G1 X223.867 Y113.617 E0.0002
G1 X223.826 Y113.666 E0.0034
G1 X223.823 Y113.669 E0.0002
G1 X223.453 Y114.084 E0.0297
G1 X223.451 Y114.087 E0.0002
G1 X223.412 Y114.128 E0.0030
G1 X223.409 Y114.130 E0.0002
G1 X222.995 Y114.543 E0.0312
G1 X222.993 Y114.545 E0.0002
G1 X222.956 Y114.580 E0.0027
G1 X222.954 Y114.582 E0.0002
G1 X221.285 Y116.075 E0.1194
G1 X219.672 Y117.580 E0.1176
G1 X219.670 Y117.582 E0.0002
G1 X219.634 Y117.614 E0.0026
G1 X219.632 Y117.615 E0.0001
G1 X215.623 Y120.996 E0.2796
G1 X215.619 Y120.999 E0.0003
G1 X215.549 Y121.053 E0.0047
G1 X215.545 Y121.056 E0.0003
G1 X213.767 Y122.295 E0.1155
G1 X213.765 Y122.296 E0.0001
G1 X213.732 Y122.318 E0.0021
G1 X213.730 Y122.319 E0.0001
G1 X210.387 Y124.446 E0.2113
G1 X207.312 Y126.483 E0.1967
G1 X207.293 Y126.496 E0.0012
G1 X206.001 Y127.310 E0.0813
G1 X205.982 Y127.322 E0.0011
G1 X203.750 Y128.660 E0.1387
G1 X203.740 Y128.666 E0.0006
G1 X194.690 Y133.948 E0.5587
G1 X194.674 Y133.957 E0.0009
G1 X192.114 Y135.389 E0.1563
G1 X192.103 Y135.395 E0.0006
G1 X187.918 Y137.671 E0.2540
G1 X184.538 Y139.610 E0.2077
G1 X184.536 Y139.612 E0.0001
G1 X184.503 Y139.630 E0.0021
G1 X184.500 Y139.631 E0.0001
G1 X181.544 Y141.172 E0.1778
G1 X181.543 Y141.173 E0.0001
G1 X181.513 Y141.188 E0.0018
G1 X181.511 Y141.189 E0.0001
G1 X177.093 Y143.300 E0.2611
G1 X177.078 Y143.307 E0.0009
G1 X166.671 Y148.069 E0.6102
G1 X166.654 Y148.076 E0.0010
G1 X156.976 Y152.287 E0.5627
G1 X156.968 Y152.291 E0.0005
G1 X147.840 Y156.165 E0.5287
G1 X147.727 Y156.155 E0.0060
G1 X146.020 Y155.025 E0.1092
G1 X145.966 Y154.925 E0.0060
G1 X145.975 Y55.515 E5.3006
G1 X145.975 Y55.344 F1440
G1 E-0.8000 F1800
; inner perimeter
M204 S1200
G1 X148.641 Y57.337 F4800
G1 E0.8000 F1800
G1 X150.543 Y58.145 E0.1102 F1440
G1 X155.026 Y60.042 E0.2596
G1 X156.506 Y60.686 E0.0861
G1 X165.547 Y64.709 E0.5276
G1 X168.375 Y65.993 E0.1656
G1 X174.482 Y68.724 E0.3567
G1 X175.953 Y69.413 E0.0866
G1 X177.416 Y70.135 E0.0870
G1 X189.151 Y76.159 E0.7033
G1 X193.530 Y78.369 E0.2615
G1 X195.059 Y79.158 E0.0917
G1 X196.479 Y79.927 E0.0862
G1 X205.213 Y84.961 E0.5375
G1 X208.635 Y86.998 E0.2124
G1 X210.904 Y88.323 E0.1401
G1 X212.008 Y89.014 E0.0694
G1 X213.090 Y89.749 E0.0697
G1 X215.241 Y91.254 E0.1400
G1 X216.949 Y92.416 E0.1101
G1 X217.970 Y93.149 E0.0670
G1 X218.873 Y93.865 E0.0615
G1 X220.953 Y95.663 E0.1466
G1 X222.827 Y97.162 E0.1280
G1 X223.243 Y97.536 E0.0298
G1 X223.404 Y97.700 E0.0122
G1 X223.688 Y98.041 E0.0237
G1 X223.900 Y98.372 E0.0209
G1 X223.977 Y98.522 E0.0090
G1 X224.315 Y99.295 E0.0450
G1 X224.886 Y100.432 E0.0679
G1 X225.023 Y100.771 E0.0195
G1 X225.125 Y101.122 E0.0195
G1 X225.315 Y101.927 E0.0441
G1 X225.564 Y102.722 E0.0444
G1 X225.651 Y103.058 E0.0186
G1 X225.684 Y103.373 E0.0168
G1 X225.681 Y103.521 E0.0079
G1 X225.665 Y103.690 E0.0091
G1 X225.513 Y104.582 E0.0483
G1 X225.452 Y105.059 E0.0256
G1 X225.376 Y105.931 E0.0467
G1 X225.351 Y106.081 E0.0081
G1 X225.254 Y106.443 E0.0200
G1 X225.195 Y106.597 E0.0088
G1 X225.001 Y106.992 E0.0235
G1 X224.521 Y107.860 E0.0529
G1 X223.903 Y109.165 E0.0770
G1 X223.702 Y109.524 E0.0219
G1 X223.476 Y109.853 E0.0213
G1 X222.620 Y110.878 E0.0712
G1 X221.798 Y111.934 E0.0714
G1 X221.494 Y112.274 E0.0243
G1 X221.144 Y112.623 E0.0264
G1 X219.487 Y114.106 E0.1186
G1 X217.883 Y115.602 E0.1169
G1 X216.124 Y117.079 E0.1224
G1 X214.421 Y118.545 E0.1198
G1 X213.961 Y118.911 E0.0314
G1 X213.441 Y119.296 E0.0345
G1 X212.274 Y120.086 E0.0751
G1 X208.935 Y122.210 E0.2110
G1 X205.855 Y124.250 E0.1970
G1 X204.594 Y125.045 E0.0794
G1 X202.386 Y126.369 E0.1373
G1 X196.599 Y129.768 E0.3579
G1 X193.360 Y131.637 E0.1994
G1 X190.820 Y133.058 E0.1552
G1 X186.617 Y135.343 E0.2551
G1 X183.236 Y137.284 E0.2079
G1 X181.932 Y137.983 E0.0789
G1 X180.337 Y138.795 E0.0955
G1 X178.505 Y139.689 E0.1087
G1 X175.958 Y140.888 E0.1501
G1 X171.611 Y142.855 E0.2544
G1 X167.934 Y144.568 E0.2163
G1 X165.576 Y145.637 E0.1381
G1 X155.918 Y149.840 E0.5616
G1 X148.633 Y152.932 E0.4220
G1 X148.641 Y57.537 E5.0865
G1 X148.641 Y57.337 F1440
; outer perimeter
M204 S600
G1 X148.214 Y56.691 F4800
G1 X150.710 Y57.751 E0.1446 F1440
G1 X155.195 Y59.649 E0.2597
G1 X156.678 Y60.294 E0.0862
G1 X165.723 Y64.320 E0.5279
G1 X168.551 Y65.603 E0.1656
G1 X174.660 Y68.335 E0.3568
G1 X176.139 Y69.028 E0.0871
G1 X177.609 Y69.753 E0.0874
G1 X189.345 Y75.777 E0.7034
G1 X193.725 Y77.988 E0.2616
G1 X195.258 Y78.780 E0.0920
G1 X196.688 Y79.554 E0.0867
G1 X205.428 Y84.592 E0.5379
G1 X208.852 Y86.630 E0.2125
G1 X211.125 Y87.957 E0.1403
G1 X212.241 Y88.656 E0.0702
G1 X213.332 Y89.397 E0.0703
G1 X215.484 Y90.903 E0.1400
G1 X217.193 Y92.065 E0.1102
G1 X218.228 Y92.807 E0.0679
G1 X219.146 Y93.536 E0.0625
G1 X221.226 Y95.335 E0.1467
G1 X223.104 Y96.836 E0.1282
G1 X223.539 Y97.227 E0.0312
