; generated by Slic3r Prusa Edition 1.40.0+ on 2018-07-01 at 14:26:54

; 

; external perimeters extrusion width = 0.45mm
; perimeters extrusion width = 0.45mm
; infill extrusion width = 0.45mm
; solid infill extrusion width = 0.45mm
; top infill extrusion width = 0.40mm
; first layer extrusion width = 0.42mm

M107
M115 U3.2.1 ; tell printer latest fw version
M201 X1000 Y1000 Z200 E5000 ; sets maximum accelerations, mm/sec^2
M203 X200 Y200 Z12 E120 ; sets maximum feedrates, mm/sec
M204 S1250 T1250 ; sets acceleration (S) and retract acceleration (T)
M205 X10 Y10 Z0.4 E2.5 ; sets the jerk limits, mm/sec
M205 S0 T0 ; sets the minimum extruding and travel feed rate, mm/sec
M83  ; extruder relative mode
M104 S215 ; set extruder temp
M140 S60 ; set bed temp
M190 S60 ; wait for bed temp
M109 S215 ; wait for extruder temp
G28 W ; home all without mesh bed level
G80 ; mesh bed leveling
G1 Y-3.0 F1000.0 ; go outside print area
G92 E0.0
G1 X60.0 E9.0  F1000.0 ; intro line
G1 X100.0 E12.5  F1000.0 ; intro line
G92 E0.0
M221 S95
M900 K30; Filament gcode
G21 ; set units to millimeters
G90 ; use absolute coordinates
M83 ; use relative distances for extrusion
;BEFORE_LAYER_CHANGE
G92 E0.0
;0.2


G1 E-0.80000 F2100.00000
G1 Z0.600 F10800.000
;AFTER_LAYER_CHANGE
;0.2
G1 X102.941 Y67.147
G1 Z0.200
G1 E0.80000 F2100.00000
M204 S1000
G1 F1800
G1 X103.785 Y66.979 E0.02698
G1 X104.289 Y67.039 E0.01589
G1 X104.768 Y67.214 E0.01601
G1 X114.708 Y72.488 E0.35280
G1 X125.262 Y78.677 E0.38362
G1 X131.127 Y82.357 E0.21710
G1 X135.511 Y85.500 E0.16913
G1 X137.922 Y87.352 E0.09532
G1 X141.166 Y90.103 E0.13336
G1 X143.902 Y92.993 E0.12479
G1 X146.525 Y96.781 E0.14447
G1 X147.288 Y98.304 E0.05340
G1 X148.035 Y100.133 E0.06195
G1 X148.324 Y101.467 E0.04281
G1 X148.407 Y103.077 E0.05054
G1 X148.355 Y105.671 E0.08136
G1 X148.227 Y106.565 E0.02831
G1 X147.914 Y107.744 E0.03824
G1 X147.408 Y109.212 E0.04868
G1 X146.398 Y111.316 E0.07317
G1 X145.127 Y113.460 E0.07818
G1 X143.239 Y116.245 E0.10548
G1 X141.476 Y118.539 E0.09071
G1 X135.587 Y124.011 E0.25207
G1 X128.953 Y129.098 E0.26211
G1 X122.855 Y133.230 E0.23094
G1 X114.575 Y138.134 E0.30173
G1 X105.119 Y142.811 E0.33079
G1 X104.670 Y142.966 E0.01487
G1 X104.196 Y143.021 E0.01498
G1 X103.371 Y142.864 E0.02631
G1 X102.669 Y142.411 E0.02620
G1 X102.188 Y141.728 E0.02620
G1 X101.997 Y140.911 E0.02631
G1 X101.593 Y69.180 E2.24911
G1 X101.756 Y68.339 E0.02687
G1 X102.230 Y67.625 E0.02687
G1 X102.891 Y67.180 E0.02499
G1 F8640
G1 X103.785 Y66.979 E-0.21156
G1 X104.289 Y67.039 E-0.11704
G1 X104.768 Y67.214 E-0.11788
G1 X105.967 Y67.851 E-0.31352
G1 E-0.04000 F2100.00000
G1 Z0.800 F10800.000
G1 X104.374 Y70.157
G1 Z0.200
G1 E0.80000 F2100.00000
G1 F1800
G1 X107.860 Y72.045 E0.12431
G1 X113.374 Y74.922 E0.19500
G1 X118.301 Y77.838 E0.17952
G1 X123.838 Y81.060 E0.20086
G1 X129.564 Y84.650 E0.21191
G1 X133.865 Y87.735 E0.16595
G1 X136.177 Y89.511 E0.09140
G1 X139.260 Y92.122 E0.12668
G1 X141.826 Y94.837 E0.11714
G1 X144.197 Y98.293 E0.13141
G1 X144.475 Y98.851 E0.01955
G1 X145.031 Y100.053 E0.04153
G1 X145.274 Y100.643 E0.01999
G1 X145.462 Y101.233 E0.01943
G1 X145.569 Y101.812 E0.01846
G1 X145.620 Y102.440 E0.01975
G1 X145.631 Y104.428 E0.06232
G1 X145.615 Y105.073 E0.02022
G1 X145.560 Y105.693 E0.01954
G1 X145.441 Y106.298 E0.01933
G1 X145.267 Y106.908 E0.01988
G1 X144.849 Y108.134 E0.04062
G1 X143.913 Y110.079 E0.06765
G1 X142.765 Y112.001 E0.07020
G1 X140.985 Y114.625 E0.09943
G1 X139.417 Y116.675 E0.08091
G1 X133.741 Y121.938 E0.24269
G1 X127.326 Y126.849 E0.25333
G1 X121.408 Y130.862 E0.22418
G1 X113.278 Y135.679 E0.29630
G1 X104.766 Y139.889 E0.29774
G1 X104.374 Y70.217 E2.18458
G1 X103.993 Y69.522 F10800.000
G1 F1800
G1 X108.037 Y71.712 E0.14419
G1 X113.557 Y74.593 E0.19523
G1 X118.492 Y77.513 E0.17979
G1 X124.033 Y80.737 E0.20101
G1 X129.774 Y84.337 E0.21247
G1 X134.090 Y87.432 E0.16651
G1 X136.414 Y89.217 E0.09188
G1 X139.519 Y91.848 E0.12762
G1 X142.121 Y94.599 E0.11872
G1 X144.522 Y98.102 E0.13315
G1 X144.815 Y98.688 E0.02054
G1 X145.377 Y99.902 E0.04196
G1 X145.629 Y100.513 E0.02073
G1 X145.827 Y101.136 E0.02049
G1 X145.944 Y101.768 E0.02016
G1 X145.997 Y102.424 E0.02063
G1 X146.009 Y104.431 E0.06294
G1 X145.992 Y105.094 E0.02078
G1 X145.934 Y105.747 E0.02055
G1 X145.808 Y106.387 E0.02046
G1 X145.627 Y107.021 E0.02068
G1 X145.198 Y108.277 E0.04163
G1 X144.246 Y110.257 E0.06889
G1 X143.084 Y112.204 E0.07108
G1 X141.291 Y114.846 E0.10011
G1 X139.697 Y116.929 E0.08225
G1 X133.985 Y122.226 E0.24425
G1 X127.547 Y127.155 E0.25423
G1 X121.610 Y131.180 E0.22488
G1 X113.458 Y136.011 E0.29711
G1 X104.393 Y140.495 E0.31711
G1 X103.994 Y69.582 E2.22348
G1 X104.270 Y69.811 F10800.000
G1 F8640
G1 X106.906 Y71.116 E-0.76000
G1 E-0.04000 F2100.00000
G1 Z0.800 F10800.000
G1 X106.280 Y71.318
G1 Z0.200
G1 E0.80000 F2100.00000
G1 F1800
G1 X144.195 Y109.232 E1.68722
G1 X144.021 Y109.594 F10800.000
G1 F1800
G1 X105.533 Y71.106 E1.71271
G1 X104.660 Y70.633 E0.03127
G1 X104.660 Y70.768 E0.00426
G1 X143.720 Y109.828 E1.73817
G1 X143.528 Y110.172 E0.01238
G1 X104.663 Y71.306 E1.72951
G1 X104.666 Y71.845 E0.01694
G1 X143.328 Y110.507 E1.72047
G1 X143.128 Y110.842 E0.01228
G1 X104.669 Y72.383 E1.71143
G1 X104.672 Y72.921 E0.01694
G1 X142.928 Y111.177 E1.70239
G1 X142.728 Y111.512 E0.01228
G1 X104.675 Y73.459 E1.69336
G1 X104.678 Y73.997 E0.01694
G1 X142.528 Y111.847 E1.68432
G1 X142.312 Y112.166 E0.01213
G1 X104.681 Y74.536 E1.67456
G1 X104.685 Y75.074 E0.01694
G1 X142.096 Y112.485 E1.66480
G1 X141.879 Y112.804 E0.01212
G1 X104.688 Y75.612 E1.65504
G1 X104.691 Y76.150 E0.01694
G1 X141.663 Y113.123 E1.64528
G1 X141.447 Y113.442 E0.01212
G1 X104.694 Y76.688 E1.63552
G1 X104.697 Y77.227 E0.01694
G1 X141.230 Y113.760 E1.62576
G1 X141.014 Y114.079 E0.01212
G1 X104.700 Y77.765 E1.61600
G1 X104.703 Y78.303 E0.01694
G1 X140.798 Y114.398 E1.60624
G1 X140.569 Y114.704 E0.01203
G1 X104.706 Y78.841 E1.59592
G1 X104.709 Y79.379 E0.01694
G1 X140.337 Y115.008 E1.58546
G1 X140.105 Y115.311 E0.01201
G1 X104.712 Y79.918 E1.57500
G1 X104.715 Y80.456 E0.01694
G1 X139.873 Y115.614 E1.56454
G1 X139.641 Y115.917 E0.01201
G1 X104.718 Y80.994 E1.55408
G1 X104.721 Y81.532 E0.01694
G1 X139.409 Y116.220 E1.54361
G1 X139.171 Y116.517 E0.01198
G1 X104.724 Y82.071 E1.53289
G1 X104.727 Y82.609 E0.01694
G1 X138.893 Y116.775 E1.52040
G1 X138.615 Y117.032 E0.01192
G1 X104.730 Y83.147 E1.50791
G1 X104.733 Y83.685 E0.01694
G1 X138.338 Y117.290 E1.49541
G1 X138.060 Y117.547 E0.01192
G1 X104.736 Y84.223 E1.48292
G1 X104.739 Y84.762 E0.01694
G1 X137.782 Y117.805 E1.47043
G1 X137.505 Y118.062 E0.01192
G1 X104.742 Y85.300 E1.45794
G1 X104.745 Y85.838 E0.01694
G1 X137.227 Y118.320 E1.44545
G1 X136.949 Y118.577 E0.01192
G1 X104.748 Y86.376 E1.43296
G1 X104.751 Y86.914 E0.01694
G1 X136.672 Y118.835 E1.42047
G1 X136.394 Y119.092 E0.01192
G1 X104.754 Y87.453 E1.40797
G1 X104.757 Y87.991 E0.01694
G1 X136.116 Y119.350 E1.39548
G1 X135.838 Y119.607 E0.01192
G1 X104.760 Y88.529 E1.38299
G1 X104.763 Y89.067 E0.01694
G1 X135.561 Y119.865 E1.37050
G1 X135.283 Y120.122 E0.01192
G1 X104.766 Y89.605 E1.35801
G1 X104.769 Y90.144 E0.01694
G1 X135.005 Y120.380 E1.34552
G1 X134.728 Y120.637 E0.01192
G1 X104.772 Y90.682 E1.33302
G1 X104.775 Y91.220 E0.01694
G1 X134.450 Y120.895 E1.32053
G1 X134.172 Y121.152 E0.01192
G1 X104.778 Y91.758 E1.30804
G1 X104.781 Y92.296 E0.01694
G1 X133.895 Y121.410 E1.29555
G1 X133.617 Y121.667 E0.01192
G1 X104.784 Y92.835 E1.28306
G1 X104.787 Y93.373 E0.01694
G1 X133.319 Y121.905 E1.26967
G1 X133.016 Y122.137 E0.01201
G1 X104.790 Y93.911 E1.25605
G1 X104.794 Y94.449 E0.01694
G1 X132.713 Y122.369 E1.24243
G1 X132.410 Y122.601 E0.01201
G1 X104.797 Y94.987 E1.22880
G1 X104.800 Y95.526 E0.01694
G1 X132.107 Y122.833 E1.21518
G1 X131.804 Y123.065 E0.01201
G1 X104.803 Y96.064 E1.20156
G1 X104.806 Y96.602 E0.01694
G1 X131.501 Y123.297 E1.18793
G1 X131.198 Y123.529 E0.01201
G1 X104.809 Y97.140 E1.17431
G1 X104.812 Y97.678 E0.01694
G1 X130.894 Y123.761 E1.16069
G1 X130.591 Y123.993 E0.01201
G1 X104.815 Y98.217 E1.14706
G1 X104.818 Y98.755 E0.01694
G1 X130.288 Y124.225 E1.13344
G1 X129.985 Y124.457 E0.01201
G1 X104.821 Y99.293 E1.11982
G1 X104.824 Y99.831 E0.01694
G1 X129.682 Y124.689 E1.10619
G1 X129.379 Y124.922 E0.01201
G1 X104.827 Y100.370 E1.09257
G1 X104.830 Y100.908 E0.01694
G1 X129.076 Y125.154 E1.07895
G1 X128.773 Y125.386 E0.01201
G1 X104.833 Y101.446 E1.06532
G1 X104.836 Y101.984 E0.01694
G1 X128.470 Y125.618 E1.05170
G1 X128.166 Y125.850 E0.01201
G1 X104.839 Y102.522 E1.03808
G1 X104.842 Y103.061 E0.01694
G1 X127.863 Y126.082 E1.02445
G1 X127.560 Y126.314 E0.01201
G1 X104.845 Y103.599 E1.01083
G1 X104.848 Y104.137 E0.01694
G1 X127.257 Y126.546 E0.99721
G1 X126.943 Y126.767 E0.01208
G1 X104.851 Y104.675 E0.98310
G1 X104.854 Y105.213 E0.01694
G1 X126.624 Y126.984 E0.96878
G1 X126.305 Y127.200 E0.01213
G1 X104.857 Y105.752 E0.95445
G1 X104.860 Y106.290 E0.01694
G1 X125.986 Y127.416 E0.94012
G1 X125.667 Y127.632 E0.01213
G1 X104.863 Y106.828 E0.92579
G1 X104.866 Y107.366 E0.01694
G1 X125.348 Y127.848 E0.91147
G1 X125.030 Y128.065 E0.01213
G1 X104.869 Y107.904 E0.89714
G1 X104.872 Y108.443 E0.01694
G1 X124.711 Y128.281 E0.88281
G1 X124.392 Y128.497 E0.01213
G1 X104.875 Y108.981 E0.86848
G1 X104.878 Y109.519 E0.01694
G1 X124.073 Y128.713 E0.85415
G1 X123.754 Y128.930 E0.01213
G1 X104.881 Y110.057 E0.83983
G1 X104.884 Y110.595 E0.01694
G1 X123.435 Y129.146 E0.82550
G1 X123.116 Y129.362 E0.01213
G1 X104.887 Y111.134 E0.81117
G1 X104.890 Y111.672 E0.01694
G1 X122.797 Y129.578 E0.79684
G1 X122.478 Y129.795 E0.01213
G1 X104.893 Y112.210 E0.78252
G1 X104.896 Y112.748 E0.01694
G1 X122.159 Y130.011 E0.76819
G1 X121.840 Y130.227 E0.01213
G1 X104.899 Y113.286 E0.75386
G1 X104.903 Y113.825 E0.01694
G1 X121.521 Y130.443 E0.73953
G1 X121.199 Y130.657 E0.01215
G1 X104.906 Y114.363 E0.72507
G1 X104.909 Y114.901 E0.01694
G1 X120.863 Y130.856 E0.70999
G1 X120.527 Y131.055 E0.01229
G1 X104.912 Y115.439 E0.69490
G1 X104.915 Y115.977 E0.01694
G1 X120.191 Y131.254 E0.67981
G1 X119.855 Y131.453 E0.01229
G1 X104.918 Y116.516 E0.66472
G1 X104.921 Y117.054 E0.01694
G1 X119.519 Y131.652 E0.64963
G1 X119.183 Y131.851 E0.01229
G1 X104.924 Y117.592 E0.63454
G1 X104.927 Y118.130 E0.01694
G1 X118.847 Y132.051 E0.61945
G1 X118.511 Y132.250 E0.01229
G1 X104.930 Y118.669 E0.60436
G1 X104.933 Y119.207 E0.01694
G1 X118.175 Y132.449 E0.58928
G1 X117.839 Y132.648 E0.01229
G1 X104.936 Y119.745 E0.57419
G1 X104.939 Y120.283 E0.01694
G1 X117.503 Y132.847 E0.55910
G1 X117.167 Y133.046 E0.01229
G1 X104.942 Y120.821 E0.54401
G1 X104.945 Y121.360 E0.01694
G1 X116.831 Y133.245 E0.52892
G1 X116.495 Y133.444 E0.01229
G1 X104.948 Y121.898 E0.51383
G1 X104.951 Y122.436 E0.01694
G1 X116.159 Y133.644 E0.49874
G1 X115.823 Y133.843 E0.01229
G1 X104.954 Y122.974 E0.48366
G1 X104.957 Y123.512 E0.01694
G1 X115.487 Y134.042 E0.46857
G1 X115.151 Y134.241 E0.01229
G1 X104.960 Y124.051 E0.45348
G1 X104.963 Y124.589 E0.01694
G1 X114.814 Y134.440 E0.43839
G1 X114.478 Y134.639 E0.01229
G1 X104.966 Y125.127 E0.42330
G1 X104.969 Y125.665 E0.01694
G1 X114.142 Y134.838 E0.40821
G1 X113.806 Y135.038 E0.01229
G1 X104.972 Y126.203 E0.39312
G1 X104.975 Y126.742 E0.01694
G1 X113.470 Y135.237 E0.37803
G1 X113.134 Y135.435 E0.01230
G1 X104.978 Y127.280 E0.36292
G1 X104.981 Y127.818 E0.01694
G1 X112.776 Y135.612 E0.34685
G1 X112.418 Y135.789 E0.01257
G1 X104.984 Y128.356 E0.33078
G1 X104.987 Y128.894 E0.01694
G1 X112.059 Y135.967 E0.31471
G1 X111.701 Y136.144 E0.01257
G1 X104.990 Y129.433 E0.29864
G1 X104.993 Y129.971 E0.01694
G1 X111.343 Y136.321 E0.28258
G1 X110.985 Y136.498 E0.01257
G1 X104.996 Y130.509 E0.26651
G1 X104.999 Y131.047 E0.01694
G1 X110.627 Y136.675 E0.25044
G1 X110.269 Y136.852 E0.01257
G1 X105.002 Y131.585 E0.23437
G1 X105.005 Y132.124 E0.01694
G1 X109.911 Y137.029 E0.21830
G1 X109.553 Y137.206 E0.01257
G1 X105.008 Y132.662 E0.20223
G1 X105.012 Y133.200 E0.01694
G1 X109.195 Y137.383 E0.18616
G1 X108.837 Y137.561 E0.01257
G1 X105.015 Y133.738 E0.17009
G1 X105.018 Y134.276 E0.01694
G1 X108.479 Y137.738 E0.15402
G1 X108.121 Y137.915 E0.01257
G1 X105.021 Y134.815 E0.13796
G1 X105.024 Y135.353 E0.01694
G1 X107.763 Y138.092 E0.12189
G1 X107.405 Y138.269 E0.01257
G1 X105.027 Y135.891 E0.10582
G1 X105.030 Y136.429 E0.01694
G1 X107.047 Y138.446 E0.08975
G1 X106.688 Y138.623 E0.01257
G1 X105.033 Y136.968 E0.07368
G1 X105.036 Y137.506 E0.01694
G1 X106.330 Y138.800 E0.05761
G1 X105.972 Y138.977 E0.01257
G1 X105.039 Y138.044 E0.04154
G1 X105.042 Y138.582 E0.01694
G1 X105.614 Y139.155 E0.02547
G1 X105.256 Y139.332 E0.01257
G1 X104.874 Y138.950 E0.01700
G1 F8640
G1 X105.256 Y139.332 E-0.12473
G1 X105.614 Y139.155 E-0.09224
G1 X105.042 Y138.582 E-0.18692
G1 X105.039 Y138.044 E-0.12428
G1 X105.749 Y138.754 E-0.23183
G1 E-0.04000 F2100.00000
G1 Z0.800 F10800.000
G1 X144.369 Y108.871
G1 Z0.200
G1 E0.80000 F2100.00000
G1 F1800
G1 X107.448 Y71.950 E1.64299
G1 F8640
G1 X109.775 Y74.277 E-0.76000
G1 E-0.04000 F2100.00000
G1 Z0.800 F10800.000
G1 X108.582 Y72.549
G1 Z0.200
G1 E0.80000 F2100.00000
G1 F1800
G1 X144.543 Y108.510 E1.60026
G1 X144.716 Y108.148 F10800.000
G1 F1800
G1 X109.701 Y73.133 E1.55818
G1 F8640
G1 X112.029 Y75.461 E-0.76000
G1 E-0.04000 F2100.00000
G1 Z0.800 F10800.000
G1 X110.821 Y73.718
G1 Z0.200
G1 E0.80000 F2100.00000
G1 F1800
G1 X144.858 Y107.755 E1.51469
G1 X144.995 Y107.356 F10800.000
G1 F1800
G1 X111.940 Y74.302 E1.47093
G1 F8640
G1 X114.267 Y76.629 E-0.76000
G1 E-0.04000 F2100.00000
G1 Z0.800 F10800.000
G1 X113.059 Y74.886
G1 Z0.200
G1 E0.80000 F2100.00000
G1 F1800
G1 X145.131 Y106.957 E1.42717
G1 X145.253 Y106.544 F10800.000
G1 F1800
G1 X114.326 Y75.618 E1.37625
G1 F8640
G1 X116.654 Y77.945 E-0.76000
G1 E-0.04000 F2100.00000
G1 Z0.800 F10800.000
G1 X115.637 Y76.394
G1 Z0.200
G1 E0.80000 F2100.00000
G1 F1800
G1 X145.361 Y106.118 E1.32273
G1 X145.449 Y105.670 F10800.000
G1 F1800
G1 X116.949 Y77.170 E1.26827
G1 F8640
G1 X119.276 Y79.497 E-0.76000
G1 E-0.04000 F2100.00000
G1 Z0.800 F10800.000
G1 X118.259 Y77.945
G1 Z0.200
G1 E0.80000 F2100.00000
G1 F1800
G1 X145.492 Y105.178 E1.21188
G1 X145.512 Y104.663 F10800.000
G1 F1800
G1 X119.539 Y78.690 E1.15582
G1 F8640
G1 X121.867 Y81.017 E-0.76000
G1 E-0.04000 F2100.00000
G1 Z0.800 F10800.000
G1 X120.819 Y79.434
G1 Z0.200
G1 E0.80000 F2100.00000
G1 F1800
G1 X145.517 Y104.132 E1.09905
G1 X145.514 Y103.594 F10800.000
G1 F1800
G1 X122.099 Y80.179 E1.04197
G1 F8640
G1 X124.426 Y82.506 E-0.76000
G1 E-0.04000 F2100.00000
G1 Z0.800 F10800.000
G1 X123.379 Y80.924
G1 Z0.200
G1 E0.80000 F2100.00000
G1 F1800
G1 X145.510 Y103.056 E0.98488
G1 X145.507 Y102.517 F10800.000
G1 F1800
G1 X124.765 Y81.775 E0.92305
G1 F8640
G1 X127.092 Y84.102 E-0.76000
G1 E-0.04000 F2100.00000
G1 Z0.800 F10800.000
G1 X126.200 Y82.674
G1 Z0.200
G1 E0.80000 F2100.00000
G1 F1800
G1 X145.466 Y101.941 E0.85737
G1 X145.361 Y101.301 F10800.000
G1 F1800
G1 X127.635 Y83.574 E0.78884
G1 F8640
G1 X129.962 Y85.902 E-0.76000
G1 E-0.04000 F2100.00000
G1 Z0.800 F10800.000
G1 X129.070 Y84.474
G1 Z0.200
G1 E0.80000 F2100.00000
G1 F1800
G1 X145.091 Y100.496 E0.71298
G1 F8640
G1 X142.764 Y98.168 E-0.76000
G1 E-0.04000 F2100.00000
G1 Z0.800 F10800.000
G1 X144.668 Y99.537
G1 Z0.200
G1 E0.80000 F2100.00000
G1 F1800
G1 X130.824 Y85.693 E0.61604
G1 F8640
G1 X133.152 Y88.021 E-0.76000
G1 E-0.04000 F2100.00000
G1 Z0.800 F10800.000
G1 X132.716 Y87.050
G1 Z0.200
G1 E0.80000 F2100.00000
G1 F1800
G1 X144.181 Y98.515 E0.51017
G1 F8640
G1 X141.853 Y96.187 E-0.76000
G1 E-0.04000 F2100.00000
G1 Z0.800 F10800.000
G1 X143.110 Y96.909
G1 Z0.200
G1 E0.80000 F2100.00000
G1 F1800
G1 X134.787 Y88.586 E0.37037
G1 F8640
G1 X137.114 Y90.913 E-0.76000
G1 E-0.04000 F2100.00000
G1 Z0.800 F10800.000
G1 X137.606 Y90.870
G1 Z0.200
G1 E0.80000 F2100.00000
G1 F1800
G1 X141.942 Y95.206 E0.19294
M106 S255
;BEFORE_LAYER_CHANGE
G92 E0.0
;0.4


G1 F8640
G1 X139.615 Y92.878 E-0.76000
G1 E-0.04000 F2100.00000
G1 Z0.800 F10800.000
;AFTER_LAYER_CHANGE
;0.4
M104 S210 ; set temperature
G1 X102.941 Y67.147
G1 Z0.400
G1 E0.80000 F2100.00000
G1 F3000
