; generated by Slic3r Prusa Edition 1.40.0+ on 2018-06-19 at 20:33:58

; 

; external perimeters extrusion width = 0.60mm
; perimeters extrusion width = 0.43mm
; infill extrusion width = 0.45mm
; solid infill extrusion width = 0.70mm
; top infill extrusion width = 0.43mm
; first layer extrusion width = 0.42mm

M107
M115 U3.1.0 ; tell printer latest fw version
M201 X9000 Y9000 Z500 E10000 ; sets maximum accelerations, mm/sec^2
M203 X500 Y500 Z12 E120 ; sets maximum feedrates, mm/sec
M204 S1500 T1500 ; sets acceleration (S) and retract acceleration (T)
M205 X10 Y10 Z0.2 E2.5 ; sets the jerk limits, mm/sec
M205 S0 T0 ; sets the minimum extruding and travel feed rate, mm/sec
M83  ; extruder relative mode
M104 S215 ; set extruder temp
M140 S60 ; set bed temp
M190 S60 ; wait for bed temp
M109 S215 ; wait for extruder temp
G28 W ; home all without mesh bed level
G80 ; mesh bed leveling
G1 Y-3.0 F1000.0 ; go outside print area
G92 E0.0
G1 X60.0 E9.0  F1000.0 ; intro line
G1 X100.0 E12.5  F1000.0 ; intro line
G92 E0.0
M900 K30; Filament gcode
G21 ; set units to millimeters
G90 ; use absolute coordinates
M83 ; use relative distances for extrusion
;BEFORE_LAYER_CHANGE
G92 E0.0
;0.2


G1 E-0.80000 F2100.00000
G1 Z0.600 F10800.000
;AFTER_LAYER_CHANGE
;0.2
G1 X53.457 Y37.464
G1 Z0.200
G1 E0.80000 F2100.00000
M204 S1000
G1 F1800
G1 X54.475 Y35.987 E0.05624
G1 X58.152 Y32.254 E0.16430
G1 X59.631 Y31.094 E0.05893
G1 X60.770 Y30.462 E0.04086
G1 X61.976 Y29.987 E0.04062
G1 X63.240 Y29.670 E0.04086
G1 X64.534 Y29.520 E0.04086
G1 X185.041 Y29.507 E3.77841
G1 X186.981 Y29.699 E0.06112
G1 X188.847 Y30.264 E0.06112
G1 X190.567 Y31.180 E0.06112
G1 X192.077 Y32.412 E0.06112
G1 X195.245 Y35.597 E0.14082
G1 X195.896 Y36.395 E0.03231
G1 X196.458 Y37.249 E0.03206
G1 X197.043 Y38.414 E0.04086
G1 X197.471 Y39.645 E0.04086
G1 X197.736 Y40.921 E0.04086
G1 X197.832 Y42.221 E0.04086
G1 X188.582 Y171.349 E4.05909
G1 X188.340 Y172.843 E0.04746
G1 X187.872 Y174.290 E0.04770
G1 X187.193 Y175.643 E0.04746
G1 X186.313 Y176.884 E0.04770
G1 X185.581 Y177.675 E0.03377
G1 X184.762 Y178.386 E0.03402
G1 X183.871 Y179.005 E0.03402
G1 X182.918 Y179.524 E0.03402
G1 X181.914 Y179.936 E0.03402
G1 X180.879 Y180.235 E0.03377
G1 X179.811 Y180.422 E0.03402
G1 X178.728 Y180.492 E0.03402
G1 X67.771 Y180.491 E3.47896
G1 X66.103 Y180.317 E0.05258
G1 X64.480 Y179.865 E0.05283
G1 X62.963 Y179.150 E0.05258
G1 X61.581 Y178.186 E0.05283
G1 X60.824 Y177.488 E0.03231
G1 X60.142 Y176.715 E0.03231
G1 X59.543 Y175.876 E0.03231
G1 X59.031 Y174.973 E0.03255
G1 X58.618 Y174.029 E0.03231
G1 X58.302 Y173.040 E0.03255
G1 X58.092 Y172.031 E0.03231
G1 X57.986 Y170.999 E0.03255
G1 X52.171 Y42.630 E4.02903
G1 X52.286 Y40.840 E0.05624
G1 X52.719 Y39.099 E0.05624
G1 X53.432 Y37.519 E0.05436
G1 F8640
G1 X54.475 Y35.987 E-0.42783
G1 X55.484 Y34.962 E-0.33217
G1 E-0.04000 F2100.00000
G1 Z0.800 F10800.000
G1 X53.180 Y38.928
G1 Z0.200
G1 E0.80000 F2100.00000
G1 F1800
G1 X54.890 Y36.040 E0.10521
G1 X59.472 Y31.653 E0.19890
G1 X61.836 Y30.427 E0.08351
G1 X64.382 Y29.884 E0.08162
G1 X185.671 Y29.888 E3.80293
G1 X188.237 Y30.431 E0.08225
G1 X190.557 Y31.619 E0.08173
G1 X194.961 Y35.826 E0.19094
G1 X196.113 Y37.388 E0.06087
G1 X196.950 Y39.177 E0.06192
G1 X197.474 Y42.391 E0.10210
G1 X188.162 Y171.942 E4.07247
G1 X187.470 Y174.351 E0.07858
G1 X186.183 Y176.487 E0.07820
G1 X183.420 Y178.883 E0.11466
G1 X181.571 Y179.678 E0.06310
G1 X179.374 Y180.116 E0.07025
G1 X67.180 Y180.116 E3.51774
G1 X64.312 Y179.428 E0.09248
G1 X61.832 Y177.939 E0.09072
G1 X60.763 Y176.893 E0.04686
G1 X59.823 Y175.697 E0.04771
G1 X58.402 Y171.850 E0.12860
G1 X52.526 Y42.166 E4.07033
G1 X53.168 Y38.986 E0.10170
G1 X53.538 Y39.062 F10800.000
G1 F1800
G1 X55.169 Y36.295 E0.10072
G1 X59.670 Y31.975 E0.19561
G1 X61.940 Y30.790 E0.08029
G1 X64.402 Y30.262 E0.07895
G1 X185.651 Y30.265 E3.80169
G1 X188.088 Y30.778 E0.07807
G1 X190.361 Y31.942 E0.08007
G1 X194.688 Y36.087 E0.18786
G1 X195.798 Y37.596 E0.05875
G1 X196.597 Y39.313 E0.05936
G1 X197.096 Y42.386 E0.09762
G1 X187.788 Y171.896 E4.07117
G1 X187.134 Y174.178 E0.07442
G1 X185.875 Y176.267 E0.07649
G1 X183.244 Y178.549 E0.10919
G1 X181.477 Y179.312 E0.06035
G1 X179.355 Y179.738 E0.06787
G1 X67.202 Y179.738 E3.51646
G1 X64.481 Y179.090 E0.08773
G1 X62.079 Y177.653 E0.08774
G1 X61.050 Y176.649 E0.04507
G1 X60.166 Y175.537 E0.04455
G1 X58.778 Y171.803 E0.12490
G1 X52.903 Y42.172 E4.06867
G1 X53.526 Y39.120 E0.09764
G1 X53.884 Y39.198 F10800.000
G1 F1800
G1 X55.449 Y36.548 E0.09650
G1 X59.869 Y32.296 E0.19231
G1 X62.045 Y31.153 E0.07707
G1 X64.422 Y30.639 E0.07625
G1 X185.632 Y30.642 E3.80043
G1 X187.985 Y31.141 E0.07542
G1 X190.163 Y32.265 E0.07686
G1 X194.415 Y36.347 E0.18481
G1 X195.482 Y37.804 E0.05663
G1 X196.244 Y39.448 E0.05680
G1 X196.718 Y42.381 E0.09316
G1 X187.413 Y171.849 E4.06987
G1 X186.778 Y174.049 E0.07178
G1 X185.568 Y176.047 E0.07324
G1 X183.067 Y178.215 E0.10378
G1 X181.382 Y178.946 E0.05760
G1 X179.336 Y179.361 E0.06547
G1 X67.225 Y179.361 E3.51516
G1 X64.597 Y178.730 E0.08474
G1 X62.326 Y177.368 E0.08302
G1 X61.338 Y176.405 E0.04327
G1 X60.479 Y175.326 E0.04324
G1 X59.153 Y171.757 E0.11938
G1 X53.281 Y42.178 E4.06703
G1 X53.872 Y39.257 E0.09343
G1 X54.242 Y39.333 F10800.000
G1 F1800
G1 X55.729 Y36.802 E0.09204
G1 X60.069 Y32.616 E0.18905
G1 X62.151 Y31.516 E0.07384
G1 X64.443 Y31.016 E0.07354
G1 X185.611 Y31.019 E3.79916
G1 X187.881 Y31.505 E0.07276
G1 X189.965 Y32.587 E0.07364
G1 X194.141 Y36.607 E0.18176
G1 X195.166 Y38.011 E0.05450
G1 X195.891 Y39.582 E0.05424
G1 X196.341 Y42.375 E0.08872
G1 X187.038 Y171.802 E4.06855
G1 X186.423 Y173.919 E0.06913
G1 X185.261 Y175.825 E0.06999
G1 X182.890 Y177.881 E0.09840
G1 X181.287 Y178.581 E0.05485
G1 X179.317 Y178.984 E0.06306
G1 X67.247 Y178.984 E3.51387
G1 X64.765 Y178.391 E0.07999
G1 X62.573 Y177.082 E0.08006
G1 X61.626 Y176.161 E0.04144
G1 X60.793 Y175.114 E0.04192
G1 X59.528 Y171.710 E0.11386
G1 X53.659 Y42.184 E4.06537
G1 X54.230 Y39.391 E0.08937
G1 X54.588 Y39.469 F10800.000
G1 F1800
G1 X56.010 Y37.055 E0.08783
G1 X60.270 Y32.937 E0.18579
G1 X62.258 Y31.878 E0.07061
G1 X64.463 Y31.393 E0.07081
G1 X185.591 Y31.396 E3.79788
G1 X187.776 Y31.868 E0.07007
G1 X189.766 Y32.908 E0.07042
G1 X193.868 Y36.867 E0.17874
G1 X194.832 Y38.186 E0.05122
G1 X195.537 Y39.716 E0.05283
G1 X195.963 Y42.370 E0.08427
G1 X186.664 Y171.755 E4.06724
G1 X186.069 Y173.789 E0.06645
G1 X184.955 Y175.603 E0.06674
G1 X182.712 Y177.547 E0.09307
G1 X181.191 Y178.216 E0.05211
G1 X179.297 Y178.607 E0.06062
G1 X67.269 Y178.607 E3.51255
G1 X64.882 Y178.032 E0.07700
G1 X62.820 Y176.796 E0.07536
G1 X61.913 Y175.916 E0.03962
G1 X61.107 Y174.903 E0.04060
G1 X59.904 Y171.664 E0.10833
G1 X54.037 Y42.190 E4.06373
G1 X54.576 Y39.528 E0.08517
G1 X54.945 Y39.603 F10800.000
G1 F1800
G1 X56.290 Y37.308 E0.08340
G1 X60.472 Y33.256 E0.18256
G1 X62.365 Y32.241 E0.06738
G1 X64.484 Y31.770 E0.06806
G1 X185.571 Y31.774 E3.79659
G1 X187.670 Y32.231 E0.06737
G1 X189.566 Y33.229 E0.06719
G1 X193.594 Y37.127 E0.17572
G1 X194.516 Y38.392 E0.04910
G1 X195.184 Y39.850 E0.05027
G1 X195.585 Y42.364 E0.07984
G1 X186.289 Y171.707 E4.06592
G1 X185.714 Y173.658 E0.06375
G1 X184.650 Y175.380 E0.06349
G1 X182.534 Y177.214 E0.08779
G1 X181.094 Y177.851 E0.04937
G1 X179.278 Y178.230 E0.05817
G1 X67.291 Y178.230 E3.51125
G1 X65.050 Y177.693 E0.07226
G1 X63.066 Y176.510 E0.07242
G1 X62.199 Y175.670 E0.03787
G1 X61.449 Y174.741 E0.03741
G1 X60.279 Y171.617 E0.10460
G1 X54.414 Y42.196 E4.06206
G1 X54.933 Y39.662 E0.08111
G1 X55.292 Y39.739 F10800.000
G1 F1800
G1 X56.572 Y37.561 E0.07921
G1 X60.673 Y33.576 E0.17930
G1 X62.521 Y32.585 E0.06573
G1 X64.505 Y32.147 E0.06371
G1 X185.550 Y32.151 E3.79530
G1 X187.564 Y32.593 E0.06464
G1 X189.366 Y33.549 E0.06396
G1 X193.319 Y37.386 E0.17273
G1 X194.199 Y38.598 E0.04698
G1 X194.830 Y39.983 E0.04770
G1 X195.208 Y42.359 E0.07544
G1 X185.914 Y171.660 E4.06461
G1 X185.380 Y173.482 E0.05954
G1 X184.380 Y175.115 E0.06003
G1 X182.354 Y176.881 E0.08426
G1 X180.996 Y177.486 E0.04662
G1 X179.258 Y177.853 E0.05570
G1 X67.314 Y177.853 E3.50992
G1 X65.167 Y177.333 E0.06926
G1 X63.313 Y176.224 E0.06775
G1 X62.485 Y175.424 E0.03610
G1 X61.761 Y174.528 E0.03609
G1 X60.655 Y171.571 E0.09902
G1 X54.792 Y42.202 E4.06041
G1 X55.280 Y39.798 E0.07693
G1 X55.649 Y39.874 F10800.000
G1 F1800
G1 X56.853 Y37.813 E0.07481
G1 X60.876 Y33.895 E0.17608
G1 X62.629 Y32.947 E0.06248
G1 X64.526 Y32.524 E0.06094
G1 X185.530 Y32.528 E3.79401
G1 X187.410 Y32.938 E0.06033
G1 X189.165 Y33.870 E0.06230
G1 X193.044 Y37.644 E0.16970
G1 X193.882 Y38.804 E0.04485
G1 X194.476 Y40.115 E0.04513
G1 X194.830 Y42.353 E0.07106
G1 X185.540 Y171.613 E4.06329
G1 X185.025 Y173.351 E0.05684
G1 X184.074 Y174.893 E0.05681
G1 X182.174 Y176.549 E0.07902
G1 X180.897 Y177.122 E0.04388
G1 X179.238 Y177.476 E0.05321
G1 X67.336 Y177.476 E3.50859
G1 X65.335 Y176.995 E0.06453
G1 X63.559 Y175.937 E0.06483
G1 X62.770 Y175.178 E0.03431
G1 X62.074 Y174.315 E0.03477
G1 X61.030 Y171.524 E0.09343
G1 X55.170 Y42.209 E4.05874
G1 X55.637 Y39.933 E0.07286
G1 X55.996 Y40.009 F10800.000
G1 F1800
G1 X57.134 Y38.065 E0.07063
G1 X61.079 Y34.214 E0.17287
G1 X62.738 Y33.309 E0.05922
G1 X64.547 Y32.901 E0.05815
G1 X185.509 Y32.905 E3.79270
G1 X187.303 Y33.301 E0.05759
G1 X188.963 Y34.189 E0.05905
G1 X192.769 Y37.903 E0.16671
G1 X193.565 Y39.008 E0.04271
G1 X194.122 Y40.246 E0.04256
G1 X194.452 Y42.348 E0.06670
G1 X185.165 Y171.565 E4.06196
G1 X184.671 Y173.218 E0.05411
G1 X183.769 Y174.670 E0.05358
G1 X181.993 Y176.217 E0.07384
G1 X180.798 Y176.758 E0.04115
G1 X179.217 Y177.099 E0.05069
G1 X67.359 Y177.099 E3.50724
G1 X65.452 Y176.635 E0.06153
G1 X63.804 Y175.650 E0.06019
G1 X63.056 Y174.931 E0.03253
G1 X62.386 Y174.102 E0.03344
G1 X61.405 Y171.477 E0.08784
G1 X55.548 Y42.215 E4.05710
G1 X55.985 Y40.068 E0.06869
G1 X56.354 Y40.144 F10800.000
G1 F1800
G1 X57.416 Y38.317 E0.06626
G1 X61.284 Y34.531 E0.16970
G1 X62.848 Y33.671 E0.05596
G1 X64.568 Y33.278 E0.05533
G1 X185.488 Y33.282 E3.79137
G1 X187.195 Y33.663 E0.05482
G1 X188.761 Y34.508 E0.05580
G1 X192.494 Y38.161 E0.16375
G1 X193.229 Y39.180 E0.03941
G1 X193.767 Y40.378 E0.04117
G1 X194.075 Y42.342 E0.06234
G1 X184.791 Y171.517 E4.06063
G1 X184.318 Y173.085 E0.05135
G1 X183.465 Y174.446 E0.05036
G1 X181.812 Y175.885 E0.06873
G1 X180.697 Y176.394 E0.03842
G1 X179.197 Y176.722 E0.04815
G1 X67.381 Y176.722 E3.50590
G1 X65.620 Y176.296 E0.05680
G1 X64.050 Y175.363 E0.05729
G1 X63.340 Y174.683 E0.03083
G1 X62.728 Y173.938 E0.03021
G1 X61.781 Y171.430 E0.08406
G1 X55.925 Y42.221 E4.05541
G1 X56.341 Y40.203 E0.06462
G1 X56.701 Y40.279 F10800.000
G1 F1800
G1 X57.698 Y38.569 E0.06208
G1 X61.490 Y34.848 E0.16654
G1 X62.959 Y34.032 E0.05270
G1 X64.590 Y33.655 E0.05248
G1 X185.467 Y33.659 E3.79002
G1 X187.085 Y34.025 E0.05202
G1 X188.557 Y34.827 E0.05254
G1 X192.218 Y38.418 E0.16080
G1 X192.911 Y39.384 E0.03728
G1 X193.413 Y40.508 E0.03859
G1 X193.697 Y42.336 E0.05801
G1 X184.416 Y171.468 E4.05930
G1 X183.965 Y172.950 E0.04857
G1 X183.161 Y174.221 E0.04714
G1 X181.629 Y175.554 E0.06367
G1 X180.595 Y176.030 E0.03570
G1 X179.176 Y176.345 E0.04558
G1 X67.404 Y176.345 E3.50453
G1 X65.738 Y175.937 E0.05379
G1 X64.295 Y175.076 E0.05269
G1 X63.624 Y174.434 E0.02911
G1 X63.039 Y173.723 E0.02888
G1 X62.156 Y171.383 E0.07840
G1 X56.303 Y42.227 E4.05375
G1 X56.689 Y40.338 E0.06047
G1 X57.043 Y40.441 F10800.000
G1 F1800
G1 X57.981 Y38.819 E0.05874
G1 X61.696 Y35.164 E0.16340
G1 X63.072 Y34.393 E0.04944
G1 X64.612 Y34.032 E0.04960
G1 X185.446 Y34.036 E3.78866
G1 X186.975 Y34.386 E0.04920
G1 X188.352 Y35.144 E0.04928
G1 X191.942 Y38.675 E0.15788
G1 X192.593 Y39.587 E0.03514
G1 X193.058 Y40.638 E0.03601
G1 X193.319 Y42.330 E0.05370
G1 X184.041 Y171.420 E4.05795
G1 X183.612 Y172.814 E0.04575
G1 X182.858 Y173.995 E0.04392
G1 X181.446 Y175.223 E0.05870
G1 X180.492 Y175.667 E0.03299
G1 X179.155 Y175.968 E0.04298
G1 X67.426 Y175.968 E3.50316
G1 X65.905 Y175.598 E0.04907
G1 X64.540 Y174.788 E0.04979
G1 X63.893 Y174.170 E0.02806
G1 X63.350 Y173.508 E0.02684
G1 X62.531 Y171.337 E0.07275
G1 X56.681 Y42.233 E4.05210
G1 X57.031 Y40.499 E0.05546
G1 X57.400 Y40.575 F10800.000
G1 F1800
G1 X58.264 Y39.070 E0.05441
G1 X61.904 Y35.480 E0.16031
G1 X63.185 Y34.753 E0.04617
G1 X64.634 Y34.409 E0.04669
G1 X185.424 Y34.413 E3.78728
G1 X186.863 Y34.747 E0.04634
G1 X188.146 Y35.461 E0.04602
G1 X191.665 Y38.932 E0.15498
G1 X192.274 Y39.790 E0.03299
G1 X192.702 Y40.766 E0.03343
G1 X192.942 Y42.324 E0.04943
G1 X183.667 Y171.371 E4.05660
G1 X183.260 Y172.677 E0.04290
G1 X182.556 Y173.767 E0.04070
G1 X181.262 Y174.893 E0.05379
G1 X180.388 Y175.304 E0.03028
G1 X179.133 Y175.591 E0.04034
G1 X67.449 Y175.591 E3.50176
G1 X66.023 Y175.239 E0.04606
G1 X64.785 Y174.501 E0.04520
G1 X64.162 Y173.905 E0.02704
G1 X63.661 Y173.293 E0.02479
G1 X62.907 Y171.290 E0.06711
G1 X57.059 Y42.240 E4.05043
G1 X57.388 Y40.634 E0.05140
G1 X57.748 Y40.708 F10800.000
G1 F1800
G1 X58.547 Y39.320 E0.05022
G1 X62.114 Y35.794 E0.15724
G1 X63.301 Y35.114 E0.04290
G1 X64.657 Y34.787 E0.04374
G1 X185.403 Y34.790 E3.78590
G1 X186.703 Y35.090 E0.04186
G1 X187.940 Y35.778 E0.04437
G1 X191.388 Y39.188 E0.15204
G1 X191.955 Y39.991 E0.03082
G1 X192.347 Y40.893 E0.03085
G1 X192.564 Y42.318 E0.04519
G1 X183.292 Y171.322 E4.05527
G1 X182.928 Y172.496 E0.03853
G1 X182.287 Y173.502 E0.03742
G1 X181.076 Y174.564 E0.05051
G1 X180.282 Y174.942 E0.02756
G1 X179.111 Y175.213 E0.03768
G1 X67.472 Y175.213 E3.50037
G1 X66.191 Y174.900 E0.04135
G1 X65.030 Y174.213 E0.04231
G1 X64.431 Y173.641 E0.02598
G1 X63.973 Y173.079 E0.02273
G1 X63.282 Y171.243 E0.06150
G1 X57.436 Y42.246 E4.04878
G1 X57.736 Y40.767 E0.04731
G1 X58.105 Y40.843 F10800.000
G1 F1800
G1 X58.831 Y39.570 E0.04593
G1 X62.324 Y36.108 E0.15422
G1 X63.417 Y35.473 E0.03964
G1 X64.680 Y35.164 E0.04075
G1 X185.380 Y35.167 E3.78449
G1 X186.591 Y35.451 E0.03897
G1 X187.733 Y36.094 E0.04109
G1 X191.110 Y39.444 E0.14916
G1 X191.635 Y40.191 E0.02863
G1 X191.991 Y41.020 E0.02827
G1 X192.187 Y42.312 E0.04098
G1 X182.918 Y171.273 E4.05391
G1 X182.577 Y172.358 E0.03566
G1 X181.985 Y173.275 E0.03423
G1 X180.889 Y174.236 E0.04569
G1 X180.174 Y174.580 E0.02486
G1 X179.089 Y174.836 E0.03497
G1 X67.495 Y174.836 E3.49894
G1 X66.309 Y174.541 E0.03832
G1 X65.275 Y173.926 E0.03774
G1 X64.700 Y173.376 E0.02493
G1 X64.285 Y172.865 E0.02065
G1 X63.657 Y171.196 E0.05590
G1 X57.814 Y42.252 E4.04710
G1 X58.093 Y40.902 E0.04324
G1 X58.453 Y40.975 F10800.000
G1 F1800
G1 X59.115 Y39.819 E0.04175
G1 X62.536 Y36.420 E0.15122
G1 X63.536 Y35.832 E0.03637
G1 X64.703 Y35.541 E0.03772
G1 X185.358 Y35.544 E3.78304
G1 X186.476 Y35.811 E0.03604
G1 X187.523 Y36.408 E0.03780
G1 X190.832 Y39.700 E0.14633
G1 X191.296 Y40.358 E0.02525
G1 X191.635 Y41.146 E0.02689
G1 X191.809 Y42.305 E0.03676
G1 X182.543 Y171.223 E4.05255
G1 X182.226 Y172.218 E0.03275
G1 X181.684 Y173.047 E0.03106
G1 X180.701 Y173.908 E0.04097
G1 X180.065 Y174.218 E0.02217
G1 X179.066 Y174.459 E0.03222
G1 X67.518 Y174.459 E3.49751
G1 X66.477 Y174.202 E0.03363
G1 X65.519 Y173.638 E0.03484
G1 X64.969 Y173.112 E0.02385
G1 X64.597 Y172.652 E0.01857
G1 X64.033 Y171.150 E0.05031
G1 X58.192 Y42.258 E4.04545
G1 X58.441 Y41.034 E0.03918
G1 X58.810 Y41.111 F10800.000
G1 F1800
G1 X59.398 Y40.069 E0.03751
G1 X62.750 Y36.732 E0.14830
G1 X63.656 Y36.190 E0.03310
G1 X64.727 Y35.918 E0.03464
G1 X185.335 Y35.921 E3.78157
G1 X186.360 Y36.171 E0.03307
G1 X187.313 Y36.722 E0.03452
G1 X190.554 Y39.954 E0.14352
G1 X190.975 Y40.557 E0.02306
G1 X191.278 Y41.271 E0.02430
G1 X191.431 Y42.299 E0.03260
G1 X182.169 Y171.173 E4.05117
G1 X181.875 Y172.077 E0.02982
G1 X181.414 Y172.782 E0.02639
G1 X180.510 Y173.582 E0.03786
G1 X179.954 Y173.857 E0.01947
G1 X179.043 Y174.082 E0.02942
G1 X67.542 Y174.082 E3.49604
G1 X66.596 Y173.844 E0.03059
G1 X65.765 Y173.351 E0.03030
G1 X65.239 Y172.848 E0.02279
G1 X64.910 Y172.439 E0.01646
G1 X64.408 Y171.103 E0.04476
G1 X58.570 Y42.265 E4.04376
G1 X58.798 Y41.169 E0.03509
G1 X59.159 Y41.244 F10800.000
G1 F1800
G1 X59.683 Y40.317 E0.03337
G1 X62.966 Y37.042 E0.14540
