; generated by Slic3r Prusa Edition 1.40.0+ on 2018-06-19 at 17:03:27

; 

; external perimeters extrusion width = 0.60mm
; perimeters extrusion width = 0.43mm
; infill extrusion width = 0.45mm
; solid infill extrusion width = 0.70mm
; top infill extrusion width = 0.43mm
; first layer extrusion width = 0.42mm

M107
M115 U3.1.0 ; tell printer latest fw version
M201 X9000 Y9000 Z500 E10000 ; sets maximum accelerations, mm/sec^2
M203 X500 Y500 Z12 E120 ; sets maximum feedrates, mm/sec
M204 S1500 T1500 ; sets acceleration (S) and retract acceleration (T)
M205 X10 Y10 Z0.2 E2.5 ; sets the jerk limits, mm/sec
M205 S0 T0 ; sets the minimum extruding and travel feed rate, mm/sec
M83  ; extruder relative mode
M104 S215 ; set extruder temp
M140 S60 ; set bed temp
M190 S60 ; wait for bed temp
M109 S215 ; wait for extruder temp
G28 W ; home all without mesh bed level
G80 ; mesh bed leveling
G1 Y-3.0 F1000.0 ; go outside print area
G92 E0.0
G1 X60.0 E9.0  F1000.0 ; intro line
G1 X100.0 E12.5  F1000.0 ; intro line
G92 E0.0
M900 K30; Filament gcode
G21 ; set units to millimeters
G90 ; use absolute coordinates
M83 ; use relative distances for extrusion
;BEFORE_LAYER_CHANGE
G92 E0.0
;0.2


G1 E-0.80000 F2100.00000
G1 Z0.600 F10800.000
;AFTER_LAYER_CHANGE
;0.2
G1 X53.688 Y41.453
G1 Z0.200
G1 E0.80000 F2100.00000
M204 S1000
G1 F1800
G1 X54.935 Y39.934 E0.06161
G1 X56.402 Y38.723 E0.05966
G1 X58.072 Y37.812 E0.05966
G1 X59.885 Y37.234 E0.05966
G1 X61.782 Y37.010 E0.05990
G1 X188.008 Y37.007 E3.95771
G1 X189.886 Y37.187 E0.05917
G1 X191.705 Y37.720 E0.05941
G1 X193.384 Y38.582 E0.05917
G1 X194.876 Y39.749 E0.05941
G1 X196.117 Y41.171 E0.05917
G1 X197.071 Y42.808 E0.05941
G1 X197.699 Y44.596 E0.05941
G1 X197.979 Y46.470 E0.05941
G1 X197.990 Y163.234 E3.66106
G1 X197.766 Y165.116 E0.05941
G1 X197.188 Y166.929 E0.05966
G1 X196.277 Y168.599 E0.05966
G1 X195.065 Y170.066 E0.05966
G1 X193.598 Y171.277 E0.05966
G1 X191.928 Y172.188 E0.05966
G1 X190.115 Y172.766 E0.05966
G1 X188.218 Y172.990 E0.05990
G1 X62.000 Y172.993 E3.95747
G1 X60.052 Y172.801 E0.06136
G1 X58.179 Y172.233 E0.06136
G1 X56.453 Y171.312 E0.06136
G1 X54.934 Y170.065 E0.06161
G1 X53.727 Y168.605 E0.05941
G1 X52.815 Y166.935 E0.05966
G1 X52.237 Y165.130 E0.05941
G1 X52.010 Y163.241 E0.05966
G1 X52.007 Y47.000 E3.64466
G1 X52.199 Y45.052 E0.06136
G1 X52.767 Y43.179 E0.06136
G1 X53.660 Y41.506 E0.05948
G1 F8640
G1 X54.935 Y39.934 E-0.46728
G1 X55.912 Y39.127 E-0.29272
G1 E-0.04000 F2100.00000
G1 Z0.800 F10800.000
G1 X181.073 Y169.616
G1 Z0.200
G1 E0.80000 F2100.00000
G1 F1800
G1 X68.916 Y169.616 E3.51659
G1 X67.312 Y171.082 E0.06813
G1 X65.031 Y172.221 E0.07994
G1 X61.858 Y172.700 E0.10064
G1 X59.613 Y172.366 E0.07115
G1 X57.518 Y171.557 E0.07043
G1 X55.128 Y169.848 E0.09211
G1 X53.254 Y167.201 E0.10168
G1 X52.384 Y163.987 E0.10440
G1 X52.384 Y46.347 E3.68854
G1 X52.719 Y44.361 E0.06313
G1 X53.463 Y42.471 E0.06369
G1 X55.301 Y40.078 E0.09462
G1 X58.005 Y38.217 E0.10290
G1 X61.173 Y37.384 E0.10272
G1 X188.710 Y37.388 E3.99882
G1 X190.688 Y37.733 E0.06296
G1 X192.542 Y38.470 E0.06256
G1 X194.925 Y40.304 E0.09426
G1 X196.783 Y43.005 E0.10281
G1 X197.616 Y46.173 E0.10270
G1 X197.616 Y164.015 E3.69484
G1 X196.725 Y167.244 E0.10504
G1 X194.779 Y169.941 E0.10426
G1 X192.660 Y171.451 E0.08160
G1 X190.236 Y172.408 E0.08171
G1 X187.631 Y172.694 E0.08215
G1 X184.768 Y172.151 E0.09139
G1 X182.568 Y170.998 E0.07787
G1 X181.117 Y169.656 E0.06198
G1 X181.221 Y169.238 F10800.000
G1 F1800
G1 X68.768 Y169.238 E3.52588
G1 X67.120 Y170.756 E0.07027
G1 X64.889 Y171.871 E0.07816
G1 X61.885 Y172.323 E0.09528
G1 X59.729 Y172.006 E0.06831
G1 X57.676 Y171.214 E0.06900
G1 X55.374 Y169.561 E0.08886
G1 X53.582 Y167.012 E0.09769
G1 X52.762 Y163.962 E0.09901
G1 X52.762 Y46.363 E3.68726
G1 X53.087 Y44.444 E0.06102
G1 X53.804 Y42.635 E0.06100
G1 X55.582 Y40.332 E0.09124
G1 X58.133 Y38.573 E0.09715
G1 X61.198 Y37.762 E0.09941
G1 X188.694 Y37.765 E3.99754
G1 X190.567 Y38.090 E0.05961
G1 X192.378 Y38.811 E0.06111
G1 X194.671 Y40.584 E0.09088
G1 X196.427 Y43.133 E0.09706
G1 X197.238 Y46.198 E0.09939
G1 X197.238 Y163.990 E3.69328
G1 X196.398 Y167.052 E0.09957
G1 X194.534 Y169.652 E0.10030
G1 X192.460 Y171.130 E0.07988
G1 X190.122 Y172.048 E0.07874
G1 X187.619 Y172.317 E0.07893
G1 X184.918 Y171.804 E0.08620
G1 X182.766 Y170.676 E0.07620
G1 X181.265 Y169.279 E0.06428
G1 X181.371 Y168.861 F10800.000
G1 F1800
G1 X68.620 Y168.861 E3.53522
G1 X66.927 Y170.431 E0.07240
G1 X64.747 Y171.520 E0.07638
G1 X61.912 Y171.946 E0.08990
G1 X59.805 Y171.636 E0.06677
G1 X57.835 Y170.871 E0.06626
G1 X55.621 Y169.274 E0.08561
G1 X53.910 Y166.824 E0.09370
G1 X53.139 Y163.938 E0.09365
G1 X53.139 Y46.379 E3.68599
G1 X53.455 Y44.527 E0.05890
G1 X54.144 Y42.800 E0.05831
G1 X55.861 Y40.586 E0.08784
G1 X58.319 Y38.903 E0.09340
G1 X61.222 Y38.139 E0.09412
G1 X188.677 Y38.142 E3.99626
G1 X190.482 Y38.458 E0.05746
G1 X192.213 Y39.151 E0.05845
G1 X194.416 Y40.863 E0.08749
G1 X196.097 Y43.319 E0.09332
G1 X196.861 Y46.222 E0.09411
G1 X196.861 Y163.964 E3.69172
G1 X196.044 Y166.919 E0.09612
G1 X194.248 Y169.405 E0.09619
G1 X192.261 Y170.809 E0.07626
G1 X190.009 Y171.687 E0.07580
G1 X187.607 Y171.939 E0.07571
G1 X185.068 Y171.457 E0.08103
G1 X182.963 Y170.354 E0.07451
G1 X181.415 Y168.902 E0.06656
G1 X181.521 Y168.484 F10800.000
G1 F1800
G1 X68.471 Y168.484 E3.54460
G1 X66.734 Y170.106 E0.07453
G1 X64.606 Y171.169 E0.07459
G1 X61.939 Y171.569 E0.08456
G1 X59.922 Y171.277 E0.06390
G1 X57.994 Y170.529 E0.06482
G1 X55.868 Y168.987 E0.08235
G1 X54.266 Y166.694 E0.08772
G1 X53.516 Y163.913 E0.09030
G1 X53.516 Y46.395 E3.68470
G1 X53.813 Y44.648 E0.05554
G1 X54.484 Y42.964 E0.05684
G1 X56.140 Y40.842 E0.08442
G1 X58.504 Y39.233 E0.08965
G1 X61.246 Y38.516 E0.08886
G1 X188.660 Y38.519 E3.99499
G1 X190.397 Y38.826 E0.05529
G1 X192.047 Y39.491 E0.05577
G1 X194.160 Y41.142 E0.08410
G1 X195.767 Y43.504 E0.08958
G1 X196.484 Y46.246 E0.08885
G1 X196.484 Y163.938 E3.69015
G1 X195.690 Y166.784 E0.09265
G1 X193.962 Y169.157 E0.09206
G1 X192.064 Y170.487 E0.07264
G1 X189.897 Y171.326 E0.07288
G1 X187.596 Y171.561 E0.07250
G1 X185.219 Y171.110 E0.07588
G1 X183.162 Y170.032 E0.07281
G1 X181.565 Y168.525 E0.06885
G1 X181.672 Y168.107 F10800.000
G1 F1800
G1 X68.321 Y168.107 E3.55402
G1 X66.540 Y169.781 E0.07664
G1 X64.464 Y170.819 E0.07278
G1 X61.965 Y171.192 E0.07920
G1 X59.997 Y170.907 E0.06235
G1 X58.155 Y170.186 E0.06203
G1 X56.116 Y168.702 E0.07909
G1 X54.594 Y166.506 E0.08375
G1 X53.893 Y163.888 E0.08497
G1 X53.893 Y46.411 E3.68343
G1 X54.181 Y44.732 E0.05340
G1 X54.824 Y43.130 E0.05412
G1 X56.419 Y41.097 E0.08101
G1 X58.632 Y39.589 E0.08396
G1 X61.271 Y38.893 E0.08557
G1 X188.644 Y38.896 E3.99369
G1 X190.311 Y39.194 E0.05311
G1 X191.880 Y39.830 E0.05309
G1 X193.904 Y41.421 E0.08072
G1 X195.411 Y43.632 E0.08390
G1 X196.107 Y46.270 E0.08556
G1 X196.107 Y163.913 E3.68859
G1 X195.365 Y166.591 E0.08714
G1 X193.719 Y168.867 E0.08806
G1 X191.867 Y170.165 E0.07091
G1 X189.786 Y170.965 E0.06992
G1 X187.586 Y171.183 E0.06929
G1 X185.369 Y170.763 E0.07076
G1 X183.360 Y169.711 E0.07111
G1 X181.715 Y168.149 E0.07112
G1 X181.822 Y167.730 F10800.000
G1 F1800
G1 X68.171 Y167.730 E3.56346
G1 X66.346 Y169.457 E0.07875
G1 X64.322 Y170.468 E0.07096
G1 X61.991 Y170.815 E0.07388
G1 X60.114 Y170.548 E0.05945
G1 X58.314 Y169.844 E0.06059
G1 X56.406 Y168.460 E0.07392
G1 X54.950 Y166.375 E0.07972
G1 X54.270 Y163.863 E0.08160
G1 X54.270 Y46.427 E3.68213
G1 X54.549 Y44.817 E0.05124
G1 X55.163 Y43.297 E0.05140
G1 X56.697 Y41.354 E0.07760
G1 X58.816 Y39.919 E0.08025
G1 X61.295 Y39.270 E0.08034
G1 X188.627 Y39.274 E3.99241
G1 X190.224 Y39.561 E0.05090
G1 X191.713 Y40.169 E0.05041
G1 X193.647 Y41.698 E0.07732
G1 X195.081 Y43.816 E0.08019
G1 X195.730 Y46.294 E0.08033
G1 X195.730 Y163.887 E3.68702
G1 X195.011 Y166.456 E0.08366
G1 X193.434 Y168.619 E0.08392
G1 X191.671 Y169.841 E0.06726
G1 X189.675 Y170.604 E0.06699
G1 X187.577 Y170.805 E0.06609
G1 X185.518 Y170.416 E0.06570
G1 X183.600 Y169.419 E0.06777
G1 X181.866 Y167.771 E0.07501
G1 X181.974 Y167.353 F10800.000
G1 F1800
G1 X68.021 Y167.353 E3.57292
G1 X66.108 Y169.163 E0.08257
G1 X64.181 Y170.117 E0.06740
G1 X62.017 Y170.438 E0.06859
G1 X60.189 Y170.177 E0.05790
G1 X58.475 Y169.502 E0.05776
G1 X56.654 Y168.174 E0.07067
G1 X55.278 Y166.188 E0.07576
G1 X54.647 Y163.839 E0.07628
G1 X54.647 Y46.444 E3.68084
G1 X54.917 Y44.902 E0.04907
G1 X55.502 Y43.464 E0.04867
G1 X56.974 Y41.611 E0.07420
G1 X58.944 Y40.276 E0.07462
G1 X61.319 Y39.647 E0.07705
G1 X188.610 Y39.651 E3.99111
G1 X190.100 Y39.918 E0.04748
G1 X191.545 Y40.508 E0.04893
G1 X193.390 Y41.975 E0.07391
G1 X194.724 Y43.944 E0.07457
G1 X195.353 Y46.319 E0.07704
G1 X195.353 Y163.861 E3.68545
G1 X194.686 Y166.263 E0.07816
G1 X193.192 Y168.327 E0.07988
G1 X191.475 Y169.518 E0.06552
G1 X189.566 Y170.242 E0.06403
G1 X187.569 Y170.427 E0.06287
G1 X185.617 Y170.051 E0.06234
G1 X183.799 Y169.098 E0.06436
G1 X182.017 Y167.394 E0.07729
G1 X182.126 Y166.976 F10800.000
G1 F1800
G1 X67.870 Y166.976 E3.58243
G1 X65.915 Y168.838 E0.08464
G1 X64.041 Y169.765 E0.06555
G1 X61.992 Y170.061 E0.06493
G1 X60.266 Y169.808 E0.05467
G1 X58.637 Y169.161 E0.05496
G1 X56.904 Y167.889 E0.06742
G1 X55.608 Y166.002 E0.07179
G1 X55.024 Y163.814 E0.07098
G1 X55.024 Y46.460 E3.67956
G1 X55.274 Y45.025 E0.04565
G1 X55.841 Y43.632 E0.04717
G1 X57.250 Y41.869 E0.07075
G1 X59.127 Y40.606 E0.07095
G1 X61.343 Y40.024 E0.07184
G1 X188.593 Y40.028 E3.98982
G1 X190.013 Y40.285 E0.04526
G1 X191.377 Y40.846 E0.04622
G1 X193.132 Y42.251 E0.07050
G1 X194.394 Y44.127 E0.07090
G1 X194.976 Y46.343 E0.07183
G1 X194.976 Y163.835 E3.68388
G1 X194.332 Y166.128 E0.07467
G1 X192.907 Y168.078 E0.07573
G1 X191.282 Y169.194 E0.06183
G1 X189.458 Y169.880 E0.06109
G1 X187.563 Y170.049 E0.05964
G1 X185.718 Y169.687 E0.05897
G1 X184.000 Y168.777 E0.06095
G1 X182.169 Y167.018 E0.07961
G1 X182.279 Y166.599 F10800.000
G1 F1800
G1 X67.718 Y166.599 E3.59199
G1 X65.720 Y168.514 E0.08676
G1 X63.956 Y169.397 E0.06187
G1 X62.019 Y169.683 E0.06140
G1 X60.343 Y169.438 E0.05309
G1 X58.800 Y168.820 E0.05212
G1 X57.153 Y167.605 E0.06419
G1 X55.963 Y165.872 E0.06589
G1 X55.401 Y163.789 E0.06766
G1 X55.401 Y46.476 E3.67825
G1 X55.642 Y45.111 E0.04346
G1 X56.179 Y43.801 E0.04441
G1 X57.525 Y42.129 E0.06730
G1 X59.310 Y40.938 E0.06728
G1 X61.367 Y40.401 E0.06666
G1 X188.575 Y40.405 E3.98853
G1 X189.925 Y40.652 E0.04302
G1 X191.207 Y41.184 E0.04350
G1 X192.872 Y42.526 E0.06707
G1 X194.062 Y44.310 E0.06724
G1 X194.599 Y46.367 E0.06666
G1 X194.599 Y163.809 E3.68230
G1 X193.979 Y165.992 E0.07117
G1 X192.667 Y167.786 E0.06968
G1 X191.127 Y168.849 E0.05867
G1 X189.350 Y169.518 E0.05954
G1 X187.558 Y169.671 E0.05637
G1 X185.820 Y169.323 E0.05560
G1 X184.201 Y168.457 E0.05755
G1 X182.322 Y166.641 E0.08195
G1 X182.432 Y166.222 F10800.000
G1 F1800
G1 X67.565 Y166.222 E3.60158
G1 X65.524 Y168.191 E0.08892
G1 X63.869 Y169.029 E0.05818
G1 X62.044 Y169.306 E0.05787
G1 X60.462 Y169.079 E0.05010
G1 X58.962 Y168.479 E0.05066
G1 X57.444 Y167.363 E0.05906
G1 X56.318 Y165.741 E0.06192
G1 X55.778 Y163.763 E0.06428
G1 X55.778 Y46.493 E3.67693
G1 X56.009 Y45.198 E0.04125
G1 X56.517 Y43.971 E0.04164
G1 X57.800 Y42.388 E0.06387
G1 X59.437 Y41.294 E0.06173
G1 X61.392 Y40.778 E0.06340
G1 X188.558 Y40.782 E3.98720
G1 X189.836 Y41.019 E0.04076
G1 X191.036 Y41.521 E0.04078
G1 X192.612 Y42.801 E0.06367
G1 X193.706 Y44.437 E0.06170
G1 X194.222 Y46.392 E0.06339
G1 X194.222 Y163.782 E3.68069
G1 X193.626 Y165.855 E0.06763
G1 X192.383 Y167.536 E0.06554
G1 X190.934 Y168.525 E0.05501
G1 X189.243 Y169.155 E0.05659
G1 X187.555 Y169.293 E0.05310
G1 X185.923 Y168.959 E0.05222
G1 X184.404 Y168.138 E0.05415
G1 X182.475 Y166.264 E0.08433
G1 X182.586 Y165.845 F10800.000
G1 F1800
G1 X67.412 Y165.845 E3.61121
G1 X65.326 Y167.868 E0.09111
G1 X63.780 Y168.661 E0.05450
G1 X62.069 Y168.929 E0.05428
G1 X60.539 Y168.709 E0.04848
G1 X59.126 Y168.138 E0.04777
G1 X57.694 Y167.079 E0.05584
G1 X56.647 Y165.555 E0.05800
G1 X56.155 Y163.739 E0.05899
G1 X56.155 Y46.510 E3.67561
G1 X56.376 Y45.286 E0.03902
G1 X56.854 Y44.142 E0.03886
G1 X58.073 Y42.649 E0.06043
G1 X59.619 Y41.626 E0.05811
G1 X61.416 Y41.155 E0.05825
G1 X188.540 Y41.159 E3.98589
G1 X189.746 Y41.386 E0.03847
G1 X190.864 Y41.857 E0.03804
G1 X192.351 Y43.074 E0.06025
G1 X193.374 Y44.619 E0.05808
G1 X193.845 Y46.416 E0.05825
G1 X193.845 Y163.756 E3.67912
G1 X193.302 Y165.660 E0.06208
G1 X192.143 Y167.244 E0.06153
G1 X190.780 Y168.180 E0.05183
G1 X189.136 Y168.792 E0.05502
G1 X187.553 Y168.915 E0.04978
G1 X186.028 Y168.596 E0.04885
G1 X184.608 Y167.820 E0.05075
G1 X182.629 Y165.887 E0.08675
G1 X182.741 Y165.468 F10800.000
G1 F1800
G1 X67.258 Y165.468 E3.62087
G1 X65.127 Y167.547 E0.09335
G1 X63.689 Y168.294 E0.05082
G1 X62.093 Y168.552 E0.05069
G1 X60.658 Y168.351 E0.04541
G1 X59.290 Y167.798 E0.04626
G1 X57.945 Y166.797 E0.05257
G1 X56.977 Y165.370 E0.05407
G1 X56.532 Y163.714 E0.05375
G1 X56.532 Y46.528 E3.67430
G1 X56.743 Y45.374 E0.03676
G1 X57.191 Y44.314 E0.03607
G1 X58.347 Y42.911 E0.05701
G1 X59.745 Y41.982 E0.05265
G1 X61.441 Y41.532 E0.05499
G1 X188.523 Y41.536 E3.98457
G1 X189.618 Y41.741 E0.03494
G1 X190.692 Y42.194 E0.03654
G1 X192.090 Y43.347 E0.05681
G1 X193.018 Y44.745 E0.05263
G1 X193.468 Y46.441 E0.05499
G1 X193.468 Y163.729 E3.67750
G1 X192.949 Y165.522 E0.05852
G1 X191.859 Y166.993 E0.05740
G1 X190.628 Y167.834 E0.04676
G1 X189.030 Y168.430 E0.05345
G1 X187.553 Y168.538 E0.04642
G1 X186.135 Y168.234 E0.04547
G1 X184.813 Y167.503 E0.04737
G1 X182.783 Y165.510 E0.08920
G1 X182.896 Y165.091 F10800.000
G1 F1800
G1 X67.104 Y165.091 E3.63058
G1 X64.927 Y167.227 E0.09563
G1 X63.596 Y167.928 E0.04715
G1 X62.115 Y168.174 E0.04710
G1 X60.778 Y167.992 E0.04231
G1 X59.455 Y167.458 E0.04473
G1 X58.197 Y166.514 E0.04930
G1 X57.333 Y165.240 E0.04827
G1 X56.909 Y163.689 E0.05042
G1 X56.909 Y46.544 E3.67297
G1 X57.099 Y45.502 E0.03323
G1 X57.527 Y44.487 E0.03453
G1 X58.618 Y43.174 E0.05353
G1 X59.926 Y42.314 E0.04908
G1 X61.465 Y41.909 E0.04988
G1 X188.505 Y41.913 E3.98325
G1 X189.527 Y42.108 E0.03263
G1 X190.518 Y42.530 E0.03378
G1 X191.826 Y43.618 E0.05336
G1 X192.686 Y44.926 E0.04907
G1 X193.091 Y46.465 E0.04988
G1 X193.091 Y163.702 E3.67588
G1 X192.597 Y165.382 E0.05492
G1 X191.577 Y166.741 E0.05327
G1 X190.475 Y167.489 E0.04176
G1 X188.924 Y168.067 E0.05188
G1 X187.556 Y168.160 E0.04302
G1 X186.244 Y167.872 E0.04209
G1 X185.020 Y167.187 E0.04399
G1 X182.938 Y165.133 E0.09169
G1 X183.051 Y164.713 F10800.000
G1 F1800
G1 X66.949 Y164.713 E3.64031
G1 X64.724 Y166.908 E0.09796
G1 X63.501 Y167.561 E0.04348
G1 X62.135 Y167.797 E0.04348
G1 X60.896 Y167.634 E0.03916
G1 X59.618 Y167.117 E0.04322
G1 X58.490 Y166.274 E0.04417
G1 X57.687 Y165.108 E0.04438
G1 X57.287 Y163.663 E0.04703
G1 X57.287 Y46.562 E3.67161
G1 X57.466 Y45.591 E0.03095
G1 X57.863 Y44.661 E0.03170
G1 X58.888 Y43.438 E0.05004
G1 X60.106 Y42.647 E0.04552
G1 X61.489 Y42.287 E0.04481
G1 X188.486 Y42.290 E3.98192
G1 X189.435 Y42.474 E0.03029
G1 X190.343 Y42.865 E0.03101
G1 X191.562 Y43.888 E0.04990
G1 X192.353 Y45.106 E0.04551
G1 X192.713 Y46.489 E0.04481
G1 X192.713 Y163.675 E3.67430
G1 X192.274 Y165.185 E0.04932
G1 X191.338 Y166.448 E0.04929
G1 X190.321 Y167.143 E0.03860
G1 X188.819 Y167.703 E0.05026
G1 X187.559 Y167.782 E0.03960
G1 X186.404 Y167.529 E0.03706
G1 X185.227 Y166.870 E0.04230
G1 X183.094 Y164.756 E0.09417
G1 X183.207 Y164.336 F10800.000
G1 F1800
G1 X66.793 Y164.336 E3.65008
G1 X64.520 Y166.590 E0.10035
G1 X63.404 Y167.196 E0.03982
G1 X62.153 Y167.419 E0.03986
G1 X61.015 Y167.275 E0.03597
G1 X59.783 Y166.777 E0.04165
G1 X58.742 Y165.993 E0.04087
G1 X58.017 Y164.923 E0.04051
G1 X57.664 Y163.638 E0.04180
G1 X57.664 Y46.580 E3.67026
G1 X57.832 Y45.682 E0.02864
G1 X58.197 Y44.837 E0.02886
G1 X59.158 Y43.703 E0.04659
G1 X60.232 Y43.004 E0.04019
G1 X61.514 Y42.664 E0.04158
G1 X188.467 Y42.667 E3.98055
G1 X189.341 Y42.840 E0.02792
G1 X190.166 Y43.199 E0.02823
G1 X191.297 Y44.158 E0.04647
G1 X191.996 Y45.232 E0.04018
G1 X192.336 Y46.513 E0.04157
G1 X192.336 Y163.647 E3.67266
