; generated by Slic3r Prusa Edition 1.40.0+ on 2018-06-24 at 19:31:03

; 

; external perimeters extrusion width = 0.45mm
; perimeters extrusion width = 0.45mm
; infill extrusion width = 0.45mm
; solid infill extrusion width = 0.45mm
; top infill extrusion width = 0.40mm
; first layer extrusion width = 0.42mm

M107
M115 U3.2.1 ; tell printer latest fw version
M201 X1000 Y1000 Z200 E5000 ; sets maximum accelerations, mm/sec^2
M203 X200 Y200 Z12 E120 ; sets maximum feedrates, mm/sec
M204 S1250 T1250 ; sets acceleration (S) and retract acceleration (T)
M205 X10 Y10 Z0.4 E2.5 ; sets the jerk limits, mm/sec
M205 S0 T0 ; sets the minimum extruding and travel feed rate, mm/sec
M83  ; extruder relative mode
M104 S215 ; set extruder temp
M140 S60 ; set bed temp
M190 S60 ; wait for bed temp
M109 S215 ; wait for extruder temp
G28 W ; home all without mesh bed level
G80 ; mesh bed leveling
G1 Y-3.0 F1000.0 ; go outside print area
G92 E0.0
G1 X60.0 E9.0  F1000.0 ; intro line
G1 X100.0 E12.5  F1000.0 ; intro line
G92 E0.0
M221 S95
M900 K30; Filament gcode
G21 ; set units to millimeters
G90 ; use absolute coordinates
M83 ; use relative distances for extrusion
;BEFORE_LAYER_CHANGE
G92 E0.0
;0.2


G1 E-0.80000 F2100.00000
G1 Z0.600 F10800.000
;AFTER_LAYER_CHANGE
;0.2
G1 X16.759 Y26.554
G1 Z0.200
G1 E0.80000 F2100.00000
M204 S1000
G1 F1800
G1 X17.534 Y25.867 E0.03245
G1 X18.205 Y25.459 E0.02462
G1 X18.930 Y25.159 E0.02462
G1 X19.694 Y24.975 E0.02462
G1 X20.482 Y24.909 E0.02479
G1 X229.498 Y24.909 E6.55357
G1 X230.451 Y25.000 E0.03002
G1 X231.370 Y25.268 E0.03002
G1 X232.223 Y25.704 E0.03002
G1 X232.983 Y26.295 E0.03019
G1 X233.615 Y27.014 E0.03002
G1 X234.101 Y27.838 E0.03002
G1 X234.425 Y28.739 E0.03002
G1 X234.574 Y29.691 E0.03019
G1 X240.966 Y157.080 E3.99924
G1 X241.262 Y165.102 E0.25168
G1 X241.357 Y174.565 E0.29671
G1 X241.314 Y180.541 E0.18740
G1 X241.090 Y181.586 E0.03349
G1 X240.652 Y182.560 E0.03349
G1 X240.021 Y183.422 E0.03349
G1 X239.224 Y184.133 E0.03349
G1 X238.553 Y184.541 E0.02462
G1 X237.827 Y184.841 E0.02462
G1 X237.064 Y185.025 E0.02462
G1 X236.276 Y185.091 E0.02479
G1 X13.720 Y185.090 E6.97809
G1 X12.534 Y184.944 E0.03749
G1 X11.414 Y184.524 E0.03749
G1 X10.423 Y183.855 E0.03749
G1 X9.616 Y182.973 E0.03749
G1 X9.225 Y182.337 E0.02340
G1 X8.931 Y181.645 E0.02357
G1 X8.741 Y180.918 E0.02357
G1 X8.660 Y180.170 E0.02357
G1 X8.667 Y168.881 E0.35395
G1 X8.873 Y160.859 E0.25163
G1 X14.457 Y48.808 E3.51765
G1 X15.461 Y29.321 E0.61180
G1 X15.701 Y28.320 E0.03228
G1 X16.140 Y27.383 E0.03245
G1 X16.723 Y26.602 E0.03057
G1 X16.456 Y27.514 F10800.000
G1 F1800
G1 X17.990 Y25.972 E0.06820
G1 X18.821 Y25.568 E0.02896
G1 X20.011 Y25.287 E0.03836
G1 X229.963 Y25.290 E6.58289
G1 X230.884 Y25.463 E0.02936
G1 X231.769 Y25.830 E0.03005
G1 X232.970 Y26.795 E0.04831
G1 X233.771 Y27.949 E0.04404
G1 X234.176 Y29.271 E0.04334
G1 X240.590 Y157.110 E4.01336
G1 X240.759 Y161.122 E0.12591
G1 X240.886 Y165.131 E0.12577
G1 X240.958 Y169.167 E0.12656
G1 X240.980 Y174.573 E0.16950
G1 X240.954 Y180.561 E0.18775
G1 X240.757 Y181.504 E0.03020
G1 X240.372 Y182.377 E0.02991
G1 X238.792 Y184.012 E0.07128
G1 X237.791 Y184.492 E0.03481
G1 X236.696 Y184.713 E0.03503
G1 X13.239 Y184.713 E7.00632
G1 X12.018 Y184.416 E0.03941
G1 X11.183 Y183.998 E0.02926
G1 X9.757 Y182.575 E0.06319
G1 X9.336 Y181.741 E0.02926
G1 X9.036 Y180.521 E0.03941
G1 X9.020 Y174.442 E0.19059
G1 X9.044 Y168.892 E0.17403
G1 X9.120 Y164.872 E0.12607
G1 X9.250 Y160.854 E0.12604
G1 X9.422 Y156.851 E0.12562
G1 X14.834 Y48.825 E3.39134
G1 X15.558 Y34.837 E0.43917
G1 X15.817 Y29.354 E0.17211
G1 X16.031 Y28.419 E0.03005
G1 X16.430 Y27.568 E0.02948
G1 X16.771 Y27.730 F10800.000
G1 F1800
G1 X18.185 Y26.296 E0.06313
G1 X18.930 Y25.930 E0.02605
G1 X20.034 Y25.664 E0.03560
G1 X229.945 Y25.667 E6.58161
G1 X230.793 Y25.829 E0.02706
G1 X231.597 Y26.167 E0.02736
G1 X232.711 Y27.071 E0.04499
G1 X233.420 Y28.089 E0.03888
G1 X233.800 Y29.314 E0.04021
G1 X240.213 Y157.128 E4.01258
G1 X240.383 Y161.137 E0.12581
G1 X240.509 Y165.142 E0.12563
G1 X240.581 Y169.170 E0.12632
G1 X240.603 Y174.573 E0.16939
G1 X240.581 Y180.504 E0.18599
G1 X240.404 Y181.371 E0.02772
G1 X240.041 Y182.193 E0.02819
G1 X238.547 Y183.723 E0.06703
G1 X237.653 Y184.141 E0.03094
G1 X236.677 Y184.336 E0.03120
G1 X13.263 Y184.336 E7.00501
G1 X12.130 Y184.055 E0.03658
G1 X11.381 Y183.676 E0.02634
G1 X10.079 Y182.377 E0.05767
G1 X9.697 Y181.628 E0.02634
G1 X9.413 Y180.497 E0.03658
G1 X9.397 Y174.442 E0.18983
G1 X9.421 Y168.895 E0.17392
G1 X9.497 Y164.880 E0.12590
G1 X9.627 Y160.869 E0.12583
G1 X9.799 Y156.870 E0.12553
G1 X15.210 Y48.844 E3.39132
G1 X15.934 Y34.855 E0.43919
G1 X16.193 Y29.389 E0.17159
G1 X16.393 Y28.525 E0.02780
G1 X16.745 Y27.784 E0.02571
G1 X17.084 Y27.947 F10800.000
G1 F1800
G1 X17.108 Y27.897 E0.00173
G1 X18.381 Y26.620 E0.05653
G1 X19.042 Y26.291 E0.02315
G1 X20.057 Y26.041 E0.03280
G1 X229.927 Y26.044 E6.58030
G1 X230.700 Y26.195 E0.02472
G1 X231.424 Y26.503 E0.02466
G1 X232.451 Y27.345 E0.04164
G1 X233.093 Y28.278 E0.03551
G1 X233.425 Y29.356 E0.03535
G1 X239.836 Y157.146 E4.01182
G1 X240.006 Y161.152 E0.12571
G1 X240.132 Y165.153 E0.12550
G1 X240.204 Y169.173 E0.12607
G1 X240.226 Y174.573 E0.16933
G1 X240.207 Y180.447 E0.18417
G1 X240.038 Y181.275 E0.02647
G1 X239.710 Y182.009 E0.02521
G1 X238.355 Y183.397 E0.06083
G1 X237.554 Y183.776 E0.02778
G1 X236.658 Y183.959 E0.02869
G1 X13.286 Y183.959 E7.00365
G1 X12.244 Y183.696 E0.03370
G1 X11.580 Y183.354 E0.02344
G1 X10.400 Y182.177 E0.05225
G1 X10.056 Y181.513 E0.02344
G1 X9.790 Y180.472 E0.03370
G1 X9.774 Y174.442 E0.18906
G1 X9.799 Y168.898 E0.17382
G1 X9.874 Y164.889 E0.12574
G1 X10.004 Y160.885 E0.12561
G1 X10.175 Y156.888 E0.12543
G1 X15.587 Y48.863 E3.39129
G1 X16.311 Y34.874 E0.43920
G1 X16.569 Y29.424 E0.17107
G1 X16.756 Y28.632 E0.02552
G1 X17.058 Y28.001 E0.02195
G1 X17.433 Y28.090 F10800.000
G1 F1800
G1 X18.578 Y26.942 E0.05084
G1 X19.155 Y26.651 E0.02026
G1 X20.081 Y26.418 E0.02995
G1 X229.907 Y26.421 E6.57896
G1 X230.606 Y26.561 E0.02234
G1 X231.249 Y26.838 E0.02195
G1 X232.190 Y27.619 E0.03833
G1 X232.742 Y28.419 E0.03047
G1 X233.050 Y29.399 E0.03222
G1 X239.460 Y157.165 E4.01103
G1 X239.629 Y161.167 E0.12561
G1 X239.755 Y165.163 E0.12536
G1 X239.827 Y169.176 E0.12583
G1 X239.849 Y174.573 E0.16923
G1 X239.834 Y180.392 E0.18245
G1 X239.685 Y181.140 E0.02392
G1 X239.380 Y181.824 E0.02348
G1 X238.163 Y183.070 E0.05460
G1 X237.414 Y183.425 E0.02600
G1 X236.639 Y183.582 E0.02478
G1 X13.311 Y183.582 E7.00230
G1 X12.361 Y183.336 E0.03077
G1 X11.780 Y183.033 E0.02054
G1 X10.720 Y181.976 E0.04694
G1 X10.415 Y181.396 E0.02054
G1 X10.167 Y180.446 E0.03077
G1 X10.151 Y174.442 E0.18828
G1 X10.176 Y168.901 E0.17372
G1 X10.251 Y164.897 E0.12557
G1 X10.380 Y160.900 E0.12540
G1 X10.552 Y156.906 E0.12534
G1 X15.963 Y48.882 E3.39127
G1 X16.687 Y34.893 E0.43921
G1 X16.945 Y29.460 E0.17053
G1 X17.117 Y28.740 E0.02320
G1 X17.407 Y28.144 E0.02078
G1 X17.746 Y28.309 F10800.000
G1 F1800
G1 X18.777 Y27.264 E0.04604
G1 X19.271 Y27.010 E0.01739
G1 X20.106 Y26.795 E0.02704
G1 X229.889 Y26.798 E6.57761
G1 X230.475 Y26.915 E0.01873
G1 X231.074 Y27.173 E0.02045
G1 X231.927 Y27.890 E0.03493
G1 X232.414 Y28.607 E0.02718
G1 X232.674 Y29.442 E0.02742
G1 X239.083 Y157.183 E4.01027
G1 X239.252 Y161.180 E0.12544
G1 X239.378 Y165.171 E0.12521
G1 X239.450 Y169.179 E0.12567
G1 X239.472 Y174.574 E0.16917
G1 X239.457 Y180.373 E0.18183
G1 X239.332 Y181.006 E0.02022
G1 X239.049 Y181.640 E0.02176
G1 X237.970 Y182.745 E0.04845
G1 X237.314 Y183.061 E0.02283
G1 X236.619 Y183.205 E0.02223
G1 X13.336 Y183.205 E7.00090
G1 X12.479 Y182.978 E0.02779
G1 X11.982 Y182.714 E0.01767
G1 X11.039 Y181.773 E0.04175
G1 X10.774 Y181.276 E0.01767
G1 X10.544 Y180.420 E0.02779
G1 X10.528 Y174.441 E0.18747
G1 X10.553 Y168.904 E0.17361
G1 X10.628 Y164.905 E0.12540
G1 X10.757 Y160.915 E0.12518
G1 X10.929 Y156.924 E0.12524
G1 X16.340 Y48.901 E3.39124
G1 X17.064 Y34.911 E0.43922
G1 X17.321 Y29.495 E0.17001
G1 X17.465 Y28.887 E0.01962
G1 X17.720 Y28.363 E0.01825
G1 X18.083 Y28.479 F10800.000
G1 F1800
G1 X18.978 Y27.584 E0.03969
G1 X19.389 Y27.369 E0.01455
G1 X20.131 Y27.172 E0.02406
G1 X229.869 Y27.175 E6.57620
G1 X230.378 Y27.280 E0.01630
G1 X230.896 Y27.507 E0.01772
G1 X231.663 Y28.160 E0.03158
G1 X232.063 Y28.748 E0.02231
G1 X232.299 Y29.486 E0.02427
G1 X238.706 Y157.201 E4.00946
G1 X238.875 Y161.193 E0.12528
G1 X239.001 Y165.182 E0.12514
G1 X239.073 Y169.181 E0.12542
G1 X239.094 Y174.575 E0.16911
G1 X239.080 Y180.353 E0.18118
G1 X238.967 Y180.909 E0.01778
G1 X238.720 Y181.453 E0.01874
G1 X237.774 Y182.421 E0.04243
G1 X237.211 Y182.698 E0.01966
G1 X236.599 Y182.828 E0.01962
G1 X13.362 Y182.828 E6.99945
G1 X12.601 Y182.620 E0.02473
G1 X12.186 Y182.396 E0.01481
G1 X11.357 Y181.569 E0.03671
G1 X11.131 Y181.154 E0.01481
G1 X10.921 Y180.393 E0.02473
G1 X10.906 Y174.441 E0.18664
G1 X10.930 Y168.907 E0.17351
G1 X11.005 Y164.914 E0.12523
G1 X11.134 Y160.930 E0.12497
G1 X11.305 Y156.942 E0.12515
G1 X16.717 Y48.920 E3.39122
G1 X17.441 Y34.930 E0.43923
G1 X17.696 Y29.532 E0.16945
G1 X17.827 Y28.997 E0.01725
G1 X18.056 Y28.533 E0.01624
G1 X18.392 Y28.702 F10800.000
G1 F1800
G1 X19.181 Y27.903 E0.03520
G1 X19.511 Y27.726 E0.01173
G1 X20.157 Y27.549 E0.02101
G1 X229.849 Y27.552 E6.57474
G1 X230.279 Y27.644 E0.01380
G1 X230.716 Y27.839 E0.01500
G1 X231.397 Y28.429 E0.02825
G1 X231.714 Y28.892 E0.01759
G1 X231.923 Y29.530 E0.02107
G1 X238.330 Y157.219 E4.00862
G1 X238.498 Y161.206 E0.12511
G1 X238.624 Y165.193 E0.12506
G1 X238.696 Y169.184 E0.12518
G1 X238.717 Y174.576 E0.16905
G1 X238.703 Y180.333 E0.18049
G1 X238.603 Y180.810 E0.01528
G1 X238.392 Y181.265 E0.01574
G1 X237.577 Y182.099 E0.03656
G1 X237.106 Y182.335 E0.01651
G1 X236.578 Y182.451 E0.01694
G1 X13.389 Y182.451 E6.99794
G1 X12.726 Y182.264 E0.02159
G1 X12.392 Y182.079 E0.01198
G1 X11.673 Y181.362 E0.03185
G1 X11.487 Y181.028 E0.01198
G1 X11.298 Y180.366 E0.02159
G1 X11.283 Y174.441 E0.18578
G1 X11.307 Y168.913 E0.17332
G1 X11.382 Y164.925 E0.12507
G1 X11.511 Y160.945 E0.12484
G1 X11.682 Y156.961 E0.12506
G1 X17.093 Y48.939 E3.39119
G1 X17.817 Y34.949 E0.43924
G1 X18.072 Y29.569 E0.16887
G1 X18.187 Y29.110 E0.01483
G1 X18.365 Y28.755 E0.01244
G1 X18.726 Y28.876 F10800.000
G1 F1800
G1 X19.387 Y28.220 E0.02918
G1 X19.636 Y28.082 E0.00895
G1 X20.184 Y27.926 E0.01785
G1 X229.827 Y27.929 E6.57321
G1 X230.176 Y28.007 E0.01122
G1 X230.533 Y28.170 E0.01229
G1 X231.130 Y28.696 E0.02496
G1 X231.366 Y29.038 E0.01303
G1 X231.548 Y29.576 E0.01781
G1 X237.953 Y157.237 E4.00775
G1 X238.122 Y161.221 E0.12501
G1 X238.247 Y165.201 E0.12485
G1 X238.318 Y169.187 E0.12502
G1 X238.340 Y174.576 E0.16895
G1 X238.326 Y180.311 E0.17982
G1 X238.240 Y180.707 E0.01271
G1 X238.065 Y181.074 E0.01276
G1 X237.380 Y181.776 E0.03075
G1 X236.958 Y181.987 E0.01478
G1 X236.558 Y182.074 E0.01284
G1 X13.417 Y182.074 E6.99644
G1 X12.855 Y181.909 E0.01835
G1 X12.601 Y181.764 E0.00917
G1 X11.987 Y181.152 E0.02721
G1 X11.841 Y180.898 E0.00917
G1 X11.675 Y180.337 E0.01835
G1 X11.660 Y174.440 E0.18488
G1 X11.684 Y168.916 E0.17321
G1 X11.759 Y164.933 E0.12490
G1 X11.888 Y160.959 E0.12468
G1 X12.059 Y156.979 E0.12490
G1 X17.470 Y48.958 E3.39116
G1 X18.194 Y34.967 E0.43925
G1 X18.448 Y29.607 E0.16827
G1 X18.546 Y29.226 E0.01233
G1 X18.699 Y28.929 E0.01047
G1 F8640
G1 X19.387 Y28.220 E-0.22808
G1 X19.636 Y28.082 E-0.06588
G1 X20.184 Y27.926 E-0.13146
G1 X21.633 Y27.926 E-0.33459
G1 E-0.04000 F2100.00000
G1 Z0.800 F10800.000
G1 X19.768 Y28.436
G1 Z0.200
G1 E0.80000 F2100.00000
G1 F1800
G1 X20.213 Y28.303 E0.01457
G1 X229.806 Y28.307 E6.57165
G1 X230.037 Y28.359 E0.00743
G1 X230.349 Y28.501 E0.01075
G1 X230.862 Y28.961 E0.02160
G1 X231.019 Y29.189 E0.00869
G1 X231.173 Y29.624 E0.01446
G1 X237.576 Y157.255 E4.00683
G1 X237.745 Y161.236 E0.12491
G1 X237.870 Y165.211 E0.12471
G1 X237.941 Y169.193 E0.12485
G1 X237.963 Y174.576 E0.16881
G1 X237.949 Y180.290 E0.17915
G1 X237.890 Y180.565 E0.00881
G1 X237.738 Y180.885 E0.01109
G1 X237.183 Y181.453 E0.02491
G1 X236.811 Y181.639 E0.01303
G1 X236.539 Y181.697 E0.00874
G1 X13.446 Y181.697 E6.99491
G1 X12.990 Y181.556 E0.01497
G1 X12.814 Y181.453 E0.00640
G1 X12.298 Y180.938 E0.02285
G1 X12.194 Y180.762 E0.00640
G1 X12.052 Y180.306 E0.01497
G1 X12.037 Y174.441 E0.18389
G1 X12.061 Y168.919 E0.17315
G1 X12.136 Y164.941 E0.12473
G1 X12.264 Y160.974 E0.12447
G1 X12.435 Y156.997 E0.12481
G1 X17.846 Y48.977 E3.39114
G1 X18.571 Y34.986 E0.43926
G1 X18.824 Y29.644 E0.16770
G1 X18.891 Y29.379 E0.00855
G1 X19.048 Y29.075 E0.01074
G1 X19.595 Y28.534 E0.02412
G1 X19.715 Y28.466 E0.00433
G1 X19.906 Y28.788 F10800.000
G1 F1800
G1 X20.243 Y28.680 E0.01111
G1 X229.785 Y28.684 E6.57002
G1 X229.898 Y28.710 E0.00365
G1 X230.165 Y28.831 E0.00918
G1 X230.591 Y29.224 E0.01818
G1 X230.676 Y29.345 E0.00463
G1 X230.798 Y29.673 E0.01099
G1 X237.200 Y157.274 E4.00585
G1 X237.368 Y161.251 E0.12481
G1 X237.493 Y165.222 E0.12458
G1 X237.564 Y169.198 E0.12469
G1 X237.586 Y174.577 E0.16867
G1 X237.572 Y180.270 E0.17849
G1 X237.539 Y180.423 E0.00491
G1 X237.412 Y180.692 E0.00933
G1 X236.942 Y181.161 E0.02079
G1 X236.673 Y181.288 E0.00933
G1 X236.520 Y181.320 E0.00491
G1 X13.478 Y181.320 E6.99332
G1 X13.132 Y181.206 E0.01142
G1 X13.032 Y181.145 E0.00368
G1 X12.605 Y180.719 E0.01889
G1 X12.543 Y180.619 E0.00368
G1 X12.429 Y180.274 E0.01142
G1 X12.414 Y174.442 E0.18284
G1 X12.438 Y168.922 E0.17309
G1 X12.512 Y164.950 E0.12456
G1 X12.641 Y160.987 E0.12432
G1 X12.812 Y157.015 E0.12465
G1 X18.223 Y48.996 E3.39111
G1 X18.947 Y35.005 E0.43928
G1 X19.199 Y29.680 E0.16714
G1 X19.237 Y29.532 E0.00477
G1 X19.369 Y29.275 E0.00908
G1 X19.854 Y28.818 E0.02089
G1 X19.583 Y29.684 F10800.000
G1 F1800
G1 X19.690 Y29.476 E0.00733
G1 X20.029 Y29.151 E0.01474
G1 X20.278 Y29.057 E0.00832
G1 X229.734 Y29.057 E6.56737
G1 X229.978 Y29.160 E0.00830
G1 X230.318 Y29.484 E0.01471
G1 X230.423 Y29.726 E0.00828
G1 X236.823 Y157.292 E4.00476
G1 X236.991 Y161.265 E0.12471
G1 X237.117 Y165.232 E0.12444
G1 X237.187 Y169.203 E0.12453
G1 X237.209 Y174.578 E0.16853
G1 X237.195 Y180.252 E0.17789
G1 X237.085 Y180.501 E0.00855
G1 X236.752 Y180.834 E0.01475
G1 X236.502 Y180.943 E0.00855
G1 X13.513 Y180.943 E6.99167
G1 X13.259 Y180.844 E0.00855
G1 X12.906 Y180.491 E0.01563
G1 X12.806 Y180.238 E0.00855
G1 X12.791 Y174.442 E0.18172
G1 X12.815 Y168.925 E0.17298
G1 X12.889 Y164.961 E0.12431
G1 X13.018 Y161.002 E0.12418
G1 X13.189 Y157.033 E0.12456
G1 X18.600 Y49.015 E3.39109
G1 X19.324 Y35.023 E0.43929
G1 X19.574 Y29.743 E0.16574
G1 X20.251 Y29.461 F10800.000
G1 F1800
G1 X20.318 Y29.434 E0.00228
G1 X229.680 Y29.434 E6.56439
G1 X229.747 Y29.461 E0.00228
G1 X230.018 Y29.720 E0.01173
G1 X230.048 Y29.785 E0.00227
G1 X236.447 Y157.310 E4.00347
G1 X236.615 Y161.280 E0.12461
G1 X236.740 Y165.243 E0.12430
G1 X236.810 Y169.209 E0.12437
G1 X236.832 Y174.579 E0.16839
G1 X236.818 Y180.195 E0.17607
G1 X236.789 Y180.264 E0.00235
G1 X236.515 Y180.537 E0.01212
G1 X236.446 Y180.566 E0.00235
G1 X13.555 Y180.566 E6.98860
G1 X13.485 Y180.537 E0.00235
G1 X13.212 Y180.264 E0.01212
G1 X13.183 Y180.195 E0.00235
G1 X13.168 Y174.442 E0.18039
G1 X13.192 Y168.928 E0.17288
G1 X13.266 Y164.972 E0.12407
G1 X13.395 Y161.017 E0.12405
G1 X13.565 Y157.052 E0.12446
G1 X18.976 Y49.034 E3.39106
G1 X19.700 Y35.042 E0.43930
G1 X19.949 Y29.787 E0.16496
G1 X19.979 Y29.721 E0.00228
G1 X20.207 Y29.503 E0.00988
G1 X20.430 Y29.811 F10800.000
G1 F1800
G1 X229.568 Y29.811 E6.55737
G1 X229.677 Y29.916 E0.00474
G1 X236.070 Y157.326 E3.99990
G1 X236.238 Y161.295 E0.12455
G1 X236.363 Y165.251 E0.12409
G1 X236.433 Y169.212 E0.12420
G1 X236.455 Y174.579 E0.16829
G1 X236.441 Y180.078 E0.17244
G1 X236.331 Y180.189 E0.00489
G1 X13.670 Y180.189 E6.98137
G1 X13.560 Y180.078 E0.00489
G1 X13.545 Y174.441 E0.17675
G1 X13.569 Y168.934 E0.17269
G1 X13.643 Y164.983 E0.12390
G1 X13.771 Y161.033 E0.12392
G1 X13.942 Y157.068 E0.12441
G1 X19.353 Y49.053 E3.39099
G1 X20.077 Y35.061 E0.43931
G1 X20.321 Y29.916 E0.16148
G1 X20.387 Y29.853 E0.00287
G1 X20.706 Y30.210 F10800.000
G1 F1800
G1 X229.293 Y30.210 E6.54008
