; generated by Slic3r Prusa Edition 1.40.0+ on 2018-06-24 at 15:39:46

; 

; external perimeters extrusion width = 0.45mm
; perimeters extrusion width = 0.45mm
; infill extrusion width = 0.45mm
; solid infill extrusion width = 0.45mm
; top infill extrusion width = 0.40mm
; first layer extrusion width = 0.42mm

M107
M115 U3.2.1 ; tell printer latest fw version
M201 X1000 Y1000 Z200 E5000 ; sets maximum accelerations, mm/sec^2
M203 X200 Y200 Z12 E120 ; sets maximum feedrates, mm/sec
M204 S1250 T1250 ; sets acceleration (S) and retract acceleration (T)
M205 X10 Y10 Z0.4 E2.5 ; sets the jerk limits, mm/sec
M205 S0 T0 ; sets the minimum extruding and travel feed rate, mm/sec
M83  ; extruder relative mode
M104 S215 ; set extruder temp
M140 S60 ; set bed temp
M190 S60 ; wait for bed temp
M109 S215 ; wait for extruder temp
G28 W ; home all without mesh bed level
G80 ; mesh bed leveling
G1 Y-3.0 F1000.0 ; go outside print area
G92 E0.0
G1 X60.0 E9.0  F1000.0 ; intro line
G1 X100.0 E12.5  F1000.0 ; intro line
G92 E0.0
M221 S95
M900 K30; Filament gcode
G21 ; set units to millimeters
G90 ; use absolute coordinates
M83 ; use relative distances for extrusion
;BEFORE_LAYER_CHANGE
G92 E0.0
;0.2


G1 E-0.80000 F2100.00000
G1 Z0.600 F10800.000
;AFTER_LAYER_CHANGE
;0.2
G1 X12.650 Y27.433
G1 Z0.200
G1 E0.80000 F2100.00000
M204 S1000
G1 F1800
G1 X13.531 Y26.667 E0.03662
G1 X14.186 Y26.286 E0.02375
G1 X14.890 Y26.007 E0.02375
G1 X15.628 Y25.835 E0.02375
G1 X16.388 Y25.775 E0.02392
G1 X233.597 Y25.775 E6.81042
G1 X234.550 Y25.866 E0.03002
G1 X235.469 Y26.134 E0.03002
G1 X236.322 Y26.569 E0.03002
G1 X237.082 Y27.160 E0.03019
G1 X237.714 Y27.879 E0.03002
G1 X238.200 Y28.704 E0.03002
G1 X238.523 Y29.605 E0.03002
G1 X238.673 Y30.556 E0.03019
G1 X245.174 Y161.124 E4.09894
G1 X245.305 Y166.006 E0.15312
G1 X245.358 Y172.558 E0.20542
G1 X245.323 Y179.602 E0.22086
G1 X245.100 Y180.692 E0.03488
G1 X244.643 Y181.712 E0.03506
G1 X243.978 Y182.604 E0.03488
G1 X243.131 Y183.334 E0.03506
G1 X242.476 Y183.714 E0.02375
G1 X241.772 Y183.993 E0.02375
G1 X241.034 Y184.165 E0.02375
G1 X240.274 Y184.225 E0.02392
G1 X9.718 Y184.225 E7.22890
G1 X8.505 Y184.071 E0.03836
G1 X7.358 Y183.630 E0.03853
G1 X6.354 Y182.930 E0.03836
G1 X5.547 Y182.011 E0.03836
G1 X5.183 Y181.391 E0.02253
G1 X4.911 Y180.726 E0.02253
G1 X4.734 Y180.024 E0.02270
G1 X4.659 Y179.310 E0.02253
G1 X4.695 Y166.040 E0.41607
G1 X4.828 Y161.083 E0.15548
G1 X11.325 Y30.604 E4.09612
G1 X11.517 Y29.458 E0.03645
G1 X11.966 Y28.380 E0.03662
G1 X12.615 Y27.482 E0.03474
G1 X12.369 Y28.361 F10800.000
G1 F1800
G1 X13.962 Y26.800 E0.06995
G1 X14.939 Y26.353 E0.03368
G1 X15.982 Y26.152 E0.03330
G1 X234.062 Y26.156 E6.83776
G1 X234.983 Y26.329 E0.02937
G1 X235.869 Y26.697 E0.03009
G1 X237.112 Y27.700 E0.05008
G1 X237.877 Y28.830 E0.04278
G1 X238.277 Y30.190 E0.04445
G1 X244.593 Y156.235 E3.95702
G1 X244.796 Y161.121 E0.15331
G1 X244.928 Y166.020 E0.15368
G1 X244.981 Y172.590 E0.20598
G1 X244.966 Y179.582 E0.21925
G1 X244.784 Y180.554 E0.03098
G1 X244.377 Y181.501 E0.03233
G1 X242.833 Y183.124 E0.07023
G1 X241.985 Y183.550 E0.02978
G1 X240.763 Y183.848 E0.03943
G1 X9.237 Y183.848 E7.25931
G1 X8.016 Y183.550 E0.03942
G1 X7.200 Y183.142 E0.02858
G1 X6.189 Y182.246 E0.04236
G1 X5.685 Y181.610 E0.02546
G1 X5.034 Y179.690 E0.06355
G1 X5.019 Y172.594 E0.22251
G1 X5.072 Y166.013 E0.20633
G1 X5.204 Y161.118 E0.15355
G1 X5.407 Y156.235 E0.15323
G1 X11.722 Y30.208 E3.95646
G1 X11.951 Y29.237 E0.03126
G1 X12.343 Y28.415 E0.02856
G1 X12.683 Y28.578 F10800.000
G1 F1800
G1 X14.150 Y27.128 E0.06467
G1 X15.034 Y26.718 E0.03055
G1 X16.000 Y26.529 E0.03086
G1 X234.044 Y26.533 E6.83661
G1 X234.892 Y26.695 E0.02707
G1 X235.697 Y27.034 E0.02739
G1 X236.851 Y27.974 E0.04667
G1 X237.547 Y29.015 E0.03926
G1 X237.902 Y30.231 E0.03970
G1 X244.216 Y156.253 E3.95631
G1 X244.419 Y161.132 E0.15311
G1 X244.551 Y166.025 E0.15347
G1 X244.604 Y172.590 E0.20584
G1 X244.589 Y179.564 E0.21866
G1 X244.418 Y180.462 E0.02867
G1 X244.045 Y181.320 E0.02934
G1 X242.634 Y182.803 E0.06418
G1 X241.872 Y183.189 E0.02678
G1 X240.739 Y183.471 E0.03660
G1 X9.261 Y183.471 E7.25785
G1 X8.128 Y183.190 E0.03659
G1 X7.394 Y182.818 E0.02582
G1 X6.453 Y181.977 E0.03955
G1 X6.002 Y181.402 E0.02292
G1 X5.411 Y179.659 E0.05771
G1 X5.396 Y172.594 E0.22152
G1 X5.450 Y166.018 E0.20618
G1 X5.581 Y161.132 E0.15325
G1 X5.784 Y156.253 E0.15311
G1 X12.098 Y30.243 E3.95591
G1 X12.300 Y29.381 E0.02776
G1 X12.657 Y28.632 E0.02604
G1 X12.996 Y28.796 F10800.000
G1 F1800
G1 X13.019 Y28.748 E0.00165
G1 X14.388 Y27.422 E0.05973
G1 X15.168 Y27.071 E0.02682
G1 X16.018 Y26.907 E0.02716
G1 X234.025 Y26.910 E6.83547
G1 X234.799 Y27.061 E0.02473
G1 X235.524 Y27.370 E0.02469
G1 X236.589 Y28.247 E0.04325
G1 X237.216 Y29.198 E0.03574
G1 X237.526 Y30.271 E0.03502
G1 X243.840 Y156.271 E3.95561
G1 X244.043 Y161.144 E0.15290
G1 X244.174 Y166.030 E0.15326
G1 X244.227 Y172.590 E0.20569
G1 X244.212 Y179.545 E0.21806
G1 X244.052 Y180.368 E0.02631
G1 X243.714 Y181.138 E0.02635
G1 X242.433 Y182.482 E0.05822
G1 X241.758 Y182.830 E0.02380
G1 X240.715 Y183.094 E0.03372
G1 X9.285 Y183.094 E7.25635
G1 X8.242 Y182.830 E0.03371
G1 X7.588 Y182.494 E0.02305
G1 X6.719 Y181.708 E0.03674
G1 X6.319 Y181.195 E0.02040
G1 X5.788 Y179.628 E0.05190
G1 X5.773 Y172.594 E0.22053
G1 X5.827 Y166.023 E0.20603
G1 X5.957 Y161.147 E0.15295
G1 X6.160 Y156.271 E0.15299
G1 X12.473 Y30.280 E3.95533
G1 X12.662 Y29.489 E0.02548
G1 X12.970 Y28.850 E0.02227
G1 F8640
G1 X13.019 Y28.748 E-0.02602
G1 X14.388 Y27.422 E-0.43990
G1 X15.168 Y27.071 E-0.19753
G1 X15.578 Y26.992 E-0.09655
G1 E-0.04000 F2100.00000
G1 Z0.800 F10800.000
G1 X14.572 Y27.753
G1 Z0.200
G1 E0.80000 F2100.00000
G1 F1800
G1 X15.302 Y27.424 E0.02510
G1 X16.036 Y27.284 E0.02342
G1 X234.006 Y27.287 E6.83432
G1 X234.705 Y27.427 E0.02234
G1 X235.349 Y27.705 E0.02198
G1 X236.325 Y28.517 E0.03983
G1 X236.884 Y29.379 E0.03222
G1 X237.151 Y30.311 E0.03040
G1 X243.463 Y156.289 E3.95492
G1 X243.666 Y161.155 E0.15269
G1 X243.796 Y166.035 E0.15305
G1 X243.850 Y172.592 E0.20561
G1 X243.835 Y179.525 E0.21738
G1 X243.687 Y180.274 E0.02392
G1 X243.383 Y180.954 E0.02337
G1 X242.230 Y182.163 E0.05236
G1 X241.642 Y182.470 E0.02083
G1 X240.691 Y182.716 E0.03079
G1 X9.309 Y182.716 E7.25482
G1 X8.359 Y182.470 E0.03078
G1 X7.785 Y182.172 E0.02027
G1 X6.986 Y181.442 E0.03394
G1 X6.636 Y180.990 E0.01791
G1 X6.165 Y179.596 E0.04613
G1 X6.150 Y172.594 E0.21954
G1 X6.204 Y166.028 E0.20589
G1 X6.334 Y161.161 E0.15266
G1 X6.537 Y156.289 E0.15287
G1 X12.849 Y30.317 E3.95474
G1 X13.023 Y29.599 E0.02316
G1 X13.343 Y28.944 E0.02287
G1 X14.529 Y27.795 E0.05177
G1 X14.759 Y28.082 F10800.000
G1 F1800
G1 X15.398 Y27.790 E0.02203
G1 X16.054 Y27.661 E0.02098
G1 X233.988 Y27.664 E6.83315
G1 X234.574 Y27.781 E0.01874
G1 X235.173 Y28.040 E0.02046
G1 X236.059 Y28.786 E0.03632
G1 X236.551 Y29.558 E0.02869
G1 X236.775 Y30.351 E0.02585
G1 X243.086 Y156.308 E3.95423
G1 X243.289 Y161.167 E0.15249
G1 X243.419 Y166.040 E0.15284
G1 X243.473 Y172.592 E0.20546
G1 X243.458 Y179.506 E0.21679
G1 X243.334 Y180.139 E0.02023
G1 X243.052 Y180.771 E0.02168
G1 X242.026 Y181.844 E0.04655
G1 X241.523 Y182.112 E0.01788
G1 X240.666 Y182.339 E0.02780
G1 X9.334 Y182.339 E7.25325
G1 X8.477 Y182.112 E0.02779
G1 X7.984 Y181.850 E0.01749
G1 X7.254 Y181.176 E0.03117
G1 X6.954 Y180.785 E0.01544
G1 X6.542 Y179.565 E0.04040
G1 X6.527 Y172.594 E0.21856
G1 X6.581 Y166.033 E0.20574
G1 X6.711 Y161.175 E0.15236
G1 X6.914 Y156.308 E0.15275
G1 X13.225 Y30.353 E3.95417
G1 X13.371 Y29.746 E0.01958
G1 X13.668 Y29.139 E0.02119
G1 X14.716 Y28.124 E0.04574
G1 X14.947 Y28.410 F10800.000
G1 F1800
G1 X15.495 Y28.155 E0.01897
G1 X16.074 Y28.038 E0.01850
G1 X233.968 Y28.041 E6.83193
G1 X234.477 Y28.146 E0.01630
G1 X234.995 Y28.373 E0.01773
G1 X235.791 Y29.053 E0.03282
G1 X236.217 Y29.733 E0.02516
G1 X236.400 Y30.390 E0.02138
G1 X242.710 Y156.326 E3.95357
G1 X242.912 Y161.178 E0.15228
G1 X243.042 Y166.045 E0.15264
G1 X243.096 Y172.593 E0.20531
G1 X243.081 Y179.486 E0.21616
G1 X242.969 Y180.043 E0.01779
G1 X242.722 Y180.585 E0.01869
G1 X241.820 Y181.527 E0.04089
G1 X241.401 Y181.754 E0.01495
G1 X240.640 Y181.962 E0.02474
G1 X9.360 Y181.962 E7.25162
G1 X8.599 Y181.754 E0.02474
G1 X8.186 Y181.531 E0.01472
G1 X7.524 Y180.912 E0.02841
G1 X7.273 Y180.582 E0.01299
G1 X6.919 Y179.533 E0.03471
G1 X6.904 Y172.594 E0.21757
G1 X6.958 Y166.038 E0.20559
G1 X7.088 Y161.189 E0.15206
G1 X7.290 Y156.326 E0.15263
G1 X13.600 Y30.390 E3.95356
G1 X13.732 Y29.857 E0.01722
G1 X13.991 Y29.336 E0.01825
G1 X14.904 Y28.452 E0.03985
G1 X15.182 Y28.707 F10800.000
G1 F1800
G1 X15.628 Y28.508 E0.01532
G1 X16.092 Y28.415 E0.01484
G1 X233.948 Y28.418 E6.83070
G1 X234.378 Y28.510 E0.01380
G1 X234.815 Y28.705 E0.01500
G1 X235.521 Y29.318 E0.02930
G1 X235.881 Y29.906 E0.02163
G1 X236.024 Y30.429 E0.01701
G1 X242.333 Y156.344 E3.95291
G1 X242.535 Y161.193 E0.15216
G1 X242.665 Y166.049 E0.15234
G1 X242.719 Y172.593 E0.20517
G1 X242.704 Y179.466 E0.21550
G1 X242.604 Y179.943 E0.01529
G1 X242.394 Y180.398 E0.01571
G1 X241.612 Y181.212 E0.03538
G1 X241.276 Y181.398 E0.01206
G1 X240.613 Y181.585 E0.02160
G1 X9.387 Y181.585 E7.24994
G1 X8.724 Y181.398 E0.02160
G1 X8.391 Y181.214 E0.01194
G1 X7.795 Y180.650 E0.02569
G1 X7.593 Y180.381 E0.01057
G1 X7.296 Y179.502 E0.02908
G1 X7.281 Y172.595 E0.21657
G1 X7.335 Y166.046 E0.20534
G1 X7.465 Y161.201 E0.15197
G1 X7.667 Y156.342 E0.15248
G1 X13.976 Y30.428 E3.95289
G1 X14.092 Y29.971 E0.01480
G1 X14.312 Y29.536 E0.01528
G1 X15.138 Y28.748 E0.03580
G1 X15.368 Y29.036 F10800.000
G1 F1800
G1 X15.727 Y28.872 E0.01239
G1 X16.112 Y28.792 E0.01234
G1 X233.926 Y28.795 E6.82939
G1 X234.275 Y28.873 E0.01122
G1 X234.632 Y29.036 E0.01229
G1 X235.248 Y29.580 E0.02576
G1 X235.543 Y30.075 E0.01808
G1 X235.648 Y30.468 E0.01275
G1 X241.956 Y156.362 E3.95227
G1 X242.158 Y161.207 E0.15205
G1 X242.288 Y166.054 E0.15204
G1 X242.342 Y172.593 E0.20502
G1 X242.327 Y179.444 E0.21482
G1 X242.241 Y179.840 E0.01271
G1 X242.067 Y180.208 E0.01274
G1 X241.402 Y180.898 E0.03006
G1 X241.147 Y181.043 E0.00920
G1 X240.585 Y181.208 E0.01835
G1 X9.415 Y181.208 E7.24819
G1 X8.853 Y181.043 E0.01835
G1 X8.599 Y180.898 E0.00918
G1 X8.069 Y180.390 E0.02302
G1 X7.914 Y180.181 E0.00818
G1 X7.673 Y179.470 E0.02351
G1 X7.658 Y172.595 E0.21558
G1 X7.712 Y166.054 E0.20508
G1 X7.842 Y161.212 E0.15187
G1 X8.044 Y156.359 E0.15232
G1 X14.352 Y30.467 E3.95218
G1 X14.451 Y30.088 E0.01231
G1 X14.632 Y29.737 E0.01236
G1 X15.324 Y29.078 E0.02999
G1 X15.553 Y29.366 F10800.000
G1 F1800
G1 X15.864 Y29.224 E0.01073
G1 X16.131 Y29.169 E0.00855
G1 X233.905 Y29.172 E6.82813
G1 X234.136 Y29.224 E0.00744
G1 X234.448 Y29.367 E0.01075
G1 X234.972 Y29.838 E0.02209
G1 X235.203 Y30.239 E0.01452
G1 X235.273 Y30.506 E0.00862
G1 X241.580 Y156.380 E3.95165
G1 X241.781 Y161.218 E0.15184
G1 X241.911 Y166.059 E0.15183
G1 X241.965 Y172.595 E0.20493
G1 X241.950 Y179.424 E0.21412
G1 X241.891 Y179.699 E0.00881
G1 X241.739 Y180.018 E0.01108
G1 X241.188 Y180.587 E0.02485
G1 X241.012 Y180.690 E0.00639
G1 X240.556 Y180.831 E0.01498
G1 X9.444 Y180.831 E7.24634
G1 X8.988 Y180.690 E0.01498
G1 X8.811 Y180.586 E0.00643
G1 X8.344 Y180.132 E0.02041
G1 X8.236 Y179.983 E0.00580
G1 X8.050 Y179.438 E0.01803
G1 X8.035 Y172.597 E0.21451
G1 X8.089 Y166.063 E0.20488
G1 X8.219 Y161.224 E0.15177
G1 X8.421 Y156.377 E0.15212
G1 X14.727 Y30.505 E3.95156
G1 X14.796 Y30.242 E0.00853
G1 X14.952 Y29.938 E0.01070
G1 X15.509 Y29.408 E0.02413
G1 X16.001 Y29.576 F10800.000
G1 F1800
G1 X16.150 Y29.546 E0.00477
G1 X233.883 Y29.549 E6.82688
G1 X233.997 Y29.575 E0.00365
G1 X234.263 Y29.697 E0.00918
G1 X234.692 Y30.092 E0.01828
G1 X234.860 Y30.398 E0.01094
G1 X234.897 Y30.543 E0.00468
G1 X241.203 Y156.398 E3.95106
G1 X241.404 Y161.230 E0.15163
G1 X241.534 Y166.064 E0.15162
G1 X241.588 Y172.597 E0.20485
G1 X241.573 Y179.404 E0.21343
G1 X241.541 Y179.557 E0.00491
G1 X241.412 Y179.827 E0.00937
G1 X240.969 Y180.279 E0.01985
G1 X240.870 Y180.340 E0.00365
G1 X240.524 Y180.454 E0.01142
G1 X9.476 Y180.454 E7.24435
G1 X9.130 Y180.340 E0.01142
G1 X9.029 Y180.278 E0.00370
G1 X8.622 Y179.877 E0.01792
G1 X8.560 Y179.788 E0.00342
G1 X8.427 Y179.406 E0.01268
G1 X8.412 Y172.599 E0.21342
G1 X8.466 Y166.071 E0.20469
G1 X8.595 Y161.235 E0.15167
G1 X8.797 Y156.395 E0.15191
G1 X15.103 Y30.543 E3.95096
G1 X15.141 Y30.395 E0.00476
G1 X15.273 Y30.139 E0.00904
G1 X15.738 Y29.696 E0.02014
G1 X15.946 Y29.601 E0.00718
G1 X16.103 Y29.944 F10800.000
G1 F1800
G1 X16.167 Y29.923 E0.00212
G1 X233.833 Y29.923 E6.82476
G1 X234.077 Y30.026 E0.00830
G1 X234.407 Y30.340 E0.01428
G1 X234.521 Y30.578 E0.00828
G1 X240.826 Y156.416 E3.95050
G1 X241.027 Y161.241 E0.15143
G1 X241.157 Y166.069 E0.15141
G1 X241.210 Y172.597 E0.20470
G1 X241.196 Y179.386 E0.21285
G1 X241.086 Y179.635 E0.00855
G1 X240.743 Y179.978 E0.01520
G1 X240.489 Y180.077 E0.00855
G1 X9.511 Y180.077 E7.24215
G1 X9.284 Y179.996 E0.00756
G1 X8.904 Y179.625 E0.01664
G1 X8.804 Y179.371 E0.00855
G1 X8.790 Y172.599 E0.21234
G1 X8.843 Y166.076 E0.20454
G1 X8.972 Y161.247 E0.15146
G1 X9.174 Y156.413 E0.15170
G1 X15.479 Y30.578 E3.95040
G1 X15.593 Y30.340 E0.00828
G1 X15.923 Y30.026 E0.01428
G1 X16.048 Y29.969 E0.00431
G1 X16.154 Y30.327 F10800.000
G1 F1800
G1 X16.221 Y30.300 E0.00228
G1 X233.779 Y30.300 E6.82136
G1 X233.846 Y30.327 E0.00228
G1 X234.117 Y30.585 E0.01174
G1 X234.147 Y30.651 E0.00227
G1 X240.450 Y156.433 E3.94873
G1 X240.651 Y161.256 E0.15136
G1 X240.780 Y166.074 E0.15112
G1 X240.833 Y172.597 E0.20456
G1 X240.819 Y179.329 E0.21106
G1 X240.790 Y179.398 E0.00235
G1 X240.516 Y179.671 E0.01213
G1 X240.447 Y179.700 E0.00235
G1 X9.553 Y179.700 E7.23953
G1 X9.484 Y179.671 E0.00235
G1 X9.210 Y179.398 E0.01213
G1 X9.181 Y179.329 E0.00235
G1 X9.167 Y172.599 E0.21100
G1 X9.220 Y166.081 E0.20440
G1 X9.349 Y161.258 E0.15125
G1 X9.550 Y156.431 E0.15150
G1 X15.853 Y30.651 E3.94868
G1 X15.883 Y30.585 E0.00227
G1 X16.110 Y30.369 E0.00986
G1 X16.333 Y30.677 F10800.000
G1 F1800
G1 X233.667 Y30.677 E6.81435
G1 X233.776 Y30.782 E0.00474
G1 X240.073 Y156.449 E3.94516
G1 X240.274 Y161.270 E0.15129
G1 X240.403 Y166.082 E0.15093
G1 X240.456 Y172.598 E0.20430
G1 X240.442 Y179.213 E0.20741
G1 X240.332 Y179.323 E0.00489
G1 X9.668 Y179.323 E7.23229
G1 X9.558 Y179.213 E0.00489
G1 X9.544 Y172.599 E0.20735
G1 X9.597 Y166.085 E0.20425
G1 X9.726 Y161.270 E0.15104
G1 X9.927 Y156.449 E0.15129
G1 X16.224 Y30.782 E3.94516
G1 X16.290 Y30.719 E0.00286
G1 X16.608 Y31.076 F10800.000
G1 F1800
G1 X233.391 Y31.076 E6.79708
G1 X239.675 Y156.467 E3.93647
G1 X239.876 Y161.282 E0.15112
G1 X240.005 Y166.091 E0.15082
G1 X240.058 Y172.600 E0.20409
G1 X240.044 Y178.924 E0.19830
G1 X9.956 Y178.924 E7.21426
G1 X9.942 Y172.600 E0.19830
G1 X9.995 Y166.091 E0.20409
G1 X10.124 Y161.282 E0.15082
G1 X10.325 Y156.467 E0.15112
G1 X16.605 Y31.136 E3.93459
G1 X16.951 Y31.282 F10800.000
G1 X16.967 Y31.453
G1 F1800
G1 X233.032 Y31.453 E6.77457
G1 X239.298 Y156.484 E3.92518
G1 X239.499 Y161.295 E0.15099
G1 X239.628 Y166.097 E0.15062
G1 X239.681 Y172.601 E0.20392
G1 X239.668 Y178.547 E0.18644
G1 X10.332 Y178.547 E7.19067
G1 X10.319 Y172.601 E0.18644
G1 X10.372 Y166.097 E0.20392
G1 X10.501 Y161.295 E0.15062
G1 X10.702 Y156.484 E0.15099
G1 X16.964 Y31.513 E3.92329
G1 F8640
G1 X20.255 Y31.512 E-0.76000
G1 E-0.04000 F2100.00000
G1 Z0.800 F10800.000
G1 X11.208 Y178.434
G1 Z0.200
G1 E0.80000 F2100.00000
G1 F1800
G1 X10.613 Y177.839 E0.02641
G1 X10.612 Y177.304 E0.01679
G1 X11.573 Y178.264 E0.04263
G1 X12.106 Y178.264 E0.01676
G1 X10.611 Y176.769 E0.06638
G1 X10.610 Y176.234 E0.01679
G1 X12.640 Y178.264 E0.09012
G1 X13.174 Y178.264 E0.01676
G1 X10.609 Y175.699 E0.11387
G1 X10.608 Y175.164 E0.01679
G1 X13.708 Y178.264 E0.13762
G1 X14.242 Y178.264 E0.01676
G1 X10.606 Y174.629 E0.16137
G1 X10.605 Y174.094 E0.01679
G1 X14.776 Y178.264 E0.18512
G1 X15.309 Y178.264 E0.01676
G1 X10.604 Y173.559 E0.20886
G1 X10.603 Y173.024 E0.01679
G1 X15.843 Y178.264 E0.23261
G1 X16.377 Y178.264 E0.01676
G1 X10.603 Y172.490 E0.25631
G1 X10.607 Y171.961 E0.01662
G1 X16.911 Y178.264 E0.27981
G1 X17.445 Y178.264 E0.01676
