; generated by Slic3r Prusa Edition 1.40.0+ on 2018-06-25 at 09:34:19

; 

; external perimeters extrusion width = 0.45mm
; perimeters extrusion width = 0.45mm
; infill extrusion width = 0.45mm
; solid infill extrusion width = 0.45mm
; top infill extrusion width = 0.40mm
; first layer extrusion width = 0.42mm

M107
M115 U3.2.1 ; tell printer latest fw version
M201 X1000 Y1000 Z200 E5000 ; sets maximum accelerations, mm/sec^2
M203 X200 Y200 Z12 E120 ; sets maximum feedrates, mm/sec
M204 S1250 T1250 ; sets acceleration (S) and retract acceleration (T)
M205 X10 Y10 Z0.4 E2.5 ; sets the jerk limits, mm/sec
M205 S0 T0 ; sets the minimum extruding and travel feed rate, mm/sec
M83  ; extruder relative mode
M104 S215 ; set extruder temp
M140 S60 ; set bed temp
M190 S60 ; wait for bed temp
M109 S215 ; wait for extruder temp
G28 W ; home all without mesh bed level
G80 ; mesh bed leveling
G1 Y-3.0 F1000.0 ; go outside print area
G92 E0.0
G1 X60.0 E9.0  F1000.0 ; intro line
G1 X100.0 E12.5  F1000.0 ; intro line
G92 E0.0
M221 S95
M900 K30; Filament gcode
G21 ; set units to millimeters
G90 ; use absolute coordinates
M83 ; use relative distances for extrusion
;BEFORE_LAYER_CHANGE
G92 E0.0
;0.2


G1 E-0.80000 F2100.00000
G1 Z0.600 F10800.000
;AFTER_LAYER_CHANGE
;0.2
G1 X54.992 Y101.248
G1 Z0.200
G1 E0.80000 F2100.00000
M204 S1000
G1 F1800
G1 X56.283 Y100.915 E0.04182
G1 X193.106 Y94.173 E4.29517
G1 X194.070 Y94.266 E0.03036
G1 X195.004 Y94.542 E0.03054
G1 X195.868 Y94.991 E0.03054
G1 X196.628 Y95.592 E0.03036
G1 X197.262 Y96.330 E0.03054
G1 X197.743 Y97.171 E0.03036
G1 X198.055 Y98.088 E0.03036
G1 X198.188 Y99.053 E0.03054
G1 X198.183 Y104.346 E0.16597
G1 X198.047 Y105.243 E0.02845
G1 X197.751 Y106.107 E0.02862
G1 X197.071 Y107.222 E0.04096
G1 X196.129 Y108.127 E0.04096
G1 X194.987 Y108.763 E0.04096
G1 X193.717 Y109.088 E0.04113
G1 X67.023 Y115.474 E3.97742
G1 X58.466 Y115.801 E0.26851
G1 X56.758 Y115.820 E0.05354
G1 X55.939 Y115.731 E0.02584
G1 X54.958 Y115.438 E0.03210
G1 X54.055 Y114.955 E0.03210
G1 X53.225 Y114.256 E0.03402
G1 X52.559 Y113.393 E0.03419
G1 X52.091 Y112.408 E0.03419
G1 X51.845 Y111.346 E0.03419
G1 X51.814 Y105.712 E0.17664
G1 X51.937 Y104.830 E0.02793
G1 X52.213 Y103.977 E0.02810
G1 X52.888 Y102.833 E0.04165
G1 X53.836 Y101.902 E0.04165
G1 X54.940 Y101.278 E0.03977
G1 F8640
G1 X56.283 Y100.915 E-0.32141
G1 X58.181 Y100.822 E-0.43859
G1 E-0.04000 F2100.00000
G1 Z0.800 F10800.000
G1 X52.555 Y111.355
G1 Z0.200
G1 E0.80000 F2100.00000
G1 F1800
G1 X52.185 Y109.955 E0.04541
G1 X52.189 Y106.777 E0.09965
G1 X52.495 Y105.489 E0.04150
G1 X53.143 Y104.368 E0.04058
G1 X54.072 Y103.457 E0.04082
G1 X55.193 Y102.832 E0.04022
G1 X56.493 Y102.545 E0.04175
G1 X57.459 Y102.555 E0.03029
G1 X60.842 Y102.460 E0.10612
G1 X66.534 Y102.220 E0.17861
G1 X77.645 Y101.634 E0.34887
G1 X170.872 Y96.987 E2.92668
G1 X191.659 Y95.929 E0.65263
G1 X192.280 Y95.885 E0.01950
G1 X193.894 Y95.890 E0.05062
G1 X194.713 Y96.104 E0.02654
G1 X195.546 Y96.504 E0.02897
G1 X196.609 Y97.396 E0.04351
G1 X197.381 Y98.513 E0.04259
G1 X197.815 Y100.046 E0.04994
G1 X197.815 Y103.153 E0.09743
G1 X197.529 Y104.434 E0.04115
G1 X196.899 Y105.561 E0.04049
G1 X196.146 Y106.350 E0.03420
G1 X195.231 Y106.967 E0.03462
G1 X193.820 Y107.410 E0.04636
G1 X186.736 Y107.749 E0.22237
G1 X174.616 Y108.393 E0.38053
G1 X166.574 Y108.782 E0.25246
G1 X78.328 Y113.204 E2.77037
G1 X77.338 Y113.239 E0.03104
G1 X66.997 Y113.776 E0.32470
G1 X62.326 Y113.979 E0.14657
G1 X56.490 Y114.154 E0.18306
G1 X55.474 Y113.966 E0.03241
G1 X54.473 Y113.518 E0.03439
G1 X53.348 Y112.564 E0.04624
G1 X52.588 Y111.405 E0.04345
G1 X52.911 Y111.227 F10800.000
G1 F1800
G1 X52.562 Y109.930 E0.04214
G1 X52.562 Y106.840 E0.09688
G1 X52.835 Y105.653 E0.03820
G1 X53.456 Y104.580 E0.03885
G1 X54.316 Y103.746 E0.03758
G1 X55.350 Y103.176 E0.03702
G1 X56.510 Y102.922 E0.03722
G1 X57.462 Y102.933 E0.02986
G1 X60.855 Y102.837 E0.10644
G1 X66.552 Y102.597 E0.17876
G1 X77.665 Y102.011 E0.34893
G1 X170.891 Y97.364 E2.92667
G1 X191.683 Y96.306 E0.65276
G1 X192.300 Y96.261 E0.01940
G1 X193.868 Y96.267 E0.04918
G1 X194.568 Y96.452 E0.02269
G1 X195.323 Y96.808 E0.02617
G1 X196.346 Y97.668 E0.04191
G1 X197.053 Y98.700 E0.03922
G1 X197.438 Y100.071 E0.04466
G1 X197.438 Y103.133 E0.09598
G1 X197.185 Y104.276 E0.03671
G1 X196.609 Y105.319 E0.03735
G1 X195.888 Y106.074 E0.03276
G1 X195.044 Y106.638 E0.03183
G1 X193.778 Y107.035 E0.04159
G1 X186.717 Y107.372 E0.22165
G1 X174.597 Y108.017 E0.38055
G1 X166.556 Y108.405 E0.25243
G1 X78.310 Y112.827 E2.77034
G1 X77.322 Y112.862 E0.03101
G1 X66.978 Y113.400 E0.32477
G1 X62.314 Y113.602 E0.14638
G1 X56.500 Y113.776 E0.18237
G1 X55.567 Y113.600 E0.02977
G1 X54.654 Y113.186 E0.03143
G1 X53.614 Y112.295 E0.04294
G1 X52.944 Y111.277 E0.03819
G1 X53.260 Y111.072 F10800.000
G1 F1800
G1 X52.939 Y109.905 E0.03796
G1 X52.939 Y106.861 E0.09545
G1 X53.177 Y105.815 E0.03363
G1 X53.739 Y104.830 E0.03555
G1 X54.523 Y104.062 E0.03442
G1 X55.460 Y103.538 E0.03366
G1 X56.528 Y103.299 E0.03430
G1 X57.465 Y103.310 E0.02940
G1 X60.869 Y103.214 E0.10675
G1 X66.569 Y102.973 E0.17890
G1 X77.684 Y102.388 E0.34898
G1 X170.910 Y97.741 E2.92665
G1 X191.706 Y96.682 E0.65289
G1 X192.320 Y96.638 E0.01932
G1 X193.797 Y96.638 E0.04630
G1 X194.426 Y96.802 E0.02038
G1 X195.100 Y97.114 E0.02328
G1 X196.083 Y97.940 E0.04026
G1 X196.723 Y98.886 E0.03581
G1 X197.061 Y100.097 E0.03943
G1 X197.061 Y103.113 E0.09455
G1 X196.841 Y104.119 E0.03232
G1 X196.318 Y105.078 E0.03423
G1 X195.661 Y105.773 E0.03000
G1 X194.857 Y106.310 E0.03030
G1 X193.736 Y106.659 E0.03682
G1 X186.698 Y106.996 E0.22093
G1 X174.577 Y107.640 E0.38057
G1 X166.537 Y108.029 E0.25239
G1 X78.293 Y112.450 E2.77031
G1 X77.305 Y112.485 E0.03098
G1 X66.959 Y113.023 E0.32484
G1 X62.301 Y113.225 E0.14618
G1 X56.510 Y113.399 E0.18166
G1 X55.662 Y113.235 E0.02709
G1 X54.837 Y112.855 E0.02847
G1 X53.881 Y112.028 E0.03962
G1 X53.293 Y111.123 E0.03386
G1 X53.578 Y110.870 F10800.000
G1 F1800
G1 X53.316 Y109.881 E0.03206
G1 X53.316 Y106.881 E0.09405
G1 X53.519 Y105.975 E0.02912
G1 X54.024 Y105.079 E0.03226
G1 X54.730 Y104.378 E0.03118
G1 X55.620 Y103.880 E0.03196
G1 X56.545 Y103.677 E0.02970
G1 X57.469 Y103.687 E0.02896
G1 X60.882 Y103.591 E0.10707
G1 X66.587 Y103.350 E0.17905
G1 X77.704 Y102.764 E0.34903
G1 X170.929 Y98.117 E2.92663
G1 X191.729 Y97.059 E0.65302
G1 X192.341 Y97.014 E0.01926
G1 X193.727 Y97.009 E0.04345
G1 X194.287 Y97.153 E0.01811
G1 X194.878 Y97.420 E0.02034
G1 X195.820 Y98.211 E0.03856
G1 X196.392 Y99.069 E0.03236
G1 X196.684 Y100.122 E0.03426
G1 X196.684 Y103.093 E0.09314
G1 X196.496 Y103.965 E0.02797
G1 X196.027 Y104.837 E0.03106
G1 X195.402 Y105.498 E0.02851
G1 X194.672 Y105.980 E0.02744
G1 X193.694 Y106.284 E0.03209
G1 X186.679 Y106.619 E0.22022
G1 X174.558 Y107.264 E0.38059
G1 X166.518 Y107.652 E0.25236
G1 X78.275 Y112.074 E2.77027
G1 X77.289 Y112.109 E0.03095
G1 X66.940 Y112.647 E0.32491
G1 X62.289 Y112.849 E0.14599
G1 X56.521 Y113.021 E0.18094
G1 X55.759 Y112.870 E0.02436
G1 X55.021 Y112.525 E0.02551
G1 X54.150 Y111.763 E0.03630
G1 X53.610 Y110.920 E0.03138
G1 X53.934 Y110.742 F10800.000
G1 F1800
G1 X53.693 Y109.855 E0.02881
G1 X53.693 Y106.901 E0.09262
G1 X53.863 Y106.133 E0.02467
G1 X54.311 Y105.325 E0.02898
G1 X54.940 Y104.692 E0.02798
G1 X55.731 Y104.242 E0.02855
G1 X56.563 Y104.054 E0.02675
G1 X57.472 Y104.064 E0.02849
G1 X60.895 Y103.967 E0.10738
G1 X66.605 Y103.727 E0.17919
G1 X77.723 Y103.141 E0.34909
G1 X170.948 Y98.494 E2.92661
G1 X191.752 Y97.435 E0.65315
G1 X192.363 Y97.391 E0.01920
G1 X193.659 Y97.381 E0.04064
G1 X194.151 Y97.505 E0.01591
G1 X194.657 Y97.726 E0.01731
G1 X195.555 Y98.481 E0.03680
G1 X196.061 Y99.251 E0.02886
G1 X196.307 Y100.147 E0.02916
G1 X196.307 Y103.073 E0.09175
G1 X196.150 Y103.813 E0.02369
G1 X195.735 Y104.597 E0.02783
G1 X195.144 Y105.222 E0.02698
G1 X194.488 Y105.650 E0.02454
G1 X193.653 Y105.908 E0.02742
G1 X186.660 Y106.242 E0.21951
G1 X174.538 Y106.887 E0.38061
G1 X166.500 Y107.276 E0.25233
G1 X78.258 Y111.697 E2.77024
G1 X77.272 Y111.732 E0.03091
G1 X66.922 Y112.270 E0.32498
G1 X62.276 Y112.472 E0.14579
G1 X56.530 Y112.644 E0.18023
G1 X55.897 Y112.518 E0.02023
G1 X55.206 Y112.195 E0.02392
G1 X54.420 Y111.498 E0.03295
G1 X53.966 Y110.793 E0.02630
G1 X54.289 Y110.613 F10800.000
G1 F1800
G1 X54.070 Y109.829 E0.02551
G1 X54.070 Y106.921 E0.09117
G1 X54.207 Y106.289 E0.02029
G1 X54.598 Y105.571 E0.02562
G1 X55.188 Y104.977 E0.02627
G1 X55.890 Y104.584 E0.02522
G1 X56.580 Y104.431 E0.02217
G1 X57.475 Y104.441 E0.02805
G1 X60.908 Y104.344 E0.10770
G1 X66.623 Y104.103 E0.17934
G1 X77.743 Y103.517 E0.34914
G1 X170.967 Y98.870 E2.92659
G1 X191.775 Y97.811 E0.65329
G1 X192.385 Y97.767 E0.01917
G1 X193.593 Y97.753 E0.03788
G1 X194.015 Y97.857 E0.01363
G1 X194.480 Y98.060 E0.01591
G1 X195.290 Y98.751 E0.03339
G1 X195.706 Y99.382 E0.02370
G1 X195.930 Y100.174 E0.02582
G1 X195.930 Y103.054 E0.09031
G1 X195.804 Y103.663 E0.01948
G1 X195.441 Y104.359 E0.02461
G1 X194.915 Y104.921 E0.02414
G1 X194.348 Y105.299 E0.02138
G1 X193.610 Y105.533 E0.02428
G1 X186.641 Y105.866 E0.21875
G1 X174.519 Y106.510 E0.38059
G1 X166.481 Y106.899 E0.25232
G1 X78.240 Y111.320 E2.77021
G1 X77.256 Y111.355 E0.03088
G1 X66.903 Y111.893 E0.32505
G1 X62.264 Y112.095 E0.14560
G1 X56.540 Y112.266 E0.17953
G1 X56.036 Y112.167 E0.01611
G1 X55.392 Y111.866 E0.02230
G1 X54.691 Y111.235 E0.02957
G1 X54.321 Y110.663 E0.02135
G1 X54.643 Y110.480 F10800.000
G1 F1800
G1 X54.447 Y109.802 E0.02215
G1 X54.447 Y106.940 E0.08972
G1 X54.552 Y106.445 E0.01588
G1 X54.915 Y105.777 E0.02384
G1 X55.433 Y105.265 E0.02283
G1 X56.047 Y104.928 E0.02193
G1 X56.597 Y104.808 E0.01767
G1 X57.478 Y104.818 E0.02763
G1 X60.922 Y104.721 E0.10801
G1 X66.641 Y104.480 E0.17948
G1 X77.763 Y103.894 E0.34919
G1 X170.986 Y99.247 E2.92657
G1 X191.798 Y98.188 E0.65342
G1 X192.407 Y98.144 E0.01914
G1 X193.529 Y98.125 E0.03518
G1 X193.879 Y98.209 E0.01130
G1 X194.302 Y98.394 E0.01445
G1 X195.024 Y99.019 E0.02994
G1 X195.353 Y99.515 E0.01868
G1 X195.553 Y100.202 E0.02241
G1 X195.553 Y103.036 E0.08887
G1 X195.455 Y103.516 E0.01535
G1 X195.147 Y104.122 E0.02131
G1 X194.655 Y104.648 E0.02261
G1 X194.205 Y104.949 E0.01696
G1 X193.566 Y105.158 E0.02109
G1 X186.622 Y105.489 E0.21797
G1 X174.500 Y106.134 E0.38061
G1 X166.463 Y106.522 E0.25229
G1 X78.223 Y110.944 E2.77018
G1 X77.239 Y110.978 E0.03085
G1 X66.884 Y111.517 E0.32513
G1 X62.251 Y111.718 E0.14540
G1 X56.550 Y111.889 E0.17884
G1 X56.175 Y111.815 E0.01198
G1 X55.578 Y111.537 E0.02065
G1 X54.963 Y110.973 E0.02614
G1 X54.675 Y110.531 E0.01656
G1 F8640
G1 X54.447 Y109.802 E-0.17640
G1 X54.447 Y107.274 E-0.58360
G1 E-0.04000 F2100.00000
G1 Z0.800 F10800.000
G1 X55.811 Y111.238
G1 Z0.200
G1 E0.80000 F2100.00000
G1 F1800
G1 X55.235 Y110.711 E0.02448
G1 X54.995 Y110.345 E0.01372
G1 X54.824 Y109.773 E0.01872
G1 X54.824 Y106.959 E0.08825
G1 X54.898 Y106.596 E0.01161
G1 X55.201 Y106.024 E0.02029
G1 X55.678 Y105.553 E0.02102
G1 X56.200 Y105.274 E0.01854
G1 X56.613 Y105.186 E0.01326
G1 X57.481 Y105.195 E0.02722
G1 X60.935 Y105.098 E0.10832
G1 X66.659 Y104.856 E0.17963
G1 X77.782 Y104.270 E0.34925
G1 X171.005 Y99.624 E2.92655
G1 X191.822 Y98.564 E0.65355
G1 X192.430 Y98.520 E0.01913
G1 X193.468 Y98.498 E0.03255
G1 X193.745 Y98.562 E0.00891
G1 X194.123 Y98.727 E0.01294
G1 X194.756 Y99.285 E0.02645
G1 X195.000 Y99.652 E0.01385
G1 X195.176 Y100.231 E0.01894
G1 X195.176 Y103.018 E0.08741
G1 X195.107 Y103.369 E0.01119
G1 X194.824 Y103.925 E0.01957
G1 X194.396 Y104.373 E0.01941
G1 X194.060 Y104.601 E0.01276
G1 X193.521 Y104.782 E0.01783
G1 X186.603 Y105.113 E0.21715
G1 X174.480 Y105.757 E0.38063
G1 X166.444 Y106.146 E0.25226
G1 X78.205 Y110.567 E2.77014
G1 X77.223 Y110.602 E0.03082
G1 X66.865 Y111.140 E0.32520
G1 X62.238 Y111.341 E0.14521
G1 X56.562 Y111.511 E0.17807
G1 X56.273 Y111.451 E0.00925
G1 X55.865 Y111.263 E0.01407
G1 X56.042 Y110.939 F10800.000
G1 F1800
G1 X55.507 Y110.449 E0.02277
G1 X55.347 Y110.205 E0.00913
G1 X55.201 Y109.743 E0.01519
G1 X55.201 Y106.976 E0.08678
G1 X55.246 Y106.742 E0.00745
G1 X55.489 Y106.270 E0.01663
G1 X55.922 Y105.842 E0.01911
G1 X56.348 Y105.621 E0.01505
G1 X56.629 Y105.563 E0.00898
G1 X57.485 Y105.572 E0.02683
G1 X60.948 Y105.475 E0.10864
G1 X66.677 Y105.233 E0.17977
G1 X77.801 Y104.647 E0.34929
G1 X171.023 Y100.000 E2.92655
G1 X191.845 Y98.940 E0.65368
G1 X192.454 Y98.896 E0.01914
G1 X193.411 Y98.871 E0.03003
G1 X193.611 Y98.915 E0.00643
G1 X193.943 Y99.060 E0.01135
G1 X194.486 Y99.549 E0.02291
G1 X194.650 Y99.794 E0.00924
G1 X194.799 Y100.261 E0.01538
G1 X194.799 Y103.002 E0.08595
G1 X194.757 Y103.227 E0.00719
G1 X194.531 Y103.686 E0.01603
G1 X194.137 Y104.098 E0.01788
G1 X193.910 Y104.254 E0.00864
G1 X193.474 Y104.407 E0.01448
G1 X186.584 Y104.736 E0.21628
G1 X174.461 Y105.381 E0.38065
G1 X166.426 Y105.769 E0.25223
G1 X78.188 Y110.190 E2.77011
G1 X77.207 Y110.225 E0.03079
G1 X66.847 Y110.764 E0.32527
G1 X62.226 Y110.964 E0.14501
G1 X56.576 Y111.133 E0.17722
G1 X56.375 Y111.088 E0.00646
G1 X56.097 Y110.964 E0.00954
G1 X55.695 Y110.060 F10800.000
G1 F1800
G1 X55.578 Y109.711 E0.01155
G1 X55.578 Y106.990 E0.08530
G1 X55.598 Y106.881 E0.00347
G1 X55.777 Y106.515 E0.01279
G1 X56.165 Y106.133 E0.01706
G1 X56.491 Y105.971 E0.01144
G1 X56.644 Y105.940 E0.00487
G1 X57.488 Y105.950 E0.02647
G1 X60.961 Y105.852 E0.10895
G1 X66.695 Y105.610 E0.17991
G1 X77.820 Y105.024 E0.34932
G1 X171.042 Y100.377 E2.92655
G1 X191.868 Y99.317 E0.65382
G1 X192.470 Y99.273 E0.01892
G1 X193.360 Y99.245 E0.02792
G1 X193.480 Y99.269 E0.00384
G1 X193.762 Y99.392 E0.00964
G1 X194.214 Y99.810 E0.01931
G1 X194.302 Y99.940 E0.00493
G1 X194.422 Y100.294 E0.01169
G1 X194.422 Y102.988 E0.08448
G1 X194.404 Y103.093 E0.00335
G1 X194.236 Y103.449 E0.01233
G1 X193.877 Y103.825 E0.01630
G1 X193.754 Y103.910 E0.00469
G1 X193.425 Y104.032 E0.01100
G1 X186.565 Y104.359 E0.21536
G1 X174.441 Y105.004 E0.38067
G1 X166.407 Y105.392 E0.25219
G1 X78.170 Y109.814 E2.77008
G1 X77.190 Y109.848 E0.03075
G1 X66.828 Y110.387 E0.32534
G1 X62.211 Y110.587 E0.14490
G1 X56.629 Y110.760 E0.17508
G1 X56.509 Y110.735 E0.00386
G1 X56.226 Y110.608 E0.00970
G1 X55.781 Y110.189 E0.01917
G1 X55.728 Y110.110 E0.00299
G1 X56.638 Y110.379 F10800.000
G1 F1800
G1 X56.412 Y110.278 E0.00775
G1 X56.058 Y109.933 E0.01551
G1 X55.955 Y109.675 E0.00870
G1 X55.955 Y107.011 E0.08353
G1 X56.067 Y106.760 E0.00863
G1 X56.404 Y106.426 E0.01489
G1 X56.657 Y106.318 E0.00862
G1 X57.491 Y106.327 E0.02615
G1 X60.975 Y106.228 E0.10927
G1 X66.712 Y105.986 E0.18006
G1 X77.840 Y105.400 E0.34938
G1 X171.061 Y100.753 E2.92653
G1 X191.891 Y99.693 E0.65395
G1 X192.487 Y99.650 E0.01874
G1 X193.353 Y99.625 E0.02716
G1 X193.578 Y99.724 E0.00770
G1 X193.939 Y100.069 E0.01566
G1 X194.045 Y100.330 E0.00881
G1 X194.039 Y102.999 E0.08368
G1 X193.941 Y103.212 E0.00735
G1 X193.616 Y103.552 E0.01474
G1 X193.374 Y103.657 E0.00829
G1 X186.546 Y103.983 E0.21432
G1 X174.422 Y104.628 E0.38068
G1 X166.389 Y105.016 E0.25216
G1 X78.153 Y109.437 E2.77004
G1 X77.174 Y109.472 E0.03072
G1 X66.809 Y110.010 E0.32541
G1 X62.195 Y110.211 E0.14479
G1 X56.698 Y110.384 E0.17247
G1 X56.645 Y109.978 F10800.000
G1 F1800
G1 X56.362 Y109.703 E0.01237
G1 X56.333 Y109.633 E0.00239
G1 X56.333 Y107.068 E0.08042
G1 X56.362 Y106.998 E0.00237
G1 X56.639 Y106.724 E0.01225
G1 X56.709 Y106.695 E0.00237
G1 X57.494 Y106.704 E0.02461
G1 X60.988 Y106.605 E0.10958
G1 X66.730 Y106.363 E0.18020
G1 X77.859 Y105.777 E0.34943
G1 X171.080 Y101.130 E2.92651
G1 X191.915 Y100.070 E0.65409
G1 X192.504 Y100.027 E0.01854
G1 X193.277 Y99.999 E0.02425
G1 X193.349 Y100.026 E0.00239
G1 X193.637 Y100.302 E0.01252
G1 X193.667 Y100.373 E0.00242
G1 X193.667 Y102.913 E0.07965
G1 X193.640 Y102.981 E0.00228
G1 X193.381 Y103.252 E0.01176
G1 X193.315 Y103.282 E0.00227
G1 X186.527 Y103.606 E0.21308
G1 X174.402 Y104.251 E0.38070
G1 X166.370 Y104.639 E0.25213
G1 X78.135 Y109.060 E2.77001
G1 X77.157 Y109.095 E0.03069
G1 X66.790 Y109.634 E0.32549
G1 X62.180 Y109.834 E0.14468
G1 X56.701 Y110.000 E0.17188
G1 X56.823 Y109.626 F10800.000
G1 F1800
G1 X56.710 Y109.515 E0.00497
