; generated by Slic3r Prusa Edition 1.40.0+ on 2018-06-28 at 08:03:41

; 

; external perimeters extrusion width = 0.45mm
; perimeters extrusion width = 0.45mm
; infill extrusion width = 0.45mm
; solid infill extrusion width = 0.45mm
; top infill extrusion width = 0.40mm
; first layer extrusion width = 0.42mm

M107
M115 U3.2.1 ; tell printer latest fw version
M201 X1000 Y1000 Z200 E5000 ; sets maximum accelerations, mm/sec^2
M203 X200 Y200 Z12 E120 ; sets maximum feedrates, mm/sec
M204 S1250 T1250 ; sets acceleration (S) and retract acceleration (T)
M205 X10 Y10 Z0.4 E2.5 ; sets the jerk limits, mm/sec
M205 S0 T0 ; sets the minimum extruding and travel feed rate, mm/sec
M83  ; extruder relative mode
M104 S215 ; set extruder temp
M140 S60 ; set bed temp
M190 S60 ; wait for bed temp
M109 S215 ; wait for extruder temp
G28 W ; home all without mesh bed level
G80 ; mesh bed leveling
G1 Y-3.0 F1000.0 ; go outside print area
G92 E0.0
G1 X60.0 E9.0  F1000.0 ; intro line
G1 X100.0 E12.5  F1000.0 ; intro line
G92 E0.0
M221 S95
M900 K30; Filament gcode
G21 ; set units to millimeters
G90 ; use absolute coordinates
M83 ; use relative distances for extrusion
;BEFORE_LAYER_CHANGE
G92 E0.0
;0.2


G1 E-0.80000 F2100.00000
G1 Z0.600 F10800.000
;AFTER_LAYER_CHANGE
;0.2
G1 X75.554 Y46.453
G1 Z0.200
G1 E0.80000 F2100.00000
M204 S1000
G1 F1800
G1 X76.800 Y44.934 E0.06161
G1 X78.313 Y43.692 E0.06136
G1 X80.046 Y42.766 E0.06161
G1 X81.919 Y42.199 E0.06136
G1 X83.875 Y42.007 E0.06161
G1 X85.453 Y42.134 E0.04966
G1 X86.999 Y42.511 E0.04990
G1 X98.858 Y46.953 E0.39704
G1 X107.734 Y50.536 E0.30013
G1 X116.504 Y54.451 E0.30112
G1 X132.046 Y61.816 E0.53925
G1 X136.633 Y64.127 E0.16106
G1 X142.613 Y67.538 E0.21584
G1 X151.470 Y72.933 E0.32518
G1 X154.500 Y74.874 E0.11283
G1 X156.811 Y76.511 E0.08877
G1 X158.564 Y77.876 E0.06966
G1 X160.961 Y79.945 E0.09929
G1 X162.675 Y81.578 E0.07423
G1 X164.351 Y83.309 E0.07555
G1 X166.601 Y85.847 E0.10634
G1 X168.120 Y87.710 E0.07538
G1 X170.075 Y90.319 E0.10219
G1 X171.383 Y92.233 E0.07270
G1 X172.935 Y94.760 E0.09300
G1 X173.925 Y96.614 E0.06588
G1 X174.737 Y98.406 E0.06169
G1 X175.398 Y100.247 E0.06134
G1 X175.765 Y101.639 E0.04514
G1 X176.021 Y103.131 E0.04747
G1 X176.127 Y105.000 E0.05869
G1 X176.038 Y106.710 E0.05367
G1 X175.787 Y108.262 E0.04929
G1 X175.418 Y109.681 E0.04598
G1 X174.737 Y111.594 E0.06365
G1 X173.924 Y113.387 E0.06175
G1 X172.936 Y115.239 E0.06580
G1 X171.383 Y117.767 E0.09304
G1 X170.075 Y119.681 E0.07268
G1 X168.119 Y122.291 E0.10225
G1 X166.602 Y124.153 E0.07531
G1 X164.351 Y126.691 E0.10639
G1 X162.677 Y128.420 E0.07544
G1 X160.960 Y130.056 E0.07437
G1 X158.563 Y132.125 E0.09928
G1 X156.810 Y133.490 E0.06965
G1 X154.501 Y135.125 E0.08872
G1 X152.131 Y136.659 E0.08853
G1 X142.612 Y142.463 E0.34954
G1 X136.631 Y145.874 E0.21590
G1 X132.043 Y148.186 E0.16108
G1 X116.503 Y155.550 E0.53917
G1 X107.733 Y159.464 E0.30113
G1 X98.859 Y163.047 E0.30007
G1 X86.993 Y167.491 E0.39727
G1 X85.455 Y167.866 E0.04966
G1 X83.868 Y167.993 E0.04990
G1 X82.028 Y167.822 E0.05795
G1 X80.243 Y167.313 E0.05819
G1 X78.590 Y166.486 E0.05795
G1 X77.112 Y165.364 E0.05819
G1 X75.871 Y163.994 E0.05795
G1 X74.900 Y162.412 E0.05819
G1 X74.241 Y160.686 E0.05795
G1 X73.910 Y158.859 E0.05819
G1 X73.873 Y52.000 E3.35050
G1 X74.065 Y50.052 E0.06136
G1 X74.632 Y48.179 E0.06136
G1 X75.526 Y46.506 E0.05948
G1 F8640
G1 X76.800 Y44.934 E-0.46728
G1 X77.780 Y44.130 E-0.29272
G1 E-0.04000 F2100.00000
G1 Z0.800 F10800.000
G1 X77.682 Y44.602
G1 Z0.200
G1 E0.80000 F2100.00000
G1 F1800
G1 X80.773 Y42.827 E0.11174
G1 X82.833 Y42.386 E0.06605
G1 X84.950 Y42.389 E0.06639
G1 X86.706 Y42.789 E0.05647
G1 X89.841 Y44.002 E0.10540
G1 X98.711 Y47.300 E0.29671
G1 X101.722 Y48.468 E0.10126
G1 X104.642 Y49.649 E0.09876
G1 X107.597 Y50.888 E0.10045
G1 X110.548 Y52.166 E0.10084
G1 X113.423 Y53.450 E0.09872
G1 X116.341 Y54.791 E0.10069
G1 X131.867 Y62.148 E0.53872
G1 X134.814 Y63.606 E0.10307
G1 X136.390 Y64.425 E0.05570
G1 X137.935 Y65.261 E0.05507
G1 X139.511 Y66.147 E0.05670
G1 X142.421 Y67.863 E0.10593
G1 X150.601 Y72.840 E0.30021
G1 X153.502 Y74.664 E0.10745
G1 X155.717 Y76.179 E0.08415
G1 X157.472 Y77.489 E0.06865
G1 X159.151 Y78.853 E0.06784
G1 X160.774 Y80.284 E0.06784
G1 X162.421 Y81.858 E0.07142
G1 X164.032 Y83.519 E0.07255
G1 X165.570 Y85.224 E0.07201
G1 X166.373 Y86.161 E0.03869
G1 X167.777 Y87.885 E0.06971
G1 X169.124 Y89.649 E0.06958
G1 X169.857 Y90.664 E0.03927
G1 X171.027 Y92.376 E0.06502
G1 X171.655 Y93.356 E0.03647
G1 X172.586 Y94.908 E0.05677
G1 X173.528 Y96.663 E0.06244
G1 X174.355 Y98.471 E0.06234
G1 X174.741 Y99.466 E0.03347
G1 X175.080 Y100.497 E0.03402
G1 X175.410 Y101.772 E0.04129
G1 X175.606 Y102.848 E0.03429
G1 X175.725 Y103.985 E0.03584
G1 X175.747 Y105.565 E0.04954
G1 X175.601 Y107.186 E0.05103
G1 X175.392 Y108.309 E0.03582
G1 X175.112 Y109.396 E0.03522
G1 X174.765 Y110.466 E0.03524
G1 X174.400 Y111.422 E0.03210
G1 X173.990 Y112.371 E0.03242
G1 X173.540 Y113.312 E0.03268
G1 X172.661 Y114.960 E0.05859
G1 X171.569 Y116.782 E0.06657
G1 X170.953 Y117.735 E0.03560
G1 X169.844 Y119.355 E0.06154
G1 X168.473 Y121.218 E0.07253
G1 X167.073 Y122.994 E0.07092
G1 X165.614 Y124.726 E0.07100
G1 X164.038 Y126.474 E0.07377
G1 X162.449 Y128.115 E0.07162
G1 X160.798 Y129.694 E0.07163
G1 X159.118 Y131.174 E0.07021
G1 X157.382 Y132.581 E0.07008
G1 X155.801 Y133.762 E0.06186
G1 X154.948 Y134.363 E0.03272
G1 X153.478 Y135.352 E0.05556
G1 X150.589 Y137.168 E0.10698
G1 X142.410 Y142.145 E0.30019
G1 X139.447 Y143.889 E0.10779
G1 X137.956 Y144.728 E0.05363
G1 X136.436 Y145.551 E0.05422
G1 X133.412 Y147.098 E0.10651
G1 X130.473 Y148.517 E0.10233
G1 X116.350 Y155.205 E0.48994
G1 X113.457 Y156.535 E0.09985
G1 X110.548 Y157.834 E0.09988
G1 X107.597 Y159.112 E0.10084
G1 X104.674 Y160.338 E0.09936
G1 X101.705 Y161.539 E0.10043
G1 X98.709 Y162.701 E0.10074
G1 X90.122 Y165.890 E0.28721
G1 X86.548 Y167.272 E0.12017
G1 X83.307 Y167.670 E0.10238
G1 X81.849 Y167.460 E0.04618
G1 X80.451 Y167.058 E0.04562
G1 X76.931 Y164.743 E0.13208
G1 X75.903 Y163.491 E0.05078
G1 X75.088 Y162.095 E0.05069
G1 X74.250 Y158.850 E0.10509
G1 X74.250 Y51.245 E3.37389
G1 X74.625 Y49.159 E0.06646
G1 X75.445 Y47.212 E0.06624
G1 X77.643 Y44.647 E0.10591
G1 X77.929 Y44.893 F10800.000
G1 F1800
G1 X80.881 Y43.190 E0.10687
G1 X82.853 Y42.763 E0.06325
G1 X84.928 Y42.766 E0.06508
G1 X86.583 Y43.145 E0.05321
G1 X89.708 Y44.354 E0.10506
G1 X98.576 Y47.652 E0.29666
G1 X101.582 Y48.818 E0.10109
G1 X104.498 Y49.997 E0.09861
G1 X107.450 Y51.235 E0.10037
G1 X110.395 Y52.511 E0.10064
G1 X113.268 Y53.794 E0.09866
G1 X116.182 Y55.133 E0.10056
G1 X131.705 Y62.488 E0.53856
G1 X134.645 Y63.943 E0.10286
G1 X136.215 Y64.759 E0.05547
G1 X137.751 Y65.590 E0.05477
G1 X139.321 Y66.473 E0.05647
G1 X142.227 Y68.185 E0.10574
G1 X150.401 Y73.160 E0.30004
G1 X153.298 Y74.981 E0.10729
G1 X155.501 Y76.488 E0.08369
G1 X157.237 Y77.784 E0.06792
G1 X158.910 Y79.143 E0.06760
G1 X160.522 Y80.565 E0.06736
G1 X162.153 Y82.123 E0.07073
G1 X163.759 Y83.779 E0.07233
G1 X165.286 Y85.471 E0.07146
G1 X166.082 Y86.401 E0.03840
G1 X167.483 Y88.120 E0.06954
G1 X168.819 Y89.872 E0.06907
G1 X169.547 Y90.879 E0.03896
G1 X170.714 Y92.587 E0.06485
G1 X171.333 Y93.552 E0.03595
G1 X172.260 Y95.098 E0.05654
G1 X173.193 Y96.836 E0.06183
G1 X174.010 Y98.622 E0.06160
G1 X174.384 Y99.589 E0.03249
G1 X174.717 Y100.597 E0.03329
G1 X175.043 Y101.860 E0.04088
G1 X175.233 Y102.908 E0.03342
G1 X175.348 Y103.999 E0.03437
G1 X175.370 Y105.560 E0.04896
G1 X175.226 Y107.143 E0.04983
G1 X175.026 Y108.221 E0.03439
G1 X174.748 Y109.297 E0.03484
G1 X174.408 Y110.345 E0.03454
G1 X174.049 Y111.284 E0.03152
G1 X173.648 Y112.212 E0.03171
G1 X173.206 Y113.138 E0.03218
G1 X172.330 Y114.779 E0.05831
G1 X171.251 Y116.580 E0.06583
G1 X170.640 Y117.524 E0.03526
G1 X169.535 Y119.139 E0.06136
G1 X168.171 Y120.992 E0.07213
G1 X166.782 Y122.754 E0.07034
G1 X165.328 Y124.481 E0.07081
G1 X163.761 Y126.219 E0.07336
G1 X162.181 Y127.850 E0.07119
G1 X160.540 Y129.418 E0.07117
G1 X158.872 Y130.889 E0.06973
G1 X157.153 Y132.281 E0.06936
G1 X155.581 Y133.455 E0.06151
G1 X154.736 Y134.051 E0.03245
G1 X153.269 Y135.038 E0.05540
G1 X150.391 Y136.846 E0.10658
G1 X142.217 Y141.820 E0.30002
G1 X139.261 Y143.562 E0.10757
G1 X137.773 Y144.398 E0.05353
G1 X136.258 Y145.219 E0.05401
G1 X133.242 Y146.762 E0.10623
G1 X130.309 Y148.177 E0.10210
G1 X116.192 Y154.863 E0.48977
G1 X113.300 Y156.192 E0.09978
G1 X110.395 Y157.489 E0.09975
G1 X107.450 Y158.765 E0.10064
G1 X104.530 Y159.990 E0.09929
G1 X101.565 Y161.189 E0.10028
G1 X98.577 Y162.348 E0.10049
G1 X89.988 Y165.537 E0.28724
G1 X86.433 Y166.912 E0.11952
G1 X83.335 Y167.293 E0.09788
G1 X81.940 Y167.094 E0.04417
G1 X80.582 Y166.703 E0.04431
G1 X77.204 Y164.481 E0.12678
G1 X76.221 Y163.288 E0.04848
G1 X75.427 Y161.928 E0.04939
G1 X74.627 Y158.826 E0.10042
G1 X74.627 Y51.261 E3.37262
G1 X74.980 Y49.286 E0.06293
G1 X75.781 Y47.385 E0.06465
G1 X77.890 Y44.939 E0.10128
G1 X78.174 Y45.186 F10800.000
G1 F1800
G1 X78.211 Y45.144 E0.00174
G1 X80.990 Y43.552 E0.10042
G1 X82.873 Y43.141 E0.06044
G1 X84.907 Y43.143 E0.06376
G1 X86.459 Y43.502 E0.04996
G1 X89.574 Y44.707 E0.10472
G1 X98.443 Y48.005 E0.29670
G1 X101.442 Y49.168 E0.10084
G1 X104.355 Y50.346 E0.09853
G1 X107.303 Y51.582 E0.10022
G1 X110.242 Y52.856 E0.10044
G1 X113.114 Y54.138 E0.09859
G1 X116.024 Y55.475 E0.10043
G1 X131.542 Y62.829 E0.53841
G1 X134.476 Y64.280 E0.10265
G1 X136.040 Y65.093 E0.05524
G1 X137.568 Y65.919 E0.05448
G1 X139.131 Y66.799 E0.05625
G1 X142.032 Y68.508 E0.10556
G1 X150.202 Y73.480 E0.29987
G1 X153.094 Y75.298 E0.10713
G1 X155.285 Y76.797 E0.08322
G1 X157.002 Y78.079 E0.06719
G1 X158.664 Y79.429 E0.06712
G1 X160.269 Y80.845 E0.06712
G1 X161.885 Y82.388 E0.07004
G1 X163.485 Y84.039 E0.07211
G1 X165.001 Y85.718 E0.07091
G1 X165.791 Y86.641 E0.03810
G1 X167.189 Y88.356 E0.06938
G1 X168.515 Y90.095 E0.06856
G1 X169.237 Y91.094 E0.03865
G1 X170.401 Y92.797 E0.06468
G1 X171.011 Y93.748 E0.03542
G1 X171.935 Y95.288 E0.05631
G1 X172.858 Y97.009 E0.06121
G1 X173.665 Y98.774 E0.06086
G1 X174.031 Y99.720 E0.03182
G1 X174.353 Y100.698 E0.03226
G1 X174.676 Y101.947 E0.04046
G1 X174.861 Y102.969 E0.03255
G1 X174.972 Y104.012 E0.03291
G1 X174.992 Y105.555 E0.04838
G1 X174.854 Y107.082 E0.04808
G1 X174.656 Y108.145 E0.03390
G1 X174.384 Y109.197 E0.03405
G1 X174.054 Y110.215 E0.03355
G1 X173.702 Y111.138 E0.03099
G1 X173.306 Y112.053 E0.03124
G1 X172.871 Y112.964 E0.03167
G1 X172.000 Y114.597 E0.05803
G1 X170.932 Y116.378 E0.06509
G1 X170.328 Y117.313 E0.03493
G1 X169.225 Y118.923 E0.06118
G1 X167.869 Y120.766 E0.07174
G1 X166.488 Y122.518 E0.06995
G1 X165.041 Y124.236 E0.07042
G1 X163.483 Y125.964 E0.07296
G1 X161.912 Y127.585 E0.07076
G1 X160.282 Y129.143 E0.07071
G1 X158.632 Y130.598 E0.06900
G1 X156.924 Y131.981 E0.06889
G1 X155.362 Y133.148 E0.06115
G1 X154.523 Y133.740 E0.03217
G1 X153.061 Y134.723 E0.05525
G1 X150.194 Y136.525 E0.10617
G1 X142.022 Y141.498 E0.29994
G1 X139.074 Y143.234 E0.10727
G1 X137.589 Y144.069 E0.05342
G1 X136.080 Y144.886 E0.05380
G1 X133.072 Y146.425 E0.10595
G1 X130.146 Y147.837 E0.10188
G1 X116.033 Y154.521 E0.48960
G1 X113.144 Y155.849 E0.09971
G1 X110.242 Y157.144 E0.09962
G1 X107.303 Y158.418 E0.10044
G1 X104.385 Y159.642 E0.09922
G1 X101.424 Y160.838 E0.10012
G1 X98.444 Y161.995 E0.10023
G1 X89.855 Y165.184 E0.28728
G1 X86.319 Y166.552 E0.11887
G1 X83.363 Y166.916 E0.09338
G1 X82.032 Y166.728 E0.04215
G1 X80.714 Y166.349 E0.04300
G1 X77.477 Y164.220 E0.12148
G1 X76.522 Y163.060 E0.04710
G1 X75.766 Y161.761 E0.04714
G1 X75.004 Y158.803 E0.09577
G1 X75.004 Y51.278 E3.37135
G1 X75.348 Y49.374 E0.06069
G1 X76.116 Y47.560 E0.06175
G1 X78.135 Y45.231 E0.09665
G1 X78.419 Y45.478 F10800.000
G1 F1800
G1 X78.474 Y45.415 E0.00262
G1 X81.099 Y43.914 E0.09482
G1 X82.893 Y43.518 E0.05761
G1 X84.884 Y43.520 E0.06243
G1 X86.335 Y43.858 E0.04671
G1 X89.440 Y45.059 E0.10439
G1 X98.311 Y48.358 E0.29673
G1 X101.302 Y49.519 E0.10059
G1 X104.213 Y50.695 E0.09845
G1 X107.156 Y51.930 E0.10007
G1 X110.089 Y53.200 E0.10024
G1 X112.957 Y54.481 E0.09846
G1 X115.866 Y55.817 E0.10036
G1 X131.379 Y63.169 E0.53826
G1 X134.308 Y64.617 E0.10245
G1 X135.864 Y65.426 E0.05501
G1 X137.387 Y66.250 E0.05429
G1 X138.941 Y67.125 E0.05592
G1 X141.837 Y68.831 E0.10537
G1 X150.002 Y73.800 E0.29970
G1 X152.891 Y75.616 E0.10697
G1 X155.069 Y77.106 E0.08276
G1 X156.767 Y78.374 E0.06646
G1 X158.417 Y79.714 E0.06664
G1 X160.012 Y81.120 E0.06665
G1 X161.616 Y82.653 E0.06958
G1 X163.208 Y84.294 E0.07168
G1 X164.719 Y85.969 E0.07073
G1 X165.503 Y86.884 E0.03780
G1 X166.891 Y88.587 E0.06887
G1 X168.214 Y90.321 E0.06839
G1 X168.927 Y91.309 E0.03819
G1 X170.085 Y93.003 E0.06435
G1 X170.689 Y93.945 E0.03507
G1 X171.609 Y95.479 E0.05608
G1 X172.523 Y97.182 E0.06060
G1 X173.315 Y98.915 E0.05977
G1 X173.678 Y99.852 E0.03149
G1 X173.993 Y100.810 E0.03162
G1 X174.307 Y102.021 E0.03923
G1 X174.489 Y103.029 E0.03211
G1 X174.596 Y104.043 E0.03198
G1 X174.615 Y105.550 E0.04726
G1 X174.482 Y107.022 E0.04633
G1 X174.287 Y108.070 E0.03342
G1 X174.021 Y109.097 E0.03326
G1 X173.700 Y110.085 E0.03257
G1 X173.354 Y110.992 E0.03046
G1 X172.965 Y111.893 E0.03078
G1 X172.536 Y112.790 E0.03116
G1 X171.669 Y114.415 E0.05775
G1 X170.614 Y116.176 E0.06435
G1 X170.015 Y117.102 E0.03459
G1 X168.916 Y118.708 E0.06100
G1 X167.568 Y120.540 E0.07133
G1 X166.194 Y122.282 E0.06956
G1 X164.755 Y123.990 E0.07003
G1 X163.205 Y125.709 E0.07255
G1 X161.644 Y127.320 E0.07033
G1 X160.024 Y128.868 E0.07026
G1 X158.391 Y130.308 E0.06827
G1 X156.696 Y131.682 E0.06842
G1 X155.142 Y132.842 E0.06079
G1 X154.311 Y133.428 E0.03189
G1 X152.853 Y134.409 E0.05509
G1 X149.997 Y136.204 E0.10577
G1 X141.827 Y141.175 E0.29985
G1 X138.888 Y142.906 E0.10696
G1 X137.406 Y143.739 E0.05331
G1 X135.903 Y144.553 E0.05359
G1 X132.902 Y146.088 E0.10568
G1 X129.983 Y147.498 E0.10165
G1 X115.875 Y154.178 E0.48943
G1 X112.987 Y155.506 E0.09965
G1 X110.090 Y156.799 E0.09949
G1 X107.156 Y158.070 E0.10024
G1 X104.240 Y159.294 E0.09915
G1 X101.284 Y160.488 E0.09996
G1 X98.311 Y161.642 E0.09998
G1 X89.721 Y164.832 E0.28732
G1 X86.205 Y166.192 E0.11822
G1 X83.391 Y166.540 E0.08890
G1 X82.123 Y166.362 E0.04013
G1 X80.846 Y165.994 E0.04169
G1 X77.750 Y163.958 E0.11620
G1 X76.840 Y162.857 E0.04477
G1 X76.105 Y161.594 E0.04583
G1 X75.382 Y158.779 E0.09112
G1 X75.382 Y51.296 E3.37007
G1 X75.715 Y49.462 E0.05843
G1 X76.451 Y47.736 E0.05884
G1 X78.379 Y45.524 E0.09202
G1 X78.663 Y45.772 F10800.000
G1 F1800
G1 X78.736 Y45.688 E0.00351
G1 X81.209 Y44.276 E0.08928
G1 X82.914 Y43.895 E0.05477
G1 X84.862 Y43.897 E0.06108
G1 X86.211 Y44.215 E0.04345
G1 X89.306 Y45.412 E0.10407
G1 X98.178 Y48.711 E0.29677
G1 X101.162 Y49.869 E0.10034
G1 X104.070 Y51.044 E0.09837
G1 X107.009 Y52.277 E0.09992
G1 X109.937 Y53.545 E0.10004
G1 X112.801 Y54.824 E0.09834
G1 X115.707 Y56.159 E0.10030
G1 X131.216 Y63.509 E0.53810
G1 X134.139 Y64.954 E0.10224
G1 X135.689 Y65.760 E0.05478
G1 X137.206 Y66.581 E0.05409
G1 X138.752 Y67.451 E0.05560
G1 X141.642 Y69.154 E0.10519
G1 X149.805 Y74.121 E0.29961
G1 X152.687 Y75.933 E0.10673
G1 X154.853 Y77.415 E0.08229
G1 X156.539 Y78.674 E0.06597
G1 X158.171 Y79.999 E0.06592
G1 X159.754 Y81.395 E0.06618
G1 X161.348 Y82.918 E0.06912
G1 X162.930 Y84.549 E0.07125
G1 X164.438 Y86.219 E0.07055
G1 X165.215 Y87.128 E0.03750
G1 X166.593 Y88.819 E0.06837
G1 X167.913 Y90.548 E0.06822
G1 X168.617 Y91.523 E0.03772
G1 X169.769 Y93.209 E0.06401
G1 X170.367 Y94.141 E0.03472
G1 X171.283 Y95.669 E0.05585
G1 X172.188 Y97.355 E0.05999
G1 X172.966 Y99.057 E0.05868
G1 X173.321 Y99.975 E0.03086
G1 X173.633 Y100.922 E0.03128
G1 X173.937 Y102.095 E0.03800
G1 X174.114 Y103.075 E0.03123
G1 X174.220 Y104.074 E0.03149
G1 X174.238 Y105.545 E0.04613
G1 X174.109 Y106.962 E0.04459
G1 X173.920 Y107.982 E0.03253
G1 X173.657 Y108.997 E0.03287
G1 X173.346 Y109.955 E0.03158
G1 X173.006 Y110.846 E0.02993
G1 X172.623 Y111.734 E0.03032
G1 X172.202 Y112.616 E0.03065
G1 X171.339 Y114.234 E0.05747
G1 X170.296 Y115.974 E0.06361
G1 X169.703 Y116.891 E0.03425
G1 X168.607 Y118.492 E0.06082
