; generated by Slic3r Prusa Edition 1.40.0+ on 2018-06-28 at 11:13:27

; 

; external perimeters extrusion width = 0.45mm
; perimeters extrusion width = 0.45mm
; infill extrusion width = 0.45mm
; solid infill extrusion width = 0.45mm
; top infill extrusion width = 0.40mm
; first layer extrusion width = 0.42mm

M107
M115 U3.2.1 ; tell printer latest fw version
M201 X1000 Y1000 Z200 E5000 ; sets maximum accelerations, mm/sec^2
M203 X200 Y200 Z12 E120 ; sets maximum feedrates, mm/sec
M204 S1250 T1250 ; sets acceleration (S) and retract acceleration (T)
M205 X10 Y10 Z0.4 E2.5 ; sets the jerk limits, mm/sec
M205 S0 T0 ; sets the minimum extruding and travel feed rate, mm/sec
M83  ; extruder relative mode
M104 S215 ; set extruder temp
M140 S60 ; set bed temp
M190 S60 ; wait for bed temp
M109 S215 ; wait for extruder temp
G28 W ; home all without mesh bed level
G80 ; mesh bed leveling
G1 Y-3.0 F1000.0 ; go outside print area
G92 E0.0
G1 X60.0 E9.0  F1000.0 ; intro line
G1 X100.0 E12.5  F1000.0 ; intro line
G92 E0.0
M221 S95
M900 K30; Filament gcode
G21 ; set units to millimeters
G90 ; use absolute coordinates
M83 ; use relative distances for extrusion
;BEFORE_LAYER_CHANGE
G92 E0.0
;0.2


G1 E-0.80000 F2100.00000
G1 Z0.600 F10800.000
;AFTER_LAYER_CHANGE
;0.2
G1 X47.364 Y103.375
G1 Z0.200
G1 E0.80000 F2100.00000
M204 S1000
G1 F1800
G1 X48.130 Y101.574 E0.06136
G1 X48.737 Y100.600 E0.03598
G1 X49.452 Y99.703 E0.03598
G1 X50.265 Y98.893 E0.03598
G1 X51.165 Y98.182 E0.03598
G1 X52.141 Y97.579 E0.03598
G1 X53.187 Y97.088 E0.03622
G1 X54.275 Y96.724 E0.03598
G1 X55.398 Y96.487 E0.03598
G1 X56.405 Y96.386 E0.03174
G1 X193.111 Y89.668 E4.29151
G1 X194.982 Y89.847 E0.05893
G1 X196.786 Y90.372 E0.05893
G1 X198.460 Y91.227 E0.05893
G1 X199.951 Y92.384 E0.05917
G1 X201.192 Y93.796 E0.05893
G1 X202.147 Y95.414 E0.05893
G1 X202.782 Y97.183 E0.05893
G1 X203.075 Y99.039 E0.05893
G1 X203.094 Y103.763 E0.14812
G1 X202.999 Y105.016 E0.03940
G1 X202.543 Y106.911 E0.06112
G1 X201.728 Y108.682 E0.06112
G1 X201.116 Y109.606 E0.03475
G1 X200.401 Y110.463 E0.03500
G1 X199.594 Y111.234 E0.03500
G1 X198.713 Y111.907 E0.03475
G1 X197.763 Y112.477 E0.03475
G1 X196.748 Y112.942 E0.03500
G1 X195.687 Y113.291 E0.03500
G1 X194.602 Y113.517 E0.03475
G1 X173.614 Y114.637 E0.65900
G1 X67.257 Y119.970 E3.33894
G1 X57.002 Y120.330 E0.32174
G1 X55.209 Y120.184 E0.05640
G1 X53.490 Y119.728 E0.05576
G1 X51.879 Y118.976 E0.05576
G1 X50.421 Y117.944 E0.05600
G1 X49.175 Y116.676 E0.05576
G1 X48.170 Y115.199 E0.05600
G1 X47.443 Y113.568 E0.05600
G1 X47.018 Y111.833 E0.05600
G1 X46.906 Y110.417 E0.04453
G1 X46.964 Y105.291 E0.16075
G1 X47.352 Y103.434 E0.05948
G1 F8640
G1 X48.130 Y101.574 E-0.46549
G1 X48.737 Y100.600 E-0.26493
G1 X48.817 Y100.500 E-0.02958
G1 E-0.04000 F2100.00000
G1 Z0.800 F10800.000
G1 X48.127 Y113.267
G1 Z0.200
G1 E0.80000 F2100.00000
G1 F1800
G1 X47.322 Y110.317 E0.09588
G1 X47.364 Y106.062 E0.13343
G1 X47.926 Y103.908 E0.06979
G1 X48.990 Y101.937 E0.07025
G1 X50.691 Y100.085 E0.07882
G1 X52.698 Y98.766 E0.07531
G1 X55.873 Y97.863 E0.10350
G1 X59.563 Y97.781 E0.11572
G1 X61.794 Y97.704 E0.07000
G1 X66.295 Y97.507 E0.14124
G1 X77.213 Y96.936 E0.34281
G1 X173.477 Y92.134 E3.02205
G1 X192.031 Y91.179 E0.58251
G1 X194.209 Y91.181 E0.06828
G1 X196.411 Y91.699 E0.07095
G1 X198.398 Y92.704 E0.06978
G1 X200.123 Y94.169 E0.07099
G1 X201.514 Y96.008 E0.07228
G1 X202.664 Y99.522 E0.11593
G1 X202.718 Y103.250 E0.11690
G1 X202.021 Y106.210 E0.09537
G1 X200.434 Y108.797 E0.09514
G1 X198.522 Y110.512 E0.08054
G1 X196.461 Y111.578 E0.07274
G1 X194.242 Y112.106 E0.07154
G1 X186.978 Y112.457 E0.22802
G1 X175.838 Y113.042 E0.34975
G1 X78.776 Y117.884 E3.04711
G1 X67.238 Y118.485 E0.36225
G1 X62.469 Y118.691 E0.14968
G1 X56.255 Y118.859 E0.19491
G1 X54.095 Y118.480 E0.06874
G1 X52.085 Y117.616 E0.06859
G1 X49.838 Y115.810 E0.09039
G1 X48.161 Y113.317 E0.09422
G1 X48.474 Y113.107 F10800.000
G1 F1800
G1 X47.693 Y110.244 E0.09305
G1 X47.734 Y106.135 E0.12886
G1 X48.285 Y104.026 E0.06834
G1 X49.310 Y102.138 E0.06737
G1 X50.952 Y100.358 E0.07590
G1 X52.880 Y99.097 E0.07224
G1 X55.905 Y98.239 E0.09860
G1 X59.574 Y98.158 E0.11505
G1 X61.809 Y98.081 E0.07013
G1 X66.313 Y97.884 E0.14134
G1 X77.233 Y97.312 E0.34286
G1 X173.497 Y92.511 E3.02204
G1 X192.046 Y91.556 E0.58237
G1 X194.186 Y91.558 E0.06712
G1 X196.302 Y92.061 E0.06818
G1 X198.206 Y93.029 E0.06699
G1 X199.863 Y94.442 E0.06826
G1 X201.194 Y96.209 E0.06936
G1 X202.296 Y99.610 E0.11211
G1 X202.341 Y103.231 E0.11354
G1 X201.683 Y106.040 E0.09044
G1 X200.161 Y108.535 E0.09165
G1 X198.326 Y110.189 E0.07745
G1 X196.351 Y111.217 E0.06982
G1 X194.206 Y111.731 E0.06916
G1 X186.959 Y112.080 E0.22749
G1 X175.819 Y112.666 E0.34975
G1 X78.757 Y117.507 E3.04712
G1 X67.219 Y118.108 E0.36223
G1 X62.457 Y118.315 E0.14945
G1 X56.264 Y118.481 E0.19425
G1 X54.183 Y118.112 E0.06626
G1 X52.259 Y117.280 E0.06573
G1 X50.098 Y115.535 E0.08710
G1 X48.507 Y113.157 E0.08969
G1 X48.821 Y112.949 F10800.000
G1 F1800
G1 X48.790 Y112.901 E0.00179
G1 X48.064 Y110.172 E0.08853
G1 X48.105 Y106.207 E0.12435
G1 X48.627 Y104.185 E0.06546
G1 X49.630 Y102.338 E0.06589
G1 X51.212 Y100.632 E0.07296
G1 X53.062 Y99.429 E0.06917
G1 X55.938 Y98.615 E0.09371
G1 X59.584 Y98.535 E0.11437
G1 X61.824 Y98.457 E0.07026
G1 X66.331 Y98.261 E0.14145
G1 X77.252 Y97.689 E0.34290
G1 X173.516 Y92.887 E3.02202
G1 X192.060 Y91.933 E0.58222
G1 X194.164 Y91.935 E0.06595
G1 X196.192 Y92.422 E0.06540
G1 X198.014 Y93.355 E0.06420
G1 X199.601 Y94.715 E0.06553
G1 X200.873 Y96.410 E0.06644
G1 X201.929 Y99.698 E0.10828
G1 X201.963 Y103.212 E0.11018
G1 X201.323 Y105.924 E0.08737
G1 X199.888 Y108.274 E0.08634
G1 X198.130 Y109.866 E0.07437
G1 X196.239 Y110.856 E0.06690
G1 X194.170 Y111.355 E0.06676
G1 X186.940 Y111.704 E0.22695
G1 X175.800 Y112.289 E0.34975
G1 X78.738 Y117.131 E3.04712
G1 X67.201 Y117.731 E0.36222
G1 X62.446 Y117.938 E0.14923
G1 X56.273 Y118.104 E0.19361
G1 X54.313 Y117.757 E0.06242
G1 X52.433 Y116.945 E0.06422
G1 X50.358 Y115.260 E0.08378
G1 X48.854 Y112.999 E0.08516
G1 X49.169 Y112.791 F10800.000
G1 F1800
G1 X49.121 Y112.720 E0.00268
G1 X48.435 Y110.101 E0.08487
G1 X48.476 Y106.279 E0.11986
G1 X48.986 Y104.302 E0.06400
G1 X49.950 Y102.540 E0.06296
G1 X51.472 Y100.906 E0.07003
G1 X53.242 Y99.761 E0.06611
G1 X55.970 Y98.992 E0.08885
G1 X59.595 Y98.912 E0.11370
G1 X61.838 Y98.834 E0.07038
G1 X66.349 Y98.637 E0.14155
G1 X77.272 Y98.066 E0.34295
G1 X173.535 Y93.264 E3.02201
G1 X192.075 Y92.310 E0.58207
G1 X194.141 Y92.312 E0.06478
G1 X196.081 Y92.783 E0.06259
G1 X197.822 Y93.679 E0.06140
G1 X199.339 Y94.987 E0.06280
G1 X200.552 Y96.610 E0.06352
G1 X201.561 Y99.785 E0.10445
G1 X201.586 Y103.192 E0.10684
G1 X200.986 Y105.754 E0.08251
G1 X199.614 Y108.014 E0.08288
G1 X197.932 Y109.544 E0.07128
G1 X196.128 Y110.495 E0.06396
G1 X194.133 Y110.979 E0.06434
G1 X186.921 Y111.327 E0.22641
G1 X175.781 Y111.913 E0.34975
G1 X78.718 Y116.754 E3.04713
G1 X67.182 Y117.355 E0.36221
G1 X62.434 Y117.561 E0.14901
G1 X56.282 Y117.726 E0.19295
G1 X54.401 Y117.390 E0.05992
G1 X52.607 Y116.609 E0.06134
G1 X50.619 Y114.987 E0.08046
G1 X49.202 Y112.841 E0.08063
G1 X49.454 Y112.539 F10800.000
G1 F1800
G1 X48.807 Y110.032 E0.08120
G1 X48.847 Y106.350 E0.11544
G1 X49.329 Y104.462 E0.06109
G1 X50.269 Y102.742 E0.06146
G1 X51.731 Y101.181 E0.06706
G1 X53.422 Y100.094 E0.06305
G1 X56.002 Y99.368 E0.08401
G1 X59.606 Y99.289 E0.11303
G1 X61.853 Y99.211 E0.07051
G1 X66.367 Y99.014 E0.14166
G1 X77.291 Y98.442 E0.34299
G1 X173.554 Y93.640 E3.02200
G1 X192.089 Y92.687 E0.58193
G1 X194.117 Y92.689 E0.06360
G1 X195.968 Y93.144 E0.05976
G1 X197.628 Y94.004 E0.05861
G1 X199.077 Y95.258 E0.06008
G1 X200.230 Y96.809 E0.06060
G1 X201.192 Y99.870 E0.10062
G1 X201.209 Y103.171 E0.10350
G1 X200.626 Y105.638 E0.07949
G1 X199.339 Y107.754 E0.07763
G1 X197.735 Y109.222 E0.06819
G1 X195.972 Y110.151 E0.06246
G1 X194.098 Y110.603 E0.06048
G1 X186.902 Y110.951 E0.22588
G1 X175.762 Y111.536 E0.34975
G1 X78.699 Y116.378 E3.04713
G1 X67.163 Y116.978 E0.36220
G1 X62.422 Y117.184 E0.14878
G1 X56.292 Y117.349 E0.19229
G1 X54.490 Y117.023 E0.05740
G1 X52.783 Y116.275 E0.05846
G1 X50.881 Y114.714 E0.07714
G1 X49.487 Y112.589 E0.07966
G1 X49.803 Y112.384 F10800.000
G1 F1800
G1 X49.178 Y109.963 E0.07839
G1 X49.218 Y106.421 E0.11105
G1 X49.688 Y104.579 E0.05962
G1 X50.588 Y102.945 E0.05847
G1 X51.989 Y101.457 E0.06410
G1 X53.601 Y100.426 E0.06000
G1 X56.034 Y99.745 E0.07920
G1 X59.616 Y99.665 E0.11236
G1 X61.868 Y99.588 E0.07064
G1 X66.385 Y99.391 E0.14176
G1 X77.311 Y98.819 E0.34304
G1 X173.573 Y94.017 E3.02199
G1 X192.103 Y93.063 E0.58178
G1 X194.094 Y93.066 E0.06240
G1 X195.855 Y93.504 E0.05691
G1 X197.434 Y94.327 E0.05582
G1 X198.813 Y95.529 E0.05736
G1 X199.908 Y97.007 E0.05768
G1 X200.824 Y99.955 E0.09678
G1 X200.832 Y103.150 E0.10019
G1 X200.287 Y105.469 E0.07469
G1 X199.064 Y107.495 E0.07420
G1 X197.536 Y108.900 E0.06509
G1 X195.860 Y109.790 E0.05950
G1 X194.061 Y110.228 E0.05805
G1 X186.883 Y110.574 E0.22534
G1 X175.743 Y111.159 E0.34975
G1 X78.680 Y116.001 E3.04714
G1 X67.144 Y116.602 E0.36218
G1 X62.411 Y116.807 E0.14856
G1 X56.301 Y116.971 E0.19162
G1 X54.580 Y116.656 E0.05485
G1 X52.959 Y115.940 E0.05557
G1 X51.143 Y114.442 E0.07382
G1 X49.835 Y112.434 E0.07512
G1 X50.152 Y112.230 F10800.000
G1 F1800
G1 X50.121 Y112.182 E0.00177
G1 X49.550 Y109.895 E0.07390
G1 X49.589 Y106.492 E0.10673
G1 X50.030 Y104.739 E0.05666
G1 X50.906 Y103.149 E0.05693
G1 X52.246 Y101.733 E0.06111
G1 X53.780 Y100.760 E0.05696
G1 X56.066 Y100.121 E0.07441
G1 X59.627 Y100.042 E0.11170
G1 X61.883 Y99.965 E0.07076
G1 X66.403 Y99.767 E0.14187
G1 X77.330 Y99.195 E0.34308
G1 X173.592 Y94.394 E3.02197
G1 X192.118 Y93.440 E0.58163
G1 X194.070 Y93.443 E0.06120
G1 X195.741 Y93.864 E0.05403
G1 X197.238 Y94.651 E0.05303
G1 X198.549 Y95.799 E0.05464
G1 X199.585 Y97.205 E0.05476
G1 X200.455 Y100.038 E0.09293
G1 X200.455 Y103.129 E0.09690
G1 X199.949 Y105.301 E0.06994
G1 X198.788 Y107.237 E0.07078
G1 X197.337 Y108.580 E0.06199
G1 X195.747 Y109.430 E0.05652
G1 X194.025 Y109.852 E0.05559
G1 X186.864 Y110.197 E0.22479
G1 X175.724 Y110.783 E0.34977
G1 X78.661 Y115.625 E3.04712
G1 X67.126 Y116.225 E0.36217
G1 X62.399 Y116.430 E0.14834
G1 X56.311 Y116.594 E0.19094
G1 X54.671 Y116.290 E0.05229
G1 X53.136 Y115.607 E0.05268
G1 X51.407 Y114.170 E0.07050
G1 X50.184 Y112.280 E0.07058
G1 X50.501 Y112.077 F10800.000
G1 F1800
G1 X50.456 Y112.005 E0.00265
G1 X49.922 Y109.829 E0.07026
G1 X49.960 Y106.562 E0.10244
G1 X50.390 Y104.856 E0.05519
G1 X51.224 Y103.353 E0.05388
G1 X52.503 Y102.011 E0.05813
G1 X53.957 Y101.094 E0.05392
G1 X56.097 Y100.498 E0.06965
G1 X59.638 Y100.419 E0.11103
G1 X61.897 Y100.341 E0.07089
G1 X66.421 Y100.144 E0.14197
G1 X77.350 Y99.572 E0.34312
G1 X173.611 Y94.770 E3.02196
G1 X192.132 Y93.817 E0.58149
G1 X194.045 Y93.820 E0.05999
G1 X195.625 Y94.224 E0.05113
G1 X197.042 Y94.973 E0.05024
G1 X198.284 Y96.068 E0.05192
G1 X199.262 Y97.402 E0.05187
G1 X200.078 Y100.066 E0.08736
G1 X200.078 Y103.106 E0.09533
G1 X199.588 Y105.186 E0.06697
G1 X198.511 Y106.979 E0.06559
G1 X197.136 Y108.259 E0.05892
G1 X195.633 Y109.069 E0.05354
G1 X193.988 Y109.476 E0.05312
G1 X186.845 Y109.821 E0.22423
G1 X175.704 Y110.406 E0.34979
G1 X78.642 Y115.248 E3.04711
G1 X67.107 Y115.848 E0.36216
G1 X62.387 Y116.053 E0.14812
G1 X56.321 Y116.216 E0.19026
G1 X54.763 Y115.923 E0.04970
G1 X53.315 Y115.274 E0.04978
G1 X51.671 Y113.900 E0.06718
G1 X50.534 Y112.127 E0.06604
G1 X50.842 Y111.929 F10800.000
G1 F1800
G1 X50.814 Y111.884 E0.00166
G1 X50.299 Y109.809 E0.06705
G1 X50.331 Y106.631 E0.09963
G1 X50.732 Y105.016 E0.05217
G1 X51.542 Y103.558 E0.05231
G1 X52.758 Y102.289 E0.05512
G1 X54.134 Y101.428 E0.05089
G1 X56.129 Y100.874 E0.06492
G1 X59.648 Y100.796 E0.11037
G1 X61.912 Y100.718 E0.07102
G1 X66.439 Y100.521 E0.14208
G1 X77.369 Y99.948 E0.34317
G1 X173.630 Y95.147 E3.02195
G1 X192.147 Y94.194 E0.58134
G1 X194.021 Y94.197 E0.05878
G1 X195.470 Y94.568 E0.04688
G1 X196.810 Y95.272 E0.04748
G1 X197.992 Y96.307 E0.04928
G1 X198.939 Y97.599 E0.05021
G1 X199.701 Y100.094 E0.08179
G1 X199.701 Y103.085 E0.09378
G1 X199.249 Y105.018 E0.06224
G1 X198.234 Y106.722 E0.06221
G1 X196.934 Y107.940 E0.05583
G1 X195.518 Y108.709 E0.05055
G1 X193.951 Y109.100 E0.05062
G1 X186.826 Y109.444 E0.22367
G1 X175.685 Y110.030 E0.34981
G1 X78.622 Y114.871 E3.04710
G1 X67.088 Y115.472 E0.36214
G1 X62.376 Y115.676 E0.14789
G1 X56.332 Y115.839 E0.18956
G1 X54.857 Y115.557 E0.04709
G1 X53.494 Y114.941 E0.04688
G1 X51.935 Y113.630 E0.06388
G1 X50.875 Y111.979 E0.06151
G1 X51.192 Y111.777 F10800.000
G1 F1800
G1 X51.149 Y111.708 E0.00256
G1 X50.676 Y109.788 E0.06199
G1 X50.703 Y106.700 E0.09682
G1 X51.092 Y105.132 E0.05066
G1 X51.858 Y103.764 E0.04918
G1 X53.013 Y102.568 E0.05212
G1 X54.310 Y101.762 E0.04786
G1 X56.161 Y101.251 E0.06022
G1 X59.659 Y101.173 E0.10972
G1 X61.927 Y101.095 E0.07114
G1 X66.457 Y100.897 E0.14218
G1 X77.389 Y100.325 E0.34321
G1 X173.649 Y95.523 E3.02194
G1 X192.161 Y94.571 E0.58119
G1 X193.996 Y94.574 E0.05755
G1 X195.354 Y94.927 E0.04397
G1 X196.579 Y95.570 E0.04338
G1 X197.728 Y96.577 E0.04791
G1 X198.615 Y97.795 E0.04726
G1 X199.324 Y100.122 E0.07625
G1 X199.324 Y103.063 E0.09222
G1 X198.889 Y104.903 E0.05928
G1 X197.956 Y106.466 E0.05708
G1 X196.732 Y107.621 E0.05278
G1 X195.402 Y108.350 E0.04754
G1 X193.914 Y108.725 E0.04810
G1 X186.807 Y109.068 E0.22310
G1 X175.665 Y109.653 E0.34982
G1 X78.603 Y114.495 E3.04709
G1 X67.069 Y115.095 E0.36213
G1 X62.364 Y115.299 E0.14767
G1 X56.342 Y115.461 E0.18888
G1 X54.992 Y115.205 E0.04310
G1 X53.674 Y114.608 E0.04534
G1 X52.201 Y113.361 E0.06052
G1 X51.225 Y111.828 E0.05700
G1 X51.484 Y111.533 F10800.000
G1 F1800
G1 X51.053 Y109.768 E0.05699
G1 X51.074 Y106.768 E0.09406
G1 X51.433 Y105.294 E0.04757
G1 X52.175 Y103.970 E0.04758
G1 X53.266 Y102.848 E0.04907
G1 X54.484 Y102.098 E0.04485
G1 X56.192 Y101.627 E0.05555
G1 X59.670 Y101.550 E0.10906
G1 X61.942 Y101.472 E0.07127
G1 X66.475 Y101.274 E0.14229
G1 X77.408 Y100.702 E0.34326
G1 X173.668 Y95.900 E3.02192
G1 X192.175 Y94.948 E0.58104
G1 X193.972 Y94.951 E0.05632
G1 X195.199 Y95.271 E0.03976
G1 X196.348 Y95.870 E0.04064
G1 X197.436 Y96.816 E0.04521
G1 X198.292 Y97.992 E0.04559
G1 X198.947 Y100.150 E0.07070
G1 X198.947 Y103.041 E0.09067
G1 X198.550 Y104.736 E0.05458
G1 X197.677 Y106.211 E0.05374
G1 X196.529 Y107.302 E0.04966
G1 X195.242 Y108.008 E0.04600
G1 X193.878 Y108.349 E0.04410
G1 X186.788 Y108.691 E0.22255
G1 X175.646 Y109.277 E0.34983
G1 X78.584 Y114.118 E3.04710
G1 X67.050 Y114.719 E0.36212
G1 X62.352 Y114.922 E0.14745
G1 X56.353 Y115.084 E0.18818
G1 X55.086 Y114.839 E0.04046
G1 X53.855 Y114.277 E0.04242
G1 X52.468 Y113.093 E0.05717
G1 X51.516 Y111.584 E0.05594
G1 X51.843 Y111.413 F10800.000
G1 F1800
G1 X51.431 Y109.746 E0.05385
G1 X51.446 Y106.834 E0.09131
G1 X51.775 Y105.455 E0.04445
G1 X52.492 Y104.176 E0.04595
G1 X53.519 Y103.129 E0.04599
G1 X54.658 Y102.433 E0.04185
G1 X56.224 Y102.004 E0.05092
G1 X59.681 Y101.927 E0.10841
G1 X61.956 Y101.849 E0.07140
G1 X66.493 Y101.651 E0.14239
G1 X77.428 Y101.078 E0.34330
G1 X173.687 Y96.276 E3.02191
G1 X192.190 Y95.325 E0.58089
G1 X193.947 Y95.328 E0.05509
G1 X195.045 Y95.616 E0.03559
G1 X196.118 Y96.169 E0.03787
G1 X197.172 Y97.086 E0.04380
G1 X197.968 Y98.187 E0.04258
G1 X198.570 Y100.177 E0.06519
G1 X198.570 Y103.020 E0.08914
G1 X198.210 Y104.571 E0.04991
G1 X197.397 Y105.958 E0.05041
G1 X196.324 Y106.985 E0.04656
G1 X195.125 Y107.648 E0.04296
G1 X193.840 Y107.973 E0.04156
G1 X186.769 Y108.314 E0.22198
G1 X175.627 Y108.900 E0.34983
G1 X78.565 Y113.742 E3.04710
G1 X67.032 Y114.342 E0.36211
G1 X62.340 Y114.546 E0.14722
G1 X56.364 Y114.706 E0.18746
G1 X55.181 Y114.473 E0.03778
G1 X54.038 Y113.946 E0.03949
G1 X52.735 Y112.826 E0.05385
G1 X51.875 Y111.464 E0.05051
G1 X52.194 Y111.264 F10800.000
G1 F1800
G1 X51.808 Y109.724 E0.04978
G1 X51.818 Y106.900 E0.08855
G1 X52.136 Y105.569 E0.04292
G1 X52.807 Y104.385 E0.04267
G1 X53.770 Y103.411 E0.04292
G1 X54.830 Y102.770 E0.03886
G1 X56.255 Y102.380 E0.04632
G1 X59.691 Y102.304 E0.10776
